;FLAVOR:Marlin
;TIME:1998
;Filament used: 0.689023m
;Layer height: 0.12
;MINX:74.472
;MINY:74.506
;MINZ:0.2
;MAXX:145.528
;MAXY:145.494
;MAXZ:2
;Generated with Cura_SteamEngine 4.4.0
M140 S60
M105
M190 S60
M104 S210
M105
M109 S210
M82 ;absolute extrusion mode
M201 X500.00 Y500.00 Z100.00 E5000.00 ;Setup machine max acceleration
M203 X500.00 Y500.00 Z10.00 E50.00 ;Setup machine max feedrate
M204 P500.00 R1000.00 T500.00 ;Setup Print/Retract/Travel acceleration
M205 X8.00 Y8.00 Z0.40 E5.00 ;Setup Jerk
M220 S100 ;Reset Feedrate
M221 S100 ;Reset Flowrate

G28 ;Home

G92 E0 ;Reset Extruder
G1 Z2.0 F3000 ;Move Z Axis up
G1 X10.1 Y20 Z0.28 F5000.0 ;Move to start position
G1 X10.1 Y200.0 Z0.28 F1500.0 E15 ;Draw the first line
G1 X10.4 Y200.0 Z0.28 F5000.0 ;Move to side a little
G1 X10.4 Y20 Z0.28 F1500.0 E30 ;Draw the second line
G92 E0 ;Reset Extruder
G1 Z2.0 F3000 ;Move Z Axis up

G92 E0
G92 E0
G1 F1500 E-6.5
;LAYER_COUNT:16
;LAYER:0
M107
G0 F6000 X81.838 Y88.031 Z0.2
;TYPE:SKIRT
G1 F1500 E0
G1 F1200 X82.706 Y87.22 E0.03951
G1 X84.655 Y85.361 E0.12909
G1 X87.285 Y82.667 E0.25431
G1 X87.983 Y81.925 E0.2882
G1 X88.654 Y81.27 E0.31939
G1 X89.372 Y80.679 E0.35032
G1 X90.08 Y80.145 E0.37981
G1 X90.26 Y80.012 E0.38725
G1 X90.462 Y79.866 E0.39554
G1 X90.566 Y79.792 E0.39979
G1 X91.119 Y79.402 E0.4223
G1 X91.908 Y78.894 E0.45351
G1 X92.788 Y78.432 E0.48656
G1 X93.771 Y77.971 E0.52268
G1 X93.969 Y77.88 E0.52992
G1 X97.155 Y76.462 E0.64591
G1 X97.293 Y76.402 E0.65092
G1 X97.89 Y76.146 E0.67252
G1 X98.767 Y75.814 E0.70371
G1 X99.72 Y75.545 E0.73665
G1 X100.746 Y75.305 E0.77169
G1 X100.966 Y75.256 E0.77919
G1 X102.793 Y74.868 E0.84131
G1 X102.947 Y74.836 E0.84654
G1 X103.57 Y74.713 E0.86766
G1 X104.497 Y74.571 E0.89886
G1 X105.433 Y74.508 E0.93006
G1 X105.967 Y74.508 E0.94782
G1 X107.289 Y74.54 E0.9918
G1 X109.844 Y74.583 E1.07679
G1 X113.441 Y74.521 E1.19645
G1 X113.837 Y74.506 E1.20963
G1 X114.775 Y74.512 E1.24083
G1 X115.709 Y74.597 E1.27202
G1 X116.336 Y74.7 E1.29315
G1 X117.207 Y74.869 E1.32266
G1 X117.4 Y74.909 E1.32922
G1 X119.333 Y75.32 E1.39495
G1 X119.511 Y75.359 E1.40101
G1 X120.137 Y75.503 E1.42237
G1 X121.041 Y75.752 E1.45356
G1 X121.939 Y76.085 E1.48541
G1 X122.901 Y76.49 E1.52013
G1 X123.106 Y76.579 E1.52756
G1 X126.287 Y77.995 E1.64337
G1 X126.402 Y78.046 E1.64756
G1 X127.034 Y78.336 E1.67069
G1 X127.869 Y78.763 E1.70188
G1 X128.75 Y79.32 E1.73655
G1 X129.628 Y79.934 E1.77218
G1 X129.907 Y80.135 E1.78362
G1 X130.571 Y80.631 E1.81118
G1 X131.298 Y81.224 E1.84239
G1 X131.959 Y81.864 E1.87299
G1 X132.676 Y82.618 E1.9076
G1 X132.797 Y82.747 E1.91348
G1 X133.166 Y83.148 E1.9316
G1 X134.923 Y84.951 E2.01534
G1 X136.716 Y86.69 E2.09841
G1 X137.661 Y87.556 E2.14104
G1 X137.775 Y87.662 E2.14622
G1 X138.196 Y88.059 E2.16547
G1 X138.85 Y88.731 E2.19666
G1 X139.445 Y89.456 E2.22785
G1 X140.049 Y90.349 E2.26371
G1 X140.331 Y90.813 E2.28177
G1 X140.458 Y91.028 E2.29007
G1 X142.026 Y93.745 E2.39441
G1 X142.101 Y93.877 E2.39946
G1 X142.405 Y94.421 E2.42019
G1 X142.828 Y95.258 E2.45138
G1 X143.195 Y96.182 E2.48445
G1 X143.527 Y97.139 E2.51814
G1 X143.596 Y97.343 E2.5253
G1 X144.695 Y100.723 E2.64351
G1 X144.741 Y100.867 E2.64854
G1 X144.936 Y101.496 E2.67044
G1 X145.175 Y102.403 E2.70164
G1 X145.345 Y103.397 E2.73518
G1 X145.428 Y104.065 E2.75757
G1 X145.468 Y104.444 E2.77025
G1 X145.487 Y104.657 E2.77736
G1 X145.528 Y105.88 E2.81806
G1 X145.512 Y106.594 E2.84181
G1 X145.508 Y106.741 E2.8467
G1 X145.463 Y108.003 E2.8887
G1 X145.444 Y110.528 E2.97269
G1 X145.499 Y113.151 E3.05995
G1 X145.525 Y113.987 E3.08777
G1 X145.489 Y115.283 E3.13089
G1 X145.441 Y115.835 E3.14932
G1 X145.401 Y116.216 E3.16206
G1 X145.369 Y116.478 E3.17084
G1 X145.216 Y117.403 E3.20202
G1 X144.976 Y118.339 E3.23416
G1 X144.677 Y119.324 E3.2684
G1 X144.613 Y119.528 E3.27551
G1 X143.508 Y122.929 E3.39445
G1 X143.46 Y123.073 E3.3995
G1 X143.263 Y123.652 E3.41984
G1 X142.923 Y124.526 E3.45103
G1 X142.485 Y125.415 E3.48399
G1 X141.99 Y126.314 E3.51813
G1 X141.882 Y126.505 E3.52542
G1 X140.562 Y128.793 E3.61328
G1 X140.481 Y128.931 E3.6186
G1 X140.104 Y129.563 E3.64308
G1 X139.59 Y130.347 E3.67426
G1 X139.01 Y131.085 E3.70548
G1 X138.16 Y131.972 E3.74634
G1 X137.279 Y132.794 E3.78641
G1 X135.345 Y134.639 E3.87531
G1 X132.715 Y137.333 E4.00054
G1 X132.017 Y138.075 E4.03442
G1 X131.346 Y138.73 E4.06561
G1 X130.628 Y139.321 E4.09654
G1 X129.92 Y139.855 E4.12603
G1 X129.74 Y139.988 E4.13348
G1 X129.538 Y140.134 E4.14176
G1 X129.441 Y140.203 E4.14572
G1 X128.889 Y140.593 E4.1682
G1 X128.101 Y141.101 E4.19939
G1 X127.209 Y141.57 E4.23291
G1 X126.225 Y142.031 E4.26905
G1 X126.031 Y142.12 E4.27615
G1 X122.845 Y143.538 E4.39214
G1 X122.707 Y143.598 E4.39714
G1 X122.11 Y143.854 E4.41874
G1 X121.233 Y144.186 E4.44993
G1 X120.28 Y144.455 E4.48287
G1 X119.254 Y144.695 E4.51792
G1 X119.034 Y144.744 E4.52541
G1 X117.207 Y145.132 E4.58753
G1 X117.053 Y145.164 E4.59277
G1 X116.43 Y145.287 E4.61389
G1 X115.503 Y145.429 E4.64508
G1 X114.567 Y145.492 E4.67628
G1 X114.033 Y145.492 E4.69404
G1 X112.711 Y145.46 E4.73802
G1 X110.156 Y145.417 E4.82302
G1 X106.559 Y145.479 E4.94267
G1 X106.163 Y145.494 E4.95585
G1 X105.225 Y145.488 E4.98705
G1 X104.291 Y145.403 E5.01824
G1 X103.664 Y145.3 E5.03938
G1 X102.793 Y145.131 E5.06889
G1 X102.6 Y145.091 E5.07544
G1 X100.667 Y144.68 E5.14117
G1 X100.489 Y144.641 E5.14723
G1 X99.863 Y144.497 E5.1686
G1 X98.959 Y144.248 E5.19978
G1 X98.063 Y143.916 E5.23156
G1 X97.098 Y143.51 E5.26638
G1 X96.89 Y143.42 E5.27392
G1 X93.712 Y142.005 E5.38963
G1 X93.598 Y141.954 E5.39378
G1 X92.966 Y141.664 E5.41691
G1 X92.131 Y141.237 E5.4481
G1 X91.249 Y140.68 E5.4828
G1 X90.354 Y140.054 E5.51912
G1 X90.07 Y139.848 E5.53079
G1 X89.423 Y139.364 E5.55767
G1 X88.697 Y138.771 E5.58885
G1 X88.041 Y138.136 E5.61921
G1 X87.324 Y137.382 E5.65382
G1 X87.203 Y137.253 E5.6597
G1 X86.834 Y136.852 E5.67783
G1 X85.077 Y135.049 E5.76156
G1 X83.284 Y133.31 E5.84464
G1 X82.339 Y132.444 E5.88727
G1 X82.213 Y132.326 E5.89301
G1 X81.788 Y131.924 E5.91247
G1 X81.135 Y131.251 E5.94366
G1 X80.541 Y130.525 E5.97486
G1 X79.938 Y129.632 E6.01069
G1 X79.66 Y129.173 E6.02854
G1 X79.542 Y128.972 E6.03629
G1 X77.974 Y126.255 E6.14063
G1 X77.899 Y126.123 E6.14568
G1 X77.595 Y125.579 E6.16641
G1 X77.172 Y124.742 E6.1976
G1 X76.805 Y123.818 E6.23067
G1 X76.473 Y122.861 E6.26436
G1 X76.404 Y122.657 E6.27152
G1 X75.305 Y119.277 E6.38973
G1 X75.259 Y119.133 E6.39476
G1 X75.064 Y118.504 E6.41666
G1 X74.825 Y117.597 E6.44786
G1 X74.655 Y116.603 E6.4814
G1 X74.572 Y115.935 E6.50379
G1 X74.532 Y115.556 E6.51647
G1 X74.513 Y115.343 E6.52358
G1 X74.472 Y114.12 E6.56428
G1 X74.488 Y113.406 E6.58803
G1 X74.492 Y113.259 E6.59292
G1 X74.537 Y111.997 E6.63492
G1 X74.556 Y109.472 E6.71891
G1 X74.501 Y106.849 E6.80617
G1 X74.475 Y106.013 E6.83399
G1 X74.511 Y104.717 E6.87711
G1 X74.559 Y104.165 E6.89554
G1 X74.599 Y103.789 E6.90811
G1 X74.631 Y103.526 E6.91693
G1 X74.783 Y102.601 E6.9481
G1 X75.025 Y101.657 E6.98052
G1 X75.324 Y100.673 E7.01472
G1 X75.387 Y100.472 E7.02173
G1 X76.492 Y97.071 E7.14067
G1 X76.54 Y96.927 E7.14572
G1 X76.737 Y96.348 E7.16606
G1 X77.077 Y95.474 E7.19725
G1 X77.515 Y94.585 E7.23021
G1 X78.01 Y93.686 E7.26435
G1 X78.118 Y93.495 E7.27164
G1 X79.438 Y91.207 E7.3595
G1 X79.528 Y91.053 E7.36543
G1 X79.907 Y90.42 E7.38997
G1 X80.423 Y89.637 E7.42116
G1 X81.003 Y88.9 E7.45235
G1 X81.838 Y88.031 E7.49244
G0 F6000 X82.111 Y88.323
G1 F1200 X83.031 Y87.464 E7.5343
G1 X84.934 Y85.648 E7.62179
G1 X87.553 Y82.965 E7.74649
G1 X88.274 Y82.199 E7.78148
G1 X88.933 Y81.557 E7.81208
G1 X89.613 Y80.998 E7.84136
G1 X90.321 Y80.464 E7.87085
G1 X90.495 Y80.336 E7.87804
G1 X90.697 Y80.19 E7.88633
G1 X90.797 Y80.119 E7.89041
G1 X91.35 Y79.729 E7.91291
G1 X92.125 Y79.231 E7.94355
G1 X92.958 Y78.794 E7.97484
G1 X93.941 Y78.333 E8.01095
G1 X94.132 Y78.246 E8.01793
G1 X97.318 Y76.828 E8.13392
G1 X97.45 Y76.77 E8.13872
G1 X98.047 Y76.514 E8.16032
G1 X98.909 Y76.188 E8.19097
G1 X99.811 Y75.935 E8.22213
G1 X100.837 Y75.695 E8.25718
G1 X101.049 Y75.647 E8.26441
G1 X102.876 Y75.259 E8.32653
G1 X103.025 Y75.229 E8.33158
G1 X103.648 Y75.106 E8.35271
G1 X104.558 Y74.967 E8.38332
G1 X105.477 Y74.907 E8.41395
G1 X105.958 Y74.908 E8.42995
G1 X107.199 Y74.938 E8.47124
G1 X109.873 Y74.982 E8.56019
G1 X113.464 Y74.92 E8.67965
G1 X113.852 Y74.906 E8.69256
G1 X114.773 Y74.912 E8.72319
G1 X115.689 Y74.998 E8.75379
G1 X116.26 Y75.093 E8.77304
G1 X117.131 Y75.262 E8.80255
G1 X117.317 Y75.3 E8.80887
G1 X119.25 Y75.711 E8.8746
G1 X119.421 Y75.749 E8.88042
G1 X120.047 Y75.893 E8.90179
G1 X120.935 Y76.138 E8.93243
G1 X121.784 Y76.453 E8.96255
G1 X122.746 Y76.858 E8.99726
G1 X122.944 Y76.944 E9.00444
G1 X126.125 Y78.36 E9.12025
G1 X126.235 Y78.41 E9.12427
G1 X126.867 Y78.7 E9.1474
G1 X127.686 Y79.12 E9.17801
G1 X128.521 Y79.647 E9.21085
G1 X129.399 Y80.261 E9.24649
G1 X129.668 Y80.456 E9.25754
G1 X130.332 Y80.952 E9.2851
G1 X131.045 Y81.534 E9.31571
G1 X131.669 Y82.14 E9.34465
G1 X132.386 Y82.894 E9.37925
G1 X132.503 Y83.018 E9.38492
G1 X132.869 Y83.415 E9.40288
G1 X134.642 Y85.234 E9.48737
G1 X136.468 Y87.006 E9.572
G1 X137.39 Y87.851 E9.61359
G1 X137.5 Y87.953 E9.61858
G1 X137.921 Y88.35 E9.63783
G1 X138.563 Y89.01 E9.66845
G1 X139.145 Y89.724 E9.69909
G1 X139.707 Y90.557 E9.73251
G1 X139.989 Y91.021 E9.75057
G1 X140.112 Y91.228 E9.75858
G1 X141.68 Y93.945 E9.86292
G1 X141.752 Y94.072 E9.86777
G1 X142.056 Y94.616 E9.8885
G1 X142.47 Y95.439 E9.91914
G1 X142.817 Y96.313 E9.95042
G1 X143.149 Y97.27 E9.98411
G1 X143.216 Y97.466 E9.991
G1 X144.315 Y100.846 E10.10921
G1 X144.359 Y100.985 E10.11406
G1 X144.554 Y101.614 E10.13596
G1 X144.788 Y102.505 E10.1666
G1 X144.948 Y103.446 E10.19835
G1 X145.031 Y104.114 E10.22074
G1 X145.07 Y104.479 E10.23295
G1 X145.089 Y104.692 E10.24006
G1 X145.128 Y105.871 E10.27929
G1 X145.112 Y106.585 E10.30305
G1 X145.108 Y106.726 E10.30774
G1 X145.063 Y107.985 E10.34964
G1 X145.044 Y110.533 E10.43439
G1 X145.099 Y113.172 E10.52218
G1 X145.125 Y114 E10.54974
G1 X145.09 Y115.248 E10.59126
G1 X145.042 Y115.8 E10.60969
G1 X145.004 Y116.167 E10.62196
G1 X144.972 Y116.429 E10.63074
G1 X144.821 Y117.337 E10.66135
G1 X144.593 Y118.223 E10.69178
G1 X144.294 Y119.208 E10.72602
G1 X144.232 Y119.404 E10.73286
G1 X143.127 Y122.805 E10.8518
G1 X143.081 Y122.944 E10.85667
G1 X142.884 Y123.523 E10.87701
G1 X142.55 Y124.381 E10.90763
G1 X142.134 Y125.222 E10.93884
G1 X141.639 Y126.121 E10.97297
G1 X141.536 Y126.305 E10.97999
G1 X140.216 Y128.593 E11.06784
G1 X140.137 Y128.726 E11.07299
G1 X139.76 Y129.358 E11.09746
G1 X139.255 Y130.128 E11.12809
G1 X138.684 Y130.85 E11.15871
G1 X137.887 Y131.679 E11.19695
G1 X137.012 Y132.495 E11.23675
G1 X135.066 Y134.352 E11.32621
G1 X132.447 Y137.035 E11.45092
G1 X131.726 Y137.801 E11.4859
G1 X131.067 Y138.443 E11.5165
G1 X130.387 Y139.002 E11.54578
G1 X129.679 Y139.536 E11.57528
G1 X129.505 Y139.664 E11.58246
G1 X129.303 Y139.81 E11.59075
G1 X129.211 Y139.876 E11.59452
G1 X128.659 Y140.266 E11.617
G1 X127.884 Y140.764 E11.64764
G1 X127.039 Y141.208 E11.67939
G1 X126.055 Y141.669 E11.71553
G1 X125.868 Y141.754 E11.72236
G1 X122.682 Y143.172 E11.83835
G1 X122.55 Y143.23 E11.84314
G1 X121.953 Y143.486 E11.86475
G1 X121.091 Y143.812 E11.8954
G1 X120.189 Y144.065 E11.92656
G1 X119.163 Y144.305 E11.9616
G1 X118.951 Y144.353 E11.96883
G1 X117.124 Y144.741 E12.03096
G1 X116.975 Y144.771 E12.03601
G1 X116.352 Y144.894 E12.05713
G1 X115.442 Y145.033 E12.08775
G1 X114.523 Y145.093 E12.11838
G1 X114.042 Y145.092 E12.13438
G1 X112.801 Y145.062 E12.17567
G1 X110.127 Y145.018 E12.26462
G1 X106.536 Y145.08 E12.38407
G1 X106.148 Y145.094 E12.39698
G1 X105.227 Y145.088 E12.42762
G1 X104.311 Y145.002 E12.45822
G1 X103.74 Y144.907 E12.47747
G1 X102.869 Y144.738 E12.50698
G1 X102.683 Y144.7 E12.51329
G1 X100.75 Y144.289 E12.57902
G1 X100.579 Y144.251 E12.58485
G1 X99.953 Y144.107 E12.60621
G1 X99.065 Y143.862 E12.63685
G1 X98.218 Y143.547 E12.66691
G1 X97.253 Y143.141 E12.70173
G1 X97.052 Y143.055 E12.709
G1 X93.874 Y141.64 E12.82471
G1 X93.765 Y141.59 E12.8287
G1 X93.133 Y141.3 E12.85182
G1 X92.314 Y140.88 E12.88244
G1 X91.479 Y140.352 E12.9153
G1 X90.584 Y139.726 E12.95162
G1 X90.309 Y139.528 E12.96289
G1 X89.662 Y139.044 E12.98977
G1 X88.95 Y138.461 E13.02037
G1 X88.331 Y137.86 E13.04907
G1 X87.614 Y137.106 E13.08368
G1 X87.497 Y136.982 E13.08935
G1 X87.131 Y136.585 E13.10731
G1 X85.358 Y134.766 E13.19179
G1 X83.532 Y132.994 E13.27642
G1 X82.61 Y132.149 E13.31802
G1 X82.488 Y132.036 E13.32355
G1 X82.063 Y131.634 E13.343
G1 X81.422 Y130.973 E13.37363
G1 X80.841 Y130.259 E13.40425
G1 X80.28 Y129.424 E13.4377
G1 X80.002 Y128.965 E13.45555
G1 X79.888 Y128.772 E13.46301
G1 X78.32 Y126.055 E13.56734
G1 X78.248 Y125.928 E13.5722
G1 X77.944 Y125.384 E13.59293
G1 X77.53 Y124.561 E13.62357
G1 X77.183 Y123.687 E13.65485
G1 X76.851 Y122.73 E13.68854
G1 X76.784 Y122.534 E13.69543
G1 X75.685 Y119.154 E13.81364
G1 X75.641 Y119.015 E13.81849
G1 X75.446 Y118.386 E13.84039
G1 X75.212 Y117.495 E13.87103
G1 X75.052 Y116.554 E13.90278
G1 X74.969 Y115.886 E13.92517
G1 X74.93 Y115.521 E13.93737
G1 X74.911 Y115.308 E13.94449
G1 X74.872 Y114.129 E13.98372
G1 X74.888 Y113.415 E14.00748
G1 X74.892 Y113.274 E14.01217
G1 X74.937 Y112.015 E14.05407
G1 X74.956 Y109.467 E14.13882
G1 X74.9 Y106.789 E14.22791
G1 X74.875 Y106 E14.25416
G1 X74.91 Y104.752 E14.29569
G1 X74.958 Y104.2 E14.31412
G1 X74.996 Y103.838 E14.32622
G1 X75.028 Y103.575 E14.33504
G1 X75.178 Y102.666 E14.36568
G1 X75.408 Y101.773 E14.39635
G1 X75.707 Y100.789 E14.43055
G1 X75.768 Y100.596 E14.43729
G1 X76.873 Y97.195 E14.55622
G1 X76.919 Y97.056 E14.56109
G1 X77.116 Y96.477 E14.58144
G1 X77.45 Y95.619 E14.61206
G1 X77.866 Y94.778 E14.64327
G1 X78.361 Y93.879 E14.6774
G1 X78.464 Y93.695 E14.68441
G1 X79.784 Y91.407 E14.77227
G1 X79.872 Y91.259 E14.778
G1 X80.251 Y90.626 E14.80253
G1 X80.757 Y89.857 E14.83315
G1 X81.329 Y89.135 E14.86379
G1 X82.111 Y88.323 E14.90128
G0 F6000 X82.384 Y88.616
G1 F1200 X83.239 Y87.818 E14.94018
G1 X85.228 Y85.92 E15.03162
G1 X87.849 Y83.236 E15.1564
G1 X88.566 Y82.473 E15.19122
G1 X89.213 Y81.843 E15.22126
G1 X89.854 Y81.318 E15.24882
G1 X90.562 Y80.784 E15.27831
G1 X90.729 Y80.66 E15.28523
G1 X90.931 Y80.514 E15.29352
G1 X91.027 Y80.445 E15.29745
G1 X91.58 Y80.055 E15.31996
G1 X92.341 Y79.568 E15.35001
G1 X93.128 Y79.156 E15.37955
G1 X94.111 Y78.695 E15.41567
G1 X94.295 Y78.611 E15.42239
G1 X97.481 Y77.193 E15.53838
G1 X97.608 Y77.138 E15.54298
G1 X98.205 Y76.882 E15.56459
G1 X99.05 Y76.563 E15.59463
G1 X99.902 Y76.324 E15.62406
G1 X100.928 Y76.084 E15.65911
G1 X101.132 Y76.039 E15.66606
G1 X102.959 Y75.651 E15.72818
G1 X103.102 Y75.621 E15.73304
G1 X103.725 Y75.498 E15.75416
G1 X104.618 Y75.363 E15.7842
G1 X105.948 Y75.308 E15.82847
G1 X107.192 Y75.338 E15.86986
G1 X109.873 Y75.383 E15.95904
G1 X113.486 Y75.32 E16.07923
G1 X113.867 Y75.306 E16.09191
G1 X114.77 Y75.313 E16.12194
G1 X115.669 Y75.399 E16.15198
G1 X116.184 Y75.486 E16.16935
G1 X117.055 Y75.655 E16.19886
G1 X117.233 Y75.691 E16.2049
G1 X119.166 Y76.102 E16.27063
G1 X119.332 Y76.139 E16.27629
G1 X119.958 Y76.283 E16.29765
G1 X120.828 Y76.524 E16.32768
G1 X121.629 Y76.822 E16.3561
G1 X122.591 Y77.227 E16.39082
G1 X122.781 Y77.31 E16.39772
G1 X125.962 Y78.726 E16.51353
G1 X126.068 Y78.773 E16.51738
G1 X126.7 Y79.063 E16.54051
G1 X127.503 Y79.476 E16.57054
G1 X128.291 Y79.975 E16.60157
G1 X129.169 Y80.589 E16.6372
G1 X129.428 Y80.776 E16.64783
G1 X130.092 Y81.272 E16.67539
G1 X130.791 Y81.844 E16.70543
G1 X131.38 Y82.415 E16.73272
G1 X132.097 Y83.169 E16.76732
G1 X132.209 Y83.289 E16.77278
G1 X132.605 Y83.719 E16.79223
G1 X134.341 Y85.5 E16.87495
G1 X136.184 Y87.288 E16.96035
G1 X137.12 Y88.146 E17.00258
G1 X137.226 Y88.244 E17.00739
G1 X137.647 Y88.641 E17.02663
G1 X138.276 Y89.289 E17.05667
G1 X138.845 Y89.99 E17.0867
G1 X139.365 Y90.765 E17.11774
G1 X139.647 Y91.229 E17.1358
G1 X139.765 Y91.428 E17.14349
G1 X141.333 Y94.145 E17.24783
G1 X141.403 Y94.267 E17.25251
G1 X141.707 Y94.811 E17.27324
G1 X142.112 Y95.618 E17.30327
G1 X142.44 Y96.444 E17.33283
