;FLAVOR:Marlin
;TIME:2150
;Filament used: 0.542103m
;Layer height: 0.12
;MINX:79.783
;MINY:80.52
;MINZ:0.2
;MAXX:140.205
;MAXY:139.483
;MAXZ:2
;Generated with Cura_SteamEngine 4.4.0
M140 S60
M105
M190 S60
M104 S210
M105
M109 S210
M82 ;absolute extrusion mode
M201 X500.00 Y500.00 Z100.00 E5000.00 ;Setup machine max acceleration
M203 X500.00 Y500.00 Z10.00 E50.00 ;Setup machine max feedrate
M204 P500.00 R1000.00 T500.00 ;Setup Print/Retract/Travel acceleration
M205 X8.00 Y8.00 Z0.40 E5.00 ;Setup Jerk
M220 S100 ;Reset Feedrate
M221 S100 ;Reset Flowrate

G28 ;Home

G92 E0 ;Reset Extruder
G1 Z2.0 F3000 ;Move Z Axis up
G1 X10.1 Y20 Z0.28 F5000.0 ;Move to start position
G1 X10.1 Y200.0 Z0.28 F1500.0 E15 ;Draw the first line
G1 X10.4 Y200.0 Z0.28 F5000.0 ;Move to side a little
G1 X10.4 Y20 Z0.28 F1500.0 E30 ;Draw the second line
G92 E0 ;Reset Extruder
G1 Z2.0 F3000 ;Move Z Axis up

G92 E0
G92 E0
G1 F1500 E-6.5
;LAYER_COUNT:16
;LAYER:0
M107
G0 F6000 X86.257 Y87.068 Z0.2
;TYPE:SKIRT
G1 F1500 E0
G1 F1200 X86.429 Y86.898 E0.00804
G1 X86.806 Y86.544 E0.02524
G1 X87.015 Y86.356 E0.03459
G1 X87.738 Y85.759 E0.06578
G1 X88.51 Y85.226 E0.09698
G1 X89.324 Y84.76 E0.12818
G1 X90.219 Y84.348 E0.16095
G1 X90.671 Y84.164 E0.17718
G1 X92.77 Y83.281 E0.25292
G1 X94.196 Y82.661 E0.30464
G1 X94.674 Y82.467 E0.32179
G1 X94.961 Y82.358 E0.33201
G1 X95.588 Y82.141 E0.35407
G1 X96.126 Y81.973 E0.37282
G1 X96.826 Y81.78 E0.39697
G1 X97.477 Y81.623 E0.41924
G1 X98.126 Y81.487 E0.4413
G1 X98.356 Y81.446 E0.44907
G1 X98.695 Y81.391 E0.46049
G1 X99.174 Y81.321 E0.47659
G1 X99.688 Y81.258 E0.49382
G1 X99.932 Y81.234 E0.50197
G1 X100.319 Y81.203 E0.51488
G1 X100.796 Y81.173 E0.53078
G1 X101.176 Y81.155 E0.54343
G1 X101.424 Y81.148 E0.55168
G1 X101.886 Y81.145 E0.56705
G1 X102.394 Y81.152 E0.58395
G1 X102.708 Y81.161 E0.5944
G1 X104.122 Y81.221 E0.64147
G1 X104.226 Y81.226 E0.64493
G1 X104.655 Y81.248 E0.65922
G1 X107.203 Y81.31 E0.74399
G1 X109.732 Y81.301 E0.82811
G1 X112.219 Y81.222 E0.91087
G1 X114.737 Y81.071 E0.99477
G1 X117.244 Y80.848 E1.07848
G1 X118.126 Y80.744 E1.10802
G1 X118.243 Y80.731 E1.11193
G1 X119.165 Y80.632 E1.14277
G1 X119.388 Y80.61 E1.15023
G1 X119.803 Y80.574 E1.16408
G1 X120.456 Y80.537 E1.18584
G1 X120.936 Y80.524 E1.20181
G1 X121.338 Y80.52 E1.21518
G1 X121.549 Y80.522 E1.2222
G1 X122.244 Y80.551 E1.24533
G1 X122.505 Y80.57 E1.25404
G1 X123.008 Y80.618 E1.27084
G1 X123.419 Y80.667 E1.28461
G1 X124.103 Y80.771 E1.30762
G1 X124.724 Y80.885 E1.32862
G1 X125.567 Y81.074 E1.35735
G1 X125.815 Y81.14 E1.36589
G1 X126.42 Y81.32 E1.38688
G1 X126.84 Y81.458 E1.40159
G1 X127.57 Y81.727 E1.42746
G1 X128.125 Y81.954 E1.44741
G1 X128.734 Y82.225 E1.46958
G1 X129.006 Y82.356 E1.47962
G1 X129.646 Y82.69 E1.50363
G1 X130.06 Y82.924 E1.51945
G1 X130.682 Y83.303 E1.54367
G1 X131.162 Y83.618 E1.56277
G1 X132.204 Y84.394 E1.60598
G1 X132.392 Y84.552 E1.61415
G1 X133.285 Y85.391 E1.6549
G1 X133.578 Y85.699 E1.66904
G1 X134.195 Y86.406 E1.70025
G1 X134.483 Y86.782 E1.716
G1 X134.68 Y87.051 E1.72709
G1 X135.201 Y87.83 E1.75826
G1 X135.67 Y88.683 E1.79064
G1 X136.117 Y89.589 E1.82424
G1 X136.186 Y89.733 E1.82955
G1 X136.397 Y90.177 E1.8459
G1 X136.66 Y90.691 E1.86511
G1 X136.715 Y90.799 E1.86914
G1 X137.342 Y92.059 E1.91595
G1 X137.526 Y92.447 E1.93023
G1 X137.665 Y92.756 E1.9415
G1 X138.008 Y93.613 E1.9722
G1 X138.119 Y93.928 E1.98331
G1 X138.367 Y94.73 E2.01123
G1 X138.45 Y95.039 E2.02187
G1 X138.646 Y95.905 E2.0514
G1 X138.723 Y96.324 E2.06557
G1 X138.877 Y97.542 E2.10641
G1 X138.904 Y97.927 E2.11924
G1 X138.927 Y98.387 E2.13456
G1 X138.933 Y98.603 E2.14175
G1 X139.04 Y101.134 E2.22601
G1 X139.218 Y103.664 E2.31036
G1 X139.468 Y106.194 E2.39492
G1 X139.783 Y108.661 E2.47764
G1 X140.082 Y110.627 E2.54378
G1 X140.183 Y111.56 E2.57499
G1 X140.205 Y112.497 E2.60617
G1 X140.147 Y113.433 E2.63736
G1 X140.009 Y114.361 E2.66856
G1 X139.792 Y115.273 E2.69974
G1 X139.499 Y116.164 E2.73094
G1 X139.181 Y116.921 E2.75825
G1 X139.141 Y117.007 E2.7614
G1 X138.71 Y117.84 E2.7926
G1 X138.209 Y118.633 E2.82379
G1 X137.642 Y119.38 E2.85499
G1 X136.681 Y120.402 E2.90165
G1 X136.279 Y120.778 E2.91995
G1 X135.875 Y121.137 E2.93793
G1 X135.463 Y121.486 E2.95589
G1 X134.999 Y121.859 E2.97569
G1 X134.693 Y122.091 E2.98846
G1 X134.263 Y122.4 E3.00607
G1 X133.844 Y122.687 E3.02296
G1 X133.314 Y123.028 E3.04393
G1 X132.953 Y123.246 E3.05795
G1 X132.511 Y123.5 E3.07491
G1 X131.995 Y123.78 E3.09443
G1 X129.715 Y125.053 E3.18129
G1 X127.544 Y126.348 E3.26536
G1 X125.426 Y127.692 E3.3488
G1 X123.342 Y129.099 E3.43243
G1 X121.295 Y130.569 E3.51625
G1 X119.341 Y132.056 E3.59792
G1 X116.36 Y134.493 E3.72598
G1 X115.383 Y135.327 E3.76871
G1 X114.704 Y135.862 E3.79746
G1 X114.24 Y136.199 E3.81653
G1 X113.6 Y136.63 E3.84219
G1 X113.302 Y136.816 E3.85388
G1 X112.769 Y137.129 E3.87444
G1 X112.337 Y137.366 E3.89082
G1 X111.596 Y137.737 E3.91839
G1 X111.191 Y137.921 E3.93318
G1 X110.586 Y138.174 E3.95499
G1 X110.232 Y138.31 E3.96761
G1 X109.36 Y138.604 E3.99821
G1 X108.549 Y138.84 E4.02631
G1 X107.84 Y139.021 E4.05064
G1 X107.531 Y139.089 E4.06117
G1 X107.194 Y139.158 E4.07261
G1 X106.986 Y139.197 E4.07965
G1 X106.497 Y139.277 E4.09613
G1 X105.888 Y139.363 E4.11658
G1 X104.562 Y139.469 E4.16083
G1 X103.888 Y139.482 E4.18325
G1 X103.567 Y139.483 E4.19393
G1 X103.163 Y139.479 E4.20736
G1 X101.864 Y139.389 E4.25067
G1 X99.927 Y139.139 E4.31563
G1 X98.124 Y138.914 E4.37606
G1 X97.199 Y138.759 E4.40726
G1 X96.291 Y138.525 E4.43845
G1 X95.406 Y138.214 E4.46965
G1 X94.55 Y137.83 E4.50085
G1 X93.731 Y137.373 E4.53204
G1 X93.311 Y137.102 E4.54867
G1 X92.91 Y136.83 E4.56478
G1 X91.991 Y136.133 E4.60315
G1 X91.645 Y135.841 E4.61821
G1 X91.199 Y135.444 E4.63806
G1 X90.806 Y135.074 E4.65602
G1 X90.625 Y134.9 E4.66437
G1 X90.351 Y134.63 E4.67716
G1 X90.29 Y134.57 E4.68001
G1 X89.248 Y133.527 E4.72904
G1 X89.085 Y133.372 E4.73653
G1 X88.95 Y133.241 E4.74278
G1 X88.37 Y132.67 E4.76985
G1 X87.73 Y131.984 E4.80106
G1 X87.036 Y131.083 E4.83888
G1 X86.835 Y130.792 E4.85065
G1 X86.349 Y130.021 E4.88096
G1 X86.176 Y129.72 E4.89251
G1 X85.708 Y128.81 E4.92654
G1 X85.507 Y128.37 E4.94263
G1 X85.116 Y127.394 E4.9776
G1 X85.014 Y127.099 E4.98798
G1 X84.756 Y126.243 E5.01772
G1 X84.638 Y125.784 E5.03348
G1 X84.561 Y125.461 E5.04453
G1 X84.25 Y124.079 E5.09164
G1 X83.644 Y121.55 E5.17814
G1 X82.992 Y119.133 E5.2614
G1 X82.016 Y115.936 E5.37258
G1 X81.869 Y115.485 E5.38835
G1 X81.543 Y114.247 E5.43093
G1 X81.209 Y112.591 E5.48712
G1 X80.662 Y110.106 E5.57175
G1 X80.441 Y109.234 E5.60167
G1 X80.407 Y109.096 E5.6064
G1 X80.083 Y107.743 E5.65267
G1 X79.904 Y106.822 E5.68388
G1 X79.804 Y105.89 E5.71505
G1 X79.783 Y104.952 E5.74626
G1 X79.843 Y104.016 E5.77746
G1 X79.971 Y103.146 E5.8067
G1 X80.096 Y102.482 E5.82918
G1 X80.131 Y102.305 E5.83518
G1 X80.383 Y101.076 E5.8769
G1 X80.799 Y98.728 E5.95621
G1 X80.911 Y98.041 E5.97937
G1 X81.01 Y97.518 E5.99707
G1 X81.081 Y97.185 E6.00839
G1 X81.152 Y96.875 E6.01897
G1 X81.363 Y96.009 E6.04862
G1 X81.473 Y95.591 E6.06299
G1 X81.529 Y95.395 E6.06977
G1 X81.604 Y95.145 E6.07846
G1 X81.723 Y94.763 E6.09176
G1 X81.826 Y94.449 E6.10275
G1 X81.956 Y94.072 E6.11602
G1 X82.124 Y93.617 E6.13215
G1 X82.265 Y93.26 E6.14492
G1 X82.426 Y92.873 E6.15886
G1 X82.601 Y92.475 E6.17332
G1 X82.892 Y91.866 E6.19577
G1 X83.217 Y91.235 E6.21937
G1 X83.581 Y90.584 E6.24418
G1 X83.874 Y90.099 E6.26303
G1 X84.233 Y89.543 E6.28504
G1 X84.364 Y89.353 E6.29272
G1 X84.671 Y88.93 E6.3101
G1 X84.94 Y88.577 E6.32486
G1 X85.144 Y88.317 E6.33585
G1 X85.281 Y88.148 E6.34309
G1 X85.634 Y87.734 E6.36118
G1 X85.798 Y87.551 E6.36936
G1 X86.257 Y87.068 E6.39152
G0 F6000 X86.539 Y87.353
G1 F1200 X86.711 Y87.183 E6.39956
G1 X87.073 Y86.841 E6.41613
G1 X87.282 Y86.653 E6.42548
G1 X87.993 Y86.068 E6.4561
G1 X88.751 Y85.546 E6.48671
G1 X89.552 Y85.093 E6.51732
G1 X90.37 Y84.718 E6.54725
G1 X90.83 Y84.531 E6.56376
G1 X92.951 Y83.638 E6.64031
G1 X94.355 Y83.028 E6.69122
G1 X94.817 Y82.841 E6.7078
G1 X95.104 Y82.732 E6.71801
G1 X95.707 Y82.523 E6.73923
G1 X96.245 Y82.355 E6.75798
G1 X96.92 Y82.168 E6.78128
G1 X97.571 Y82.011 E6.80355
G1 X98.196 Y81.881 E6.82478
G1 X98.426 Y81.84 E6.83255
G1 X98.753 Y81.786 E6.84358
G1 X99.232 Y81.716 E6.85968
G1 X99.727 Y81.656 E6.87626
G1 X99.971 Y81.632 E6.88442
G1 X100.344 Y81.602 E6.89686
G1 X100.821 Y81.572 E6.91276
G1 X101.187 Y81.555 E6.92494
G1 X101.435 Y81.548 E6.9332
G1 X101.88 Y81.545 E6.948
G1 X102.388 Y81.552 E6.96489
G1 X102.691 Y81.561 E6.97498
G1 X104.105 Y81.621 E7.02205
G1 X104.206 Y81.625 E7.02541
G1 X104.661 Y81.649 E7.04057
G1 X107.195 Y81.71 E7.12487
G1 X109.711 Y81.702 E7.20855
G1 X112.256 Y81.621 E7.29324
G1 X114.76 Y81.47 E7.37668
G1 X117.294 Y81.245 E7.46129
G1 X118.173 Y81.141 E7.49073
G1 X118.285 Y81.129 E7.49448
G1 X119.207 Y81.03 E7.52532
G1 X119.423 Y81.009 E7.53254
G1 X119.838 Y80.973 E7.54639
G1 X120.467 Y80.937 E7.56735
G1 X120.947 Y80.924 E7.58332
G1 X121.334 Y80.92 E7.59619
G1 X121.545 Y80.922 E7.60321
G1 X122.215 Y80.95 E7.62551
G1 X122.476 Y80.969 E7.63422
G1 X122.961 Y81.016 E7.65042
G1 X123.372 Y81.065 E7.66419
G1 X124.031 Y81.164 E7.68635
G1 X124.652 Y81.278 E7.70735
G1 X125.464 Y81.461 E7.73504
G1 X125.712 Y81.527 E7.74357
G1 X126.295 Y81.7 E7.7638
G1 X126.715 Y81.838 E7.7785
G1 X127.419 Y82.097 E7.80345
G1 X127.974 Y82.324 E7.8234
G1 X128.561 Y82.585 E7.84476
G1 X128.833 Y82.716 E7.85481
G1 X129.449 Y83.038 E7.87792
G1 X129.863 Y83.272 E7.89374
G1 X130.463 Y83.638 E7.91712
G1 X130.943 Y83.953 E7.93621
G1 X131.947 Y84.7 E7.97783
G1 X132.135 Y84.858 E7.986
G1 X132.995 Y85.667 E8.02527
G1 X133.288 Y85.975 E8.03941
G1 X134.16 Y87.018 E8.08463
G1 X134.357 Y87.287 E8.09572
G1 X134.868 Y88.053 E8.12634
G1 X135.311 Y88.86 E8.15696
G1 X135.758 Y89.766 E8.19057
G1 X135.825 Y89.904 E8.19567
G1 X136.045 Y90.366 E8.21269
G1 X136.304 Y90.873 E8.23162
G1 X136.357 Y90.978 E8.23554
G1 X136.984 Y92.238 E8.28235
G1 X137.161 Y92.611 E8.29608
G1 X137.3 Y92.92 E8.30735
G1 X137.63 Y93.746 E8.33693
G1 X137.741 Y94.061 E8.34804
G1 X137.981 Y94.834 E8.37496
G1 X138.064 Y95.143 E8.3856
G1 X138.252 Y95.977 E8.41404
G1 X138.329 Y96.396 E8.42821
G1 X138.478 Y97.57 E8.46757
G1 X138.505 Y97.955 E8.4804
G1 X138.527 Y98.398 E8.49516
G1 X138.532 Y98.56 E8.50055
G1 X138.642 Y101.178 E8.5877
G1 X138.82 Y103.699 E8.67176
G1 X139.068 Y106.213 E8.75578
G1 X139.394 Y108.768 E8.84145
G1 X139.686 Y110.687 E8.90601
G1 X139.785 Y111.603 E8.93665
G1 X139.804 Y112.523 E8.96726
G1 X139.743 Y113.442 E8.99789
G1 X139.603 Y114.352 E9.02851
G1 X139.384 Y115.246 E9.05913
G1 X139.089 Y116.118 E9.08974
G1 X138.818 Y116.752 E9.11268
G1 X138.778 Y116.838 E9.11583
G1 X138.354 Y117.655 E9.14645
G1 X137.861 Y118.433 E9.17708
G1 X137.302 Y119.164 E9.20769
G1 X136.408 Y120.109 E9.25095
G1 X136.006 Y120.485 E9.26926
G1 X135.616 Y120.832 E9.28662
G1 X135.204 Y121.181 E9.30458
G1 X134.757 Y121.54 E9.32365
G1 X134.451 Y121.772 E9.33642
G1 X134.037 Y122.07 E9.35339
G1 X133.618 Y122.357 E9.37028
G1 X133.108 Y122.686 E9.39047
G1 X132.747 Y122.904 E9.40449
G1 X132.32 Y123.148 E9.42085
G1 X131.796 Y123.432 E9.44067
G1 X129.521 Y124.703 E9.52735
G1 X127.356 Y125.994 E9.61119
G1 X125.185 Y127.372 E9.69671
G1 X123.131 Y128.759 E9.77915
G1 X121.065 Y130.241 E9.86371
G1 X119.081 Y131.752 E9.94666
G1 X116.108 Y134.182 E10.07437
G1 X115.123 Y135.023 E10.11745
G1 X114.469 Y135.539 E10.14516
G1 X114.005 Y135.876 E10.16423
G1 X113.389 Y136.291 E10.18893
G1 X113.091 Y136.477 E10.20062
G1 X112.576 Y136.778 E10.22046
G1 X112.144 Y137.015 E10.23685
G1 X111.431 Y137.373 E10.26338
G1 X111.026 Y137.557 E10.27818
G1 X110.442 Y137.801 E10.29923
G1 X110.088 Y137.937 E10.31184
G1 X109.249 Y138.22 E10.34129
G1 X108.438 Y138.456 E10.36938
G1 X107.754 Y138.63 E10.39286
G1 X107.445 Y138.698 E10.40338
G1 X107.12 Y138.764 E10.41441
G1 X106.912 Y138.803 E10.42145
G1 X106.441 Y138.881 E10.43733
G1 X105.832 Y138.967 E10.45779
G1 X104.554 Y139.069 E10.50043
G1 X103.88 Y139.082 E10.52285
G1 X103.571 Y139.083 E10.53313
G1 X103.167 Y139.079 E10.54656
G1 X101.915 Y138.993 E10.5883
G1 X99.932 Y138.737 E10.65481
G1 X98.173 Y138.517 E10.71377
G1 X97.266 Y138.364 E10.74436
G1 X96.375 Y138.132 E10.77498
G1 X95.507 Y137.824 E10.80562
G1 X94.67 Y137.442 E10.83622
G1 X93.536 Y136.771 E10.88004
G1 X93.135 Y136.499 E10.89616
G1 X92.249 Y135.828 E10.93312
G1 X91.903 Y135.536 E10.94818
G1 X91.473 Y135.153 E10.96733
G1 X91.08 Y134.783 E10.98529
G1 X90.906 Y134.615 E10.99333
G1 X90.632 Y134.345 E11.00613
G1 X90.573 Y134.287 E11.00888
G1 X89.524 Y133.237 E11.05824
G1 X89.361 Y133.082 E11.06572
G1 X89.231 Y132.956 E11.07175
G1 X88.651 Y132.385 E11.09882
G1 X88.023 Y131.711 E11.12946
G1 X87.365 Y130.855 E11.16537
G1 X87.164 Y130.564 E11.17713
G1 X86.696 Y129.822 E11.20631
G1 X86.523 Y129.521 E11.21786
G1 X86.071 Y128.643 E11.2507
G1 X85.87 Y128.203 E11.26679
G1 X85.494 Y127.263 E11.30046
G1 X85.392 Y126.968 E11.31084
G1 X85.144 Y126.143 E11.3395
G1 X85.026 Y125.684 E11.35526
G1 X84.951 Y125.373 E11.3659
G1 X84.637 Y123.978 E11.41346
G1 X84.033 Y121.458 E11.49965
G1 X83.378 Y119.03 E11.58329
G1 X82.394 Y115.805 E11.69544
G1 X82.249 Y115.361 E11.71097
G1 X81.936 Y114.168 E11.75199
G1 X81.604 Y112.523 E11.80781
G1 X81.051 Y110.011 E11.89336
G1 X80.829 Y109.135 E11.92342
G1 X80.796 Y109.003 E11.92794
G1 X80.472 Y107.65 E11.97422
G1 X80.297 Y106.746 E12.00484
G1 X80.201 Y105.83 E12.03547
G1 X80.184 Y104.91 E12.06608
G1 X80.248 Y103.991 E12.09672
G1 X80.364 Y103.22 E12.12265
G1 X80.489 Y102.556 E12.14512
G1 X80.523 Y102.385 E12.15092
G1 X80.776 Y101.154 E12.19272
G1 X81.197 Y98.772 E12.27317
G1 X81.306 Y98.106 E12.29562
G1 X81.401 Y97.602 E12.31268
G1 X81.472 Y97.269 E12.324
G1 X81.54 Y96.97 E12.3342
G1 X81.751 Y96.104 E12.36385
G1 X81.858 Y95.701 E12.37772
G1 X81.914 Y95.505 E12.3845
G1 X81.986 Y95.264 E12.39286
G1 X82.105 Y94.882 E12.40617
G1 X82.204 Y94.579 E12.41677
G1 X82.334 Y94.202 E12.43004
G1 X82.496 Y93.764 E12.44557
G1 X82.637 Y93.407 E12.45833
G1 X82.793 Y93.034 E12.47178
G1 X82.968 Y92.636 E12.48624
G1 X83.248 Y92.049 E12.50787
G1 X83.573 Y91.418 E12.53148
G1 X83.923 Y90.791 E12.55536
G1 X84.216 Y90.306 E12.57421
G1 X84.562 Y89.77 E12.59543
G1 X84.693 Y89.58 E12.60311
G1 X84.989 Y89.172 E12.61987
G1 X85.258 Y88.819 E12.63463
G1 X85.455 Y88.569 E12.64522
G1 X85.592 Y88.4 E12.65245
G1 X85.932 Y88.001 E12.66989
G1 X86.096 Y87.818 E12.67806
G1 X86.539 Y87.353 E12.69942
G0 F6000 X86.82 Y87.637
G1 F1200 X86.992 Y87.467 E12.70747
G1 X87.341 Y87.139 E12.7234
G1 X87.55 Y86.951 E12.73275
G1 X88.247 Y86.377 E12.76278
G1 X88.993 Y85.867 E12.79283
G1 X89.78 Y85.425 E12.82286
G1 X90.521 Y85.089 E12.84992
G1 X90.956 Y84.912 E12.86554
G1 X93.115 Y84.003 E12.94345
G1 X94.515 Y83.395 E12.99422
G1 X94.959 Y83.215 E13.01015
G1 X95.246 Y83.106 E13.02036
G1 X95.827 Y82.905 E13.04081
G1 X96.365 Y82.737 E13.05956
G1 X97.014 Y82.557 E13.08196
G1 X97.665 Y82.4 E13.10423
G1 X98.266 Y82.274 E13.12465
G1 X98.496 Y82.233 E13.13242
G1 X98.811 Y82.182 E13.14304
G1 X99.29 Y82.112 E13.15914
G1 X99.767 Y82.054 E13.17512
G1 X100.011 Y82.03 E13.18327
G1 X100.369 Y82.001 E13.19522
G1 X100.846 Y81.971 E13.21112
G1 X101.198 Y81.955 E13.22284
G1 X101.446 Y81.948 E13.23109
G1 X101.875 Y81.945 E13.24536
G1 X102.383 Y81.952 E13.26226
G1 X102.674 Y81.96 E13.27194
G1 X104.088 Y82.02 E13.31901
G1 X104.185 Y82.025 E13.32224
G1 X104.631 Y82.048 E13.33709
G1 X107.187 Y82.11 E13.42213
G1 X109.725 Y82.102 E13.50655
G1 X112.258 Y82.021 E13.59084
G1 X114.818 Y81.867 E13.67614
G1 X117.309 Y81.646 E13.75931
G1 X118.22 Y81.538 E13.78983
G1 X118.328 Y81.526 E13.79344
G1 X119.25 Y81.427 E13.82428
G1 X119.457 Y81.407 E13.8312
G1 X119.872 Y81.371 E13.84505
G1 X120.478 Y81.337 E13.86524
G1 X120.958 Y81.324 E13.88121
G1 X121.331 Y81.32 E13.89362
G1 X121.542 Y81.322 E13.90064
G1 X122.186 Y81.349 E13.92208
G1 X122.447 Y81.368 E13.93078
G1 X122.914 Y81.413 E13.94638
G1 X123.325 Y81.462 E13.96015
G1 X123.959 Y81.558 E13.98148
G1 X124.58 Y81.672 E14.00248
G1 X125.361 Y81.847 E14.0291
G1 X125.609 Y81.913 E14.03763
G1 X126.17 Y82.08 E14.0571
G1 X126.59 Y82.218 E14.07181
G1 X127.267 Y82.467 E14.0958
