;FLAVOR:Marlin
;TIME:4067
;Filament used: 1.82836m
;Layer height: 0.12
;MINX:74.429
;MINY:74.429
;MINZ:0.2
;MAXX:145.571
;MAXY:145.571
;MAXZ:8.96
;Generated with Cura_SteamEngine 4.4.0
M140 S60
M105
M190 S60
M104 S210
M105
M109 S210
M82 ;absolute extrusion mode
M201 X500.00 Y500.00 Z100.00 E5000.00 ;Setup machine max acceleration
M203 X500.00 Y500.00 Z10.00 E50.00 ;Setup machine max feedrate
M204 P500.00 R1000.00 T500.00 ;Setup Print/Retract/Travel acceleration
M205 X8.00 Y8.00 Z0.40 E5.00 ;Setup Jerk
M220 S100 ;Reset Feedrate
M221 S100 ;Reset Flowrate

G28 ;Home

G92 E0 ;Reset Extruder
G1 Z2.0 F3000 ;Move Z Axis up
G1 X10.1 Y20 Z0.28 F5000.0 ;Move to start position
G1 X10.1 Y200.0 Z0.28 F1500.0 E15 ;Draw the first line
G1 X10.4 Y200.0 Z0.28 F5000.0 ;Move to side a little
G1 X10.4 Y20 Z0.28 F1500.0 E30 ;Draw the second line
G92 E0 ;Reset Extruder
G1 Z2.0 F3000 ;Move Z Axis up

G92 E0
G92 E0
G1 F1500 E-6.5
;LAYER_COUNT:74
;LAYER:0
M107
G0 F6000 X87.911 Y81.901 Z0.2
;TYPE:SKIRT
G1 F1500 E0
G1 F1200 X88.122 Y81.679 E0.01019
G1 X88.796 Y81.027 E0.04138
G1 X89.81 Y80.229 E0.08429
G1 X90.172 Y79.977 E0.09896
G1 X90.54 Y79.732 E0.11367
G1 X91.101 Y79.374 E0.1358
G1 X91.428 Y79.173 E0.14857
G1 X92.033 Y78.816 E0.17193
G1 X92.315 Y78.655 E0.18273
G1 X93.012 Y78.271 E0.2092
G1 X93.336 Y78.1 E0.22139
G1 X93.999 Y77.763 E0.24612
G1 X94.288 Y77.621 E0.25683
G1 X95.002 Y77.284 E0.28309
G1 X95.336 Y77.133 E0.29528
G1 X96.121 Y76.794 E0.32372
G1 X96.423 Y76.669 E0.3346
G1 X97.088 Y76.405 E0.35839
G1 X97.431 Y76.276 E0.37058
G1 X98.225 Y75.991 E0.39864
G1 X98.553 Y75.879 E0.41017
G1 X99.248 Y75.654 E0.43446
G1 X99.558 Y75.559 E0.44525
G1 X100.275 Y75.35 E0.47009
G1 X100.623 Y75.254 E0.48209
G1 X101.47 Y75.037 E0.51118
G1 X101.789 Y74.961 E0.52208
G1 X102.51 Y74.799 E0.54666
G1 X102.874 Y74.723 E0.55903
G1 X103.423 Y74.619 E0.57761
G1 X104.351 Y74.484 E0.6088
G1 X105.287 Y74.429 E0.63999
G1 X105.898 Y74.435 E0.66031
G1 X106.297 Y74.451 E0.67359
G1 X108.873 Y74.52 E0.7593
G1 X111.402 Y74.516 E0.84342
G1 X113.997 Y74.44 E0.92976
G1 X114.363 Y74.435 E0.94194
G1 X114.621 Y74.436 E0.95052
G1 X115.557 Y74.48 E0.98169
G1 X116.627 Y74.629 E1.01762
G1 X117.128 Y74.724 E1.03458
G1 X117.479 Y74.796 E1.0465
G1 X118.199 Y74.957 E1.07103
G1 X118.547 Y75.041 E1.08294
G1 X119.396 Y75.26 E1.1121
G1 X119.713 Y75.347 E1.12304
G1 X120.43 Y75.555 E1.14787
G1 X120.762 Y75.657 E1.15942
G1 X121.455 Y75.882 E1.18365
G1 X121.782 Y75.993 E1.19514
G1 X122.577 Y76.279 E1.22324
G1 X122.898 Y76.401 E1.23466
G1 X123.563 Y76.664 E1.25845
G1 X123.879 Y76.794 E1.26981
G1 X124.664 Y77.133 E1.29825
G1 X124.998 Y77.284 E1.31044
G1 X125.712 Y77.621 E1.3367
G1 X126.007 Y77.766 E1.34763
G1 X126.669 Y78.103 E1.37234
G1 X126.975 Y78.265 E1.38386
G1 X127.674 Y78.649 E1.41038
G1 X127.974 Y78.82 E1.42187
G1 X128.661 Y79.226 E1.44841
G1 X128.961 Y79.41 E1.46012
G1 X129.602 Y79.817 E1.48537
G1 X130.205 Y80.228 E1.50964
G1 X130.388 Y80.362 E1.51718
G1 X131.12 Y80.948 E1.54837
G1 X131.94 Y81.741 E1.58631
G1 X132.832 Y82.7 E1.62987
G1 X134.582 Y84.529 E1.71407
G1 X136.371 Y86.296 E1.7977
G1 X137.337 Y87.189 E1.84145
G1 X137.425 Y87.271 E1.84546
G1 X138.335 Y88.131 E1.8871
G1 X138.989 Y88.804 E1.91831
G1 X139.583 Y89.53 E1.94951
G1 X140.006 Y90.135 E1.97406
G1 X140.506 Y90.905 E2.0046
G1 X140.745 Y91.291 E2.0197
G1 X141.121 Y91.926 E2.04425
G1 X141.277 Y92.198 E2.05467
G1 X141.716 Y92.99 E2.08479
G1 X141.891 Y93.32 E2.09722
G1 X142.224 Y93.972 E2.12157
G1 X142.375 Y94.279 E2.13295
G1 X142.68 Y94.925 E2.15671
G1 X142.829 Y95.254 E2.16872
G1 X143.188 Y96.084 E2.1988
G1 X143.312 Y96.382 E2.20953
G1 X143.572 Y97.035 E2.23291
G1 X143.694 Y97.357 E2.24436
G1 X143.982 Y98.152 E2.27248
G1 X144.098 Y98.49 E2.28437
G1 X144.334 Y99.214 E2.3097
G1 X144.429 Y99.519 E2.32032
G1 X144.619 Y100.165 E2.34272
G1 X144.714 Y100.51 E2.35462
G1 X144.921 Y101.309 E2.38207
G1 X145.008 Y101.669 E2.39439
G1 X145.24 Y102.707 E2.42977
G1 X145.321 Y103.104 E2.44324
G1 X145.388 Y103.466 E2.45549
G1 X145.52 Y104.395 E2.4867
G1 X145.571 Y105.331 E2.51787
G1 X145.563 Y105.915 E2.5373
G1 X145.543 Y106.401 E2.55348
G1 X145.475 Y108.985 E2.63945
G1 X145.481 Y111.514 E2.72357
G1 X145.541 Y113.678 E2.79557
G1 X145.557 Y114.063 E2.80839
G1 X145.555 Y115.001 E2.83958
G1 X145.473 Y115.935 E2.87077
G1 X145.388 Y116.48 E2.88911
G1 X145.253 Y117.222 E2.9142
G1 X145.17 Y117.637 E2.92827
G1 X145.055 Y118.155 E2.94592
G1 X144.973 Y118.498 E2.95765
G1 X144.757 Y119.342 E2.98663
G1 X144.667 Y119.672 E2.99801
G1 X144.481 Y120.315 E3.02027
G1 X144.385 Y120.628 E3.03116
G1 X144.134 Y121.408 E3.05841
G1 X144.013 Y121.763 E3.07089
G1 X143.724 Y122.566 E3.09927
G1 X143.613 Y122.862 E3.10978
G1 X143.364 Y123.496 E3.13244
G1 X143.224 Y123.835 E3.14464
G1 X142.876 Y124.641 E3.17384
G1 X142.741 Y124.942 E3.18481
G1 X142.422 Y125.624 E3.20985
G1 X142.265 Y125.945 E3.22174
G1 X141.913 Y126.638 E3.24759
G1 X141.752 Y126.943 E3.25906
G1 X141.382 Y127.618 E3.28466
G1 X141.213 Y127.916 E3.29606
G1 X140.804 Y128.61 E3.32285
G1 X140.629 Y128.896 E3.334
G1 X140.227 Y129.533 E3.35905
G1 X140.028 Y129.837 E3.37114
G1 X139.912 Y130.008 E3.37801
G1 X139.353 Y130.761 E3.4092
G1 X138.732 Y131.464 E3.4404
G1 X138.34 Y131.851 E3.45872
G1 X136.435 Y133.64 E3.54564
G1 X134.663 Y135.383 E3.62831
G1 X132.877 Y137.242 E3.71406
G1 X132.226 Y137.952 E3.74609
G1 X132.089 Y138.099 E3.75278
G1 X131.878 Y138.321 E3.76296
G1 X131.204 Y138.973 E3.79415
G1 X130.19 Y139.771 E3.83707
G1 X129.828 Y140.023 E3.85174
G1 X129.46 Y140.268 E3.86645
G1 X128.899 Y140.626 E3.88858
G1 X128.572 Y140.827 E3.90135
G1 X127.967 Y141.184 E3.92471
G1 X127.685 Y141.345 E3.93551
G1 X126.988 Y141.729 E3.96198
G1 X126.664 Y141.9 E3.97416
G1 X126.001 Y142.237 E3.9989
G1 X125.712 Y142.379 E4.00961
G1 X124.998 Y142.716 E4.03587
G1 X124.664 Y142.867 E4.04806
G1 X123.879 Y143.206 E4.0765
G1 X123.577 Y143.331 E4.08737
G1 X122.912 Y143.595 E4.11117
G1 X122.569 Y143.724 E4.12336
G1 X121.775 Y144.009 E4.15142
G1 X121.447 Y144.121 E4.16294
G1 X120.752 Y144.346 E4.18724
G1 X120.442 Y144.441 E4.19803
G1 X119.725 Y144.65 E4.22287
G1 X119.377 Y144.746 E4.23487
G1 X118.53 Y144.963 E4.26395
G1 X118.211 Y145.039 E4.27486
G1 X117.49 Y145.201 E4.29944
G1 X117.126 Y145.277 E4.31181
G1 X116.577 Y145.381 E4.33039
G1 X115.649 Y145.516 E4.36158
G1 X114.713 Y145.571 E4.39277
G1 X114.102 Y145.565 E4.41309
G1 X113.703 Y145.549 E4.42637
G1 X111.127 Y145.48 E4.51208
G1 X108.598 Y145.484 E4.5962
G1 X106.003 Y145.56 E4.68254
G1 X105.637 Y145.565 E4.69472
G1 X105.379 Y145.564 E4.7033
G1 X104.443 Y145.52 E4.73446
G1 X103.373 Y145.371 E4.7704
G1 X102.872 Y145.276 E4.78736
G1 X102.521 Y145.204 E4.79927
G1 X101.801 Y145.043 E4.82381
G1 X101.453 Y144.959 E4.83572
G1 X100.604 Y144.74 E4.86488
G1 X100.287 Y144.653 E4.87581
G1 X99.57 Y144.445 E4.90064
G1 X99.238 Y144.343 E4.9122
G1 X98.545 Y144.118 E4.93643
G1 X98.218 Y144.007 E4.94792
G1 X97.423 Y143.721 E4.97602
G1 X97.102 Y143.599 E4.98744
G1 X96.437 Y143.336 E5.01122
G1 X96.121 Y143.206 E5.02259
G1 X95.336 Y142.867 E5.05103
G1 X95.002 Y142.716 E5.06322
G1 X94.288 Y142.379 E5.08948
G1 X93.993 Y142.234 E5.10041
G1 X93.331 Y141.897 E5.12512
G1 X93.025 Y141.735 E5.13663
G1 X92.326 Y141.351 E5.16316
G1 X92.026 Y141.18 E5.17465
G1 X91.339 Y140.774 E5.20119
G1 X91.039 Y140.59 E5.21289
G1 X90.398 Y140.183 E5.23815
G1 X89.795 Y139.772 E5.26242
G1 X89.612 Y139.638 E5.26996
G1 X88.88 Y139.052 E5.30115
G1 X88.06 Y138.259 E5.33909
G1 X87.155 Y137.287 E5.38326
G1 X85.418 Y135.471 E5.46684
G1 X83.641 Y133.716 E5.54991
G1 X82.656 Y132.806 E5.59452
G1 X82.564 Y132.719 E5.59873
G1 X81.662 Y131.866 E5.64002
G1 X81.009 Y131.193 E5.67121
G1 X80.415 Y130.467 E5.70241
G1 X79.994 Y129.865 E5.72684
G1 X79.494 Y129.095 E5.75738
G1 X79.255 Y128.709 E5.77248
G1 X78.879 Y128.074 E5.79702
G1 X78.723 Y127.802 E5.80745
G1 X78.284 Y127.01 E5.83757
G1 X78.109 Y126.68 E5.84999
G1 X77.776 Y126.028 E5.87434
G1 X77.625 Y125.721 E5.88572
G1 X77.32 Y125.075 E5.90948
G1 X77.172 Y124.747 E5.92145
G1 X76.812 Y123.915 E5.9516
G1 X76.686 Y123.613 E5.96249
G1 X76.427 Y122.962 E5.98579
G1 X76.304 Y122.638 E5.99731
G1 X76.016 Y121.842 E6.02547
G1 X75.903 Y121.513 E6.03704
G1 X75.667 Y120.79 E6.06234
G1 X75.569 Y120.474 E6.07334
G1 X75.378 Y119.823 E6.0959
G1 X75.285 Y119.485 E6.10756
G1 X75.071 Y118.659 E6.13594
G1 X74.982 Y118.291 E6.14854
G1 X74.758 Y117.285 E6.18282
G1 X74.678 Y116.891 E6.19619
G1 X74.611 Y116.528 E6.20846
G1 X74.48 Y115.599 E6.23967
G1 X74.429 Y114.662 E6.27088
G1 X74.437 Y114.084 E6.29011
G1 X74.458 Y113.577 E6.30698
G1 X74.525 Y111.015 E6.39223
G1 X74.519 Y108.486 E6.47634
G1 X74.458 Y106.311 E6.54871
G1 X74.443 Y105.933 E6.56129
G1 X74.445 Y104.995 E6.59249
G1 X74.527 Y104.061 E6.62367
G1 X74.613 Y103.513 E6.64212
G1 X74.748 Y102.773 E6.66714
G1 X74.83 Y102.363 E6.68105
G1 X74.945 Y101.845 E6.6987
G1 X75.027 Y101.502 E6.71043
G1 X75.243 Y100.658 E6.7394
G1 X75.334 Y100.324 E6.75092
G1 X75.522 Y99.675 E6.77339
G1 X75.617 Y99.367 E6.78411
G1 X75.866 Y98.593 E6.81115
G1 X75.987 Y98.237 E6.82366
G1 X76.276 Y97.434 E6.85204
G1 X76.387 Y97.138 E6.86256
G1 X76.636 Y96.504 E6.88521
G1 X76.776 Y96.165 E6.89741
G1 X77.124 Y95.359 E6.92661
G1 X77.259 Y95.058 E6.93758
G1 X77.578 Y94.376 E6.96263
G1 X77.735 Y94.055 E6.97451
G1 X78.087 Y93.362 E7.00036
G1 X78.248 Y93.057 E7.01183
G1 X78.618 Y92.382 E7.03744
G1 X78.787 Y92.084 E7.04883
G1 X79.196 Y91.39 E7.07562
G1 X79.371 Y91.104 E7.08678
G1 X79.773 Y90.467 E7.11183
G1 X79.972 Y90.163 E7.12391
G1 X80.088 Y89.992 E7.13079
G1 X80.647 Y89.239 E7.16198
G1 X81.268 Y88.536 E7.19318
G1 X81.66 Y88.149 E7.2115
G1 X83.565 Y86.36 E7.29842
G1 X85.337 Y84.617 E7.38109
G1 X87.123 Y82.758 E7.46683
G1 X87.774 Y82.048 E7.49887
G1 X87.911 Y81.901 E7.50555
G0 F6000 X88.201 Y82.176
G1 F1200 X88.412 Y81.954 E7.51574
G1 X89.074 Y81.315 E7.54634
G1 X90.039 Y80.557 E7.58715
G1 X90.401 Y80.305 E7.60183
G1 X90.755 Y80.069 E7.61598
G1 X91.316 Y79.711 E7.63811
G1 X91.631 Y79.518 E7.6504
G1 X92.236 Y79.161 E7.67376
G1 X92.508 Y79.006 E7.68417
G1 X93.205 Y78.622 E7.71064
G1 X93.517 Y78.457 E7.72238
G1 X94.18 Y78.12 E7.74712
G1 X94.459 Y77.983 E7.75746
G1 X95.173 Y77.646 E7.78372
G1 X95.495 Y77.501 E7.79546
G1 X96.28 Y77.162 E7.8239
G1 X96.571 Y77.041 E7.83438
G1 X97.236 Y76.777 E7.85818
G1 X97.566 Y76.652 E7.86992
G1 X98.36 Y76.367 E7.89798
G1 X98.676 Y76.259 E7.90908
G1 X99.371 Y76.034 E7.93338
G1 X99.67 Y75.943 E7.94377
G1 X100.387 Y75.734 E7.96861
G1 X100.722 Y75.642 E7.98017
G1 X101.569 Y75.425 E8.00925
G1 X101.876 Y75.351 E8.01975
G1 X102.597 Y75.189 E8.04433
G1 X102.948 Y75.116 E8.05626
G1 X103.497 Y75.012 E8.07484
G1 X104.408 Y74.88 E8.10546
G1 X105.327 Y74.828 E8.13607
G1 X105.882 Y74.835 E8.15453
G1 X106.27 Y74.85 E8.16745
G1 X108.863 Y74.92 E8.25372
G1 X111.415 Y74.916 E8.3386
G1 X114.009 Y74.84 E8.42492
G1 X114.361 Y74.835 E8.43663
G1 X114.619 Y74.836 E8.44521
G1 X115.539 Y74.88 E8.47584
G1 X116.553 Y75.022 E8.5099
G1 X117.054 Y75.117 E8.52686
G1 X117.392 Y75.186 E8.53833
G1 X118.112 Y75.347 E8.56287
G1 X118.447 Y75.428 E8.57433
G1 X119.296 Y75.647 E8.60349
G1 X119.601 Y75.731 E8.61402
G1 X120.318 Y75.939 E8.63885
G1 X120.638 Y76.037 E8.64998
G1 X121.331 Y76.262 E8.67421
G1 X121.646 Y76.37 E8.68529
G1 X122.441 Y76.656 E8.71339
G1 X122.751 Y76.773 E8.72441
G1 X123.416 Y77.036 E8.74819
G1 X123.72 Y77.162 E8.75914
G1 X124.505 Y77.501 E8.78758
G1 X124.827 Y77.646 E8.79932
G1 X125.541 Y77.983 E8.82558
G1 X125.826 Y78.123 E8.83614
G1 X126.488 Y78.46 E8.86085
G1 X126.783 Y78.616 E8.87195
G1 X127.482 Y79 E8.89848
G1 X127.771 Y79.164 E8.90953
G1 X128.458 Y79.57 E8.93607
G1 X128.747 Y79.747 E8.94734
G1 X129.388 Y80.154 E8.9726
G1 X129.968 Y80.551 E8.99597
G1 X130.151 Y80.685 E9.00352
G1 X130.87 Y81.26 E9.03414
G1 X131.647 Y82.014 E9.07015
G1 X132.498 Y82.928 E9.11169
G1 X134.295 Y84.807 E9.19816
G1 X136.097 Y86.587 E9.28241
G1 X137.066 Y87.483 E9.3263
G1 X137.151 Y87.562 E9.33016
G1 X138.061 Y88.422 E9.37181
G1 X138.702 Y89.083 E9.40243
G1 X139.283 Y89.797 E9.43305
G1 X139.67 Y90.353 E9.45558
G1 X140.17 Y91.123 E9.48611
G1 X140.401 Y91.495 E9.50068
G1 X140.777 Y92.13 E9.52522
G1 X140.927 Y92.392 E9.53526
G1 X141.366 Y93.184 E9.56538
G1 X141.535 Y93.502 E9.57736
G1 X141.868 Y94.154 E9.60171
G1 X142.013 Y94.449 E9.61264
G1 X142.318 Y95.095 E9.6364
G1 X142.462 Y95.413 E9.64801
G1 X142.821 Y96.243 E9.67809
G1 X142.94 Y96.53 E9.68843
G1 X143.2 Y97.183 E9.7118
G1 X143.318 Y97.494 E9.72287
G1 X143.606 Y98.289 E9.75099
G1 X143.718 Y98.614 E9.76242
G1 X143.954 Y99.338 E9.78775
G1 X144.045 Y99.632 E9.79799
G1 X144.235 Y100.278 E9.82038
G1 X144.327 Y100.611 E9.83187
G1 X144.534 Y101.41 E9.85933
G1 X144.618 Y101.756 E9.87117
G1 X144.85 Y102.794 E9.90654
G1 X144.928 Y103.177 E9.91954
G1 X144.995 Y103.539 E9.93179
G1 X145.123 Y104.451 E9.96242
G1 X145.172 Y105.37 E9.99303
G1 X145.163 Y105.898 E10.01059
G1 X145.143 Y106.385 E10.0268
G1 X145.075 Y108.975 E10.11298
G1 X145.081 Y111.526 E10.19782
G1 X145.141 Y113.689 E10.26979
G1 X145.157 Y114.079 E10.28278
G1 X145.155 Y115 E10.31341
G1 X145.072 Y115.917 E10.34403
G1 X144.995 Y116.408 E10.36056
G1 X144.86 Y117.15 E10.38565
G1 X144.779 Y117.55 E10.39922
G1 X144.664 Y118.068 E10.41687
G1 X144.585 Y118.399 E10.42819
G1 X144.369 Y119.243 E10.45716
G1 X144.283 Y119.56 E10.46809
G1 X144.097 Y120.203 E10.49035
G1 X144.004 Y120.505 E10.50086
G1 X143.753 Y121.285 E10.52811
G1 X143.637 Y121.628 E10.54016
G1 X143.348 Y122.431 E10.56854
G1 X143.24 Y122.716 E10.57868
G1 X142.991 Y123.35 E10.60133
G1 X142.857 Y123.677 E10.61309
G1 X142.509 Y124.483 E10.64229
G1 X142.379 Y124.772 E10.65283
G1 X142.06 Y125.454 E10.67787
G1 X141.909 Y125.763 E10.68931
G1 X141.557 Y126.456 E10.71516
G1 X141.401 Y126.751 E10.72626
G1 X141.031 Y127.426 E10.75186
G1 X140.868 Y127.713 E10.76284
G1 X140.459 Y128.407 E10.78963
G1 X140.291 Y128.682 E10.80035
G1 X139.889 Y129.319 E10.8254
G1 X139.697 Y129.613 E10.83708
G1 X139.581 Y129.784 E10.84396
G1 X139.032 Y130.522 E10.87455
G1 X138.42 Y131.211 E10.9052
G1 X138.066 Y131.56 E10.92173
G1 X136.163 Y133.347 E11.00856
G1 X134.377 Y135.103 E11.09186
G1 X132.576 Y136.978 E11.17834
G1 X131.931 Y137.682 E11.21009
G1 X131.799 Y137.824 E11.21654
G1 X131.588 Y138.046 E11.22673
G1 X130.926 Y138.685 E11.25733
G1 X129.961 Y139.443 E11.29814
G1 X129.599 Y139.695 E11.31281
G1 X129.245 Y139.931 E11.32696
G1 X128.684 Y140.289 E11.3491
G1 X128.369 Y140.482 E11.36139
G1 X127.764 Y140.839 E11.38475
G1 X127.492 Y140.994 E11.39516
G1 X126.795 Y141.378 E11.42163
G1 X126.483 Y141.543 E11.43337
G1 X125.82 Y141.88 E11.45811
G1 X125.541 Y142.017 E11.46844
G1 X124.827 Y142.354 E11.4947
G1 X124.505 Y142.499 E11.50645
G1 X123.72 Y142.838 E11.53489
G1 X123.429 Y142.959 E11.54537
G1 X122.764 Y143.223 E11.56917
G1 X122.434 Y143.348 E11.58091
G1 X121.64 Y143.633 E11.60896
G1 X121.324 Y143.741 E11.62007
G1 X120.629 Y143.966 E11.64437
G1 X120.33 Y144.057 E11.65476
G1 X119.613 Y144.266 E11.6796
G1 X119.278 Y144.358 E11.69116
G1 X118.431 Y144.575 E11.72024
G1 X118.124 Y144.649 E11.73074
G1 X117.403 Y144.811 E11.75532
G1 X117.052 Y144.884 E11.76725
G1 X116.503 Y144.988 E11.78583
G1 X115.592 Y145.12 E11.81645
G1 X114.673 Y145.172 E11.84706
G1 X114.118 Y145.165 E11.86552
G1 X113.73 Y145.15 E11.87844
G1 X111.137 Y145.08 E11.96471
G1 X108.585 Y145.084 E12.04959
G1 X105.991 Y145.16 E12.13591
G1 X105.639 Y145.165 E12.14761
G1 X105.381 Y145.164 E12.1562
G1 X104.461 Y145.12 E12.18683
G1 X103.447 Y144.978 E12.22088
G1 X102.946 Y144.883 E12.23784
G1 X102.608 Y144.814 E12.24932
G1 X101.888 Y144.653 E12.27386
G1 X101.553 Y144.572 E12.28532
G1 X100.704 Y144.353 E12.31448
G1 X100.399 Y144.269 E12.325
G1 X99.682 Y144.061 E12.34984
G1 X99.362 Y143.963 E12.36097
G1 X98.669 Y143.738 E12.3852
G1 X98.354 Y143.63 E12.39628
G1 X97.559 Y143.344 E12.42438
G1 X97.249 Y143.227 E12.4354
G1 X96.584 Y142.964 E12.45918
G1 X96.28 Y142.838 E12.47013
G1 X95.495 Y142.499 E12.49857
G1 X95.173 Y142.354 E12.51031
G1 X94.459 Y142.017 E12.53657
G1 X94.174 Y141.877 E12.54713
G1 X93.512 Y141.54 E12.57184
G1 X93.217 Y141.384 E12.58294
G1 X92.518 Y141 E12.60947
G1 X92.229 Y140.836 E12.62052
