;FLAVOR:Marlin
;TIME:2849
;Filament used: 1.82842m
;Layer height: 0.16
;MINX:74.432
;MINY:74.428
;MINZ:0.2
;MAXX:145.568
;MAXY:145.572
;MAXZ:8.96
;Generated with Cura_SteamEngine 4.4.0
M140 S60
M105
M190 S60
M104 S210
M105
M109 S210
M82 ;absolute extrusion mode
M201 X500.00 Y500.00 Z100.00 E5000.00 ;Setup machine max acceleration
M203 X500.00 Y500.00 Z10.00 E50.00 ;Setup machine max feedrate
M204 P500.00 R1000.00 T500.00 ;Setup Print/Retract/Travel acceleration
M205 X8.00 Y8.00 Z0.40 E5.00 ;Setup Jerk
M220 S100 ;Reset Feedrate
M221 S100 ;Reset Flowrate

G28 ;Home

G92 E0 ;Reset Extruder
G1 Z2.0 F3000 ;Move Z Axis up
G1 X10.1 Y20 Z0.28 F5000.0 ;Move to start position
G1 X10.1 Y200.0 Z0.28 F1500.0 E15 ;Draw the first line
G1 X10.4 Y200.0 Z0.28 F5000.0 ;Move to side a little
G1 X10.4 Y20 Z0.28 F1500.0 E30 ;Draw the second line
G92 E0 ;Reset Extruder
G1 Z2.0 F3000 ;Move Z Axis up

G92 E0
G92 E0
G1 F1500 E-6.5
;LAYER_COUNT:69
;LAYER:0
M107
G0 F6000 X87.67 Y82.155 Z0.2
;TYPE:SKIRT
G1 F1500 E0
G1 F1200 X88.161 Y81.639 E0.02369
G1 X88.836 Y80.988 E0.05488
G1 X89.914 Y80.146 E0.10038
G1 X90.225 Y79.933 E0.11291
G1 X90.572 Y79.705 E0.12672
G1 X91.111 Y79.365 E0.14792
G1 X91.414 Y79.181 E0.15971
G1 X92.106 Y78.775 E0.18639
G1 X92.391 Y78.614 E0.19728
G1 X93.12 Y78.215 E0.22492
G1 X93.453 Y78.04 E0.23743
G1 X94.138 Y77.695 E0.26294
G1 X94.443 Y77.547 E0.27422
G1 X95.096 Y77.243 E0.29818
G1 X95.396 Y77.109 E0.3091
G1 X96.222 Y76.754 E0.33901
G1 X96.548 Y76.62 E0.35073
G1 X97.198 Y76.365 E0.37395
G1 X97.534 Y76.239 E0.38589
G1 X98.314 Y75.962 E0.41342
G1 X98.627 Y75.856 E0.42441
G1 X99.339 Y75.627 E0.44929
G1 X99.665 Y75.528 E0.46062
G1 X100.447 Y75.303 E0.48768
G1 X100.793 Y75.21 E0.4996
G1 X101.596 Y75.007 E0.52715
G1 X101.896 Y74.935 E0.53741
G1 X102.501 Y74.8 E0.55803
G1 X102.852 Y74.728 E0.56994
G1 X103.428 Y74.619 E0.58944
G1 X104.356 Y74.484 E0.62063
G1 X105.292 Y74.428 E0.65182
G1 X105.904 Y74.435 E0.67218
G1 X106.308 Y74.451 E0.68562
G1 X108.873 Y74.52 E0.77097
G1 X111.402 Y74.516 E0.85508
G1 X113.997 Y74.44 E0.94143
G1 X114.935 Y74.452 E0.97263
G1 X115.631 Y74.513 E0.99587
G1 X116.339 Y74.598 E1.01958
G1 X117.462 Y74.793 E1.05749
G1 X118.383 Y75.002 E1.08891
G1 X118.734 Y75.087 E1.10092
G1 X119.441 Y75.272 E1.12522
G1 X119.745 Y75.357 E1.13572
G1 X120.49 Y75.575 E1.16154
G1 X120.836 Y75.682 E1.17359
G1 X121.621 Y75.94 E1.20107
G1 X121.939 Y76.05 E1.21226
G1 X122.694 Y76.324 E1.23897
G1 X123.026 Y76.451 E1.2508
G1 X123.656 Y76.703 E1.27337
G1 X123.96 Y76.83 E1.28432
G1 X124.801 Y77.196 E1.31483
G1 X125.144 Y77.352 E1.32736
G1 X125.782 Y77.656 E1.35087
G1 X126.077 Y77.802 E1.36182
G1 X126.768 Y78.157 E1.38765
G1 X127.058 Y78.312 E1.39859
G1 X127.786 Y78.714 E1.42625
G1 X128.091 Y78.888 E1.43793
G1 X128.752 Y79.281 E1.46351
G1 X129.048 Y79.463 E1.47506
G1 X129.598 Y79.814 E1.49676
G1 X129.841 Y79.974 E1.50644
G1 X130.017 Y80.093 E1.51351
G1 X130.771 Y80.651 E1.54471
G1 X131.475 Y81.272 E1.57593
G1 X131.902 Y81.705 E1.59616
G1 X132.698 Y82.559 E1.63499
G1 X134.485 Y84.43 E1.72104
G1 X136.252 Y86.179 E1.80373
G1 X137.265 Y87.12 E1.84972
G1 X137.335 Y87.186 E1.85292
G1 X138.335 Y88.131 E1.89868
G1 X138.989 Y88.804 E1.92989
G1 X139.583 Y89.53 E1.96109
G1 X140.013 Y90.146 E1.98608
G1 X140.537 Y90.955 E2.01813
G1 X140.784 Y91.355 E2.03377
G1 X141.189 Y92.043 E2.06032
G1 X141.341 Y92.31 E2.07054
G1 X141.726 Y93.008 E2.09706
G1 X141.9 Y93.337 E2.10943
G1 X142.237 Y94 E2.13417
G1 X142.376 Y94.283 E2.14466
G1 X142.713 Y94.996 E2.17089
G1 X142.869 Y95.342 E2.18351
G1 X143.207 Y96.126 E2.21191
G1 X143.332 Y96.427 E2.22275
G1 X143.596 Y97.093 E2.24658
G1 X143.718 Y97.415 E2.25803
G1 X144.004 Y98.208 E2.28607
G1 X144.121 Y98.552 E2.29815
G1 X144.346 Y99.247 E2.32245
G1 X144.441 Y99.557 E2.33323
G1 X144.65 Y100.274 E2.35807
G1 X144.744 Y100.616 E2.36987
G1 X144.962 Y101.465 E2.39902
G1 X145.039 Y101.782 E2.40987
G1 X145.172 Y102.372 E2.42999
G1 X145.26 Y102.804 E2.44465
G1 X145.388 Y103.501 E2.46822
G1 X145.518 Y104.43 E2.49942
G1 X145.568 Y105.366 E2.5306
G1 X145.563 Y105.85 E2.5467
G1 X145.482 Y108.304 E2.62836
G1 X145.468 Y110.825 E2.71221
G1 X145.539 Y113.759 E2.80983
G1 X145.551 Y114.054 E2.81965
G1 X145.549 Y114.991 E2.85081
G1 X145.409 Y116.314 E2.89506
G1 X145.293 Y117.008 E2.91846
G1 X145.18 Y117.591 E2.93821
G1 X145.051 Y118.169 E2.95791
G1 X144.968 Y118.515 E2.96975
G1 X144.743 Y119.389 E2.99976
G1 X144.652 Y119.721 E3.01121
G1 X144.443 Y120.439 E3.03608
G1 X144.345 Y120.757 E3.04715
G1 X144.12 Y121.451 E3.07142
G1 X144.005 Y121.787 E3.08323
G1 X143.719 Y122.581 E3.1113
G1 X143.599 Y122.898 E3.12257
G1 X143.336 Y123.563 E3.14636
G1 X143.203 Y123.885 E3.15794
G1 X142.863 Y124.671 E3.18643
G1 X142.717 Y124.993 E3.19819
G1 X142.381 Y125.706 E3.2244
G1 X142.231 Y126.013 E3.23577
G1 X141.894 Y126.674 E3.26044
G1 X141.735 Y126.974 E3.27174
G1 X141.351 Y127.673 E3.29826
G1 X141.18 Y127.973 E3.30975
G1 X140.774 Y128.66 E3.33629
G1 X140.559 Y129.009 E3.34992
G1 X140.047 Y129.806 E3.38143
G1 X139.507 Y130.573 E3.41263
G1 X138.903 Y131.291 E3.44384
G1 X138.284 Y131.915 E3.47307
G1 X137.294 Y132.835 E3.51802
G1 X135.444 Y134.606 E3.6032
G1 X133.66 Y136.413 E3.68766
G1 X132.423 Y137.745 E3.74812
G1 X132.332 Y137.842 E3.75254
G1 X131.837 Y138.362 E3.77642
G1 X131.162 Y139.013 E3.80761
G1 X130.086 Y139.854 E3.85303
G1 X129.775 Y140.067 E3.86557
G1 X129.428 Y140.295 E3.87938
G1 X128.889 Y140.635 E3.90058
G1 X128.588 Y140.818 E3.91229
G1 X127.898 Y141.223 E3.9389
G1 X127.61 Y141.386 E3.94991
G1 X126.879 Y141.786 E3.97763
G1 X126.547 Y141.96 E3.99009
G1 X125.862 Y142.305 E4.0156
G1 X125.557 Y142.453 E4.02688
G1 X124.904 Y142.757 E4.05083
G1 X124.604 Y142.891 E4.06176
G1 X123.778 Y143.246 E4.09167
G1 X123.452 Y143.38 E4.10339
G1 X122.802 Y143.635 E4.12661
G1 X122.466 Y143.761 E4.13855
G1 X121.686 Y144.038 E4.16608
G1 X121.373 Y144.144 E4.17707
G1 X120.661 Y144.373 E4.20194
G1 X120.335 Y144.472 E4.21328
G1 X119.553 Y144.697 E4.24034
G1 X119.207 Y144.79 E4.25226
G1 X118.404 Y144.993 E4.27981
G1 X118.104 Y145.065 E4.29007
G1 X117.499 Y145.2 E4.31068
G1 X117.148 Y145.272 E4.3226
G1 X116.572 Y145.381 E4.3421
G1 X115.644 Y145.516 E4.37329
G1 X114.708 Y145.572 E4.40448
G1 X114.096 Y145.565 E4.42483
G1 X113.692 Y145.549 E4.43828
G1 X111.127 Y145.48 E4.52362
G1 X108.598 Y145.484 E4.60774
G1 X106.003 Y145.56 E4.69409
G1 X105.065 Y145.548 E4.72529
G1 X104.369 Y145.487 E4.74852
G1 X103.661 Y145.402 E4.77224
G1 X102.538 Y145.207 E4.81015
G1 X101.617 Y144.998 E4.84156
G1 X101.266 Y144.913 E4.85357
G1 X100.559 Y144.728 E4.87788
G1 X100.255 Y144.643 E4.88838
G1 X99.428 Y144.401 E4.91704
G1 X99.092 Y144.297 E4.92874
G1 X98.509 Y144.106 E4.94914
G1 X98.215 Y144.005 E4.95948
G1 X97.455 Y143.732 E4.98634
G1 X97.103 Y143.599 E4.99886
G1 X96.36 Y143.303 E5.02546
G1 X96.039 Y143.169 E5.03703
G1 X95.187 Y142.798 E5.06794
G1 X94.856 Y142.648 E5.08002
G1 X94.227 Y142.349 E5.10319
G1 X93.923 Y142.198 E5.11448
G1 X93.232 Y141.843 E5.14031
G1 X92.942 Y141.688 E5.15125
G1 X92.214 Y141.286 E5.17891
G1 X91.909 Y141.112 E5.19059
G1 X91.248 Y140.719 E5.21617
G1 X90.952 Y140.537 E5.22772
G1 X90.402 Y140.186 E5.24942
G1 X90.147 Y140.018 E5.25958
G1 X89.97 Y139.898 E5.26669
G1 X89.217 Y139.339 E5.29789
G1 X88.514 Y138.718 E5.32908
G1 X88.097 Y138.294 E5.34886
G1 X87.301 Y137.441 E5.38767
G1 X85.515 Y135.57 E5.4737
G1 X83.747 Y133.82 E5.55644
G1 X82.735 Y132.88 E5.60238
G1 X82.665 Y132.814 E5.60558
G1 X81.665 Y131.869 E5.65134
G1 X81.011 Y131.196 E5.68255
G1 X80.417 Y130.47 E5.71375
G1 X79.987 Y129.854 E5.73874
G1 X79.463 Y129.045 E5.77079
G1 X79.219 Y128.649 E5.78627
G1 X78.813 Y127.96 E5.81286
G1 X78.655 Y127.684 E5.82344
G1 X78.271 Y126.987 E5.84991
G1 X78.1 Y126.663 E5.86209
G1 X77.763 Y126 E5.88683
G1 X77.624 Y125.717 E5.89732
G1 X77.287 Y125.004 E5.92355
G1 X77.131 Y124.658 E5.93617
G1 X76.793 Y123.874 E5.96457
G1 X76.668 Y123.573 E5.97541
G1 X76.404 Y122.907 E5.99924
G1 X76.281 Y122.581 E6.01082
G1 X75.995 Y121.787 E6.03889
G1 X75.88 Y121.451 E6.05071
G1 X75.655 Y120.757 E6.07497
G1 X75.557 Y120.439 E6.08604
G1 X75.348 Y119.721 E6.11091
G1 X75.256 Y119.386 E6.12247
G1 X75.038 Y118.538 E6.15159
G1 X74.961 Y118.218 E6.16253
G1 X74.828 Y117.628 E6.18265
G1 X74.74 Y117.196 E6.19731
G1 X74.612 Y116.499 E6.22088
G1 X74.482 Y115.57 E6.25208
G1 X74.432 Y114.634 E6.28326
G1 X74.437 Y114.15 E6.29936
G1 X74.518 Y111.696 E6.38102
G1 X74.532 Y109.175 E6.46487
G1 X74.461 Y106.232 E6.56279
G1 X74.449 Y105.94 E6.57251
G1 X74.451 Y105.002 E6.6037
G1 X74.592 Y103.675 E6.64809
G1 X74.708 Y102.984 E6.67139
G1 X74.82 Y102.409 E6.69088
G1 X74.949 Y101.831 E6.71057
G1 X75.032 Y101.485 E6.72241
G1 X75.257 Y100.611 E6.75243
G1 X75.348 Y100.279 E6.76388
G1 X75.557 Y99.561 E6.78875
G1 X75.655 Y99.243 E6.79982
G1 X75.88 Y98.549 E6.82408
G1 X75.995 Y98.213 E6.83589
G1 X76.281 Y97.419 E6.86396
G1 X76.401 Y97.102 E6.87524
G1 X76.664 Y96.437 E6.89902
G1 X76.796 Y96.116 E6.91056
G1 X77.135 Y95.332 E6.93897
G1 X77.282 Y95.008 E6.95081
G1 X77.619 Y94.293 E6.9771
G1 X77.769 Y93.987 E6.98843
G1 X78.106 Y93.326 E7.01311
G1 X78.265 Y93.026 E7.0244
G1 X78.649 Y92.327 E7.05093
G1 X78.82 Y92.027 E7.06241
G1 X79.226 Y91.34 E7.08896
G1 X79.406 Y91.046 E7.10042
G1 X79.813 Y90.404 E7.1257
G1 X80.005 Y90.112 E7.13733
G1 X80.111 Y89.956 E7.1436
G1 X80.67 Y89.203 E7.17479
G1 X81.292 Y88.501 E7.20599
G1 X81.717 Y88.084 E7.22579
G1 X82.706 Y87.164 E7.27072
G1 X84.556 Y85.394 E7.35587
G1 X86.324 Y83.602 E7.4396
G1 X87.581 Y82.25 E7.501
G1 X87.67 Y82.155 E7.50533
G0 F6000 X87.96 Y82.431
G1 F1200 X88.451 Y81.915 E7.52902
G1 X89.114 Y81.276 E7.55965
G1 X90.14 Y80.477 E7.6029
G1 X90.451 Y80.264 E7.61544
G1 X90.786 Y80.044 E7.62877
G1 X91.325 Y79.704 E7.64996
G1 X91.616 Y79.526 E7.66131
G1 X92.308 Y79.12 E7.68799
G1 X92.583 Y78.965 E7.69849
G1 X93.312 Y78.566 E7.72613
G1 X93.633 Y78.397 E7.7382
G1 X94.318 Y78.052 E7.76371
G1 X94.612 Y77.909 E7.77458
G1 X95.265 Y77.605 E7.79854
G1 X95.553 Y77.476 E7.80904
G1 X96.379 Y77.121 E7.83894
G1 X96.694 Y76.992 E7.85026
G1 X97.344 Y76.737 E7.87348
G1 X97.668 Y76.616 E7.88499
G1 X98.448 Y76.339 E7.91252
G1 X98.749 Y76.237 E7.92309
G1 X99.461 Y76.008 E7.94796
G1 X99.776 Y75.912 E7.95892
G1 X100.558 Y75.687 E7.98598
G1 X100.891 Y75.597 E7.99745
G1 X101.694 Y75.394 E8.025
G1 X101.983 Y75.325 E8.03488
G1 X102.588 Y75.19 E8.0555
G1 X102.926 Y75.121 E8.06698
G1 X103.502 Y75.012 E8.08647
G1 X104.413 Y74.88 E8.11709
G1 X105.332 Y74.828 E8.1477
G1 X105.888 Y74.835 E8.1662
G1 X106.281 Y74.85 E8.17928
G1 X108.863 Y74.92 E8.26519
G1 X111.415 Y74.916 E8.35007
G1 X114.009 Y74.84 E8.43638
G1 X114.929 Y74.853 E8.46698
G1 X115.584 Y74.911 E8.48886
G1 X116.292 Y74.996 E8.51257
G1 X117.374 Y75.183 E8.54909
G1 X118.295 Y75.392 E8.58051
G1 X118.632 Y75.474 E8.59204
G1 X119.339 Y75.659 E8.61635
G1 X119.633 Y75.741 E8.6265
G1 X120.378 Y75.959 E8.65232
G1 X120.711 Y76.062 E8.66391
G1 X121.496 Y76.32 E8.69139
G1 X121.802 Y76.426 E8.70216
G1 X122.557 Y76.7 E8.72888
G1 X122.878 Y76.822 E8.7403
G1 X123.508 Y77.074 E8.76287
G1 X123.801 Y77.197 E8.77344
G1 X124.642 Y77.563 E8.80394
G1 X124.972 Y77.713 E8.816
G1 X125.61 Y78.017 E8.83951
G1 X125.894 Y78.157 E8.85004
G1 X126.585 Y78.512 E8.87588
G1 X126.865 Y78.662 E8.88644
G1 X127.593 Y79.064 E8.9141
G1 X127.886 Y79.232 E8.92533
G1 X128.547 Y79.625 E8.95091
G1 X128.832 Y79.801 E8.96205
G1 X129.382 Y80.152 E8.98375
G1 X129.617 Y80.306 E8.9931
G1 X129.793 Y80.425 E9.00016
G1 X130.533 Y80.973 E9.03079
G1 X131.222 Y81.584 E9.06142
G1 X131.609 Y81.977 E9.07976
G1 X132.398 Y82.823 E9.11824
G1 X134.197 Y84.708 E9.20491
G1 X135.981 Y86.474 E9.2884
G1 X136.993 Y87.413 E9.33431
G1 X137.06 Y87.477 E9.3374
G1 X138.06 Y88.422 E9.38316
G1 X138.702 Y89.083 E9.41381
G1 X139.283 Y89.797 E9.44442
G1 X139.677 Y90.363 E9.46736
G1 X140.201 Y91.172 E9.49942
G1 X140.439 Y91.558 E9.5145
G1 X140.844 Y92.246 E9.54105
G1 X140.991 Y92.503 E9.5509
G1 X141.376 Y93.201 E9.57741
G1 X141.543 Y93.518 E9.58933
G1 X141.88 Y94.181 E9.61407
G1 X142.014 Y94.454 E9.62418
G1 X142.351 Y95.167 E9.65041
G1 X142.502 Y95.5 E9.66257
G1 X142.84 Y96.284 E9.69097
G1 X142.96 Y96.575 E9.70144
G1 X143.224 Y97.241 E9.72527
G1 X143.341 Y97.551 E9.73629
G1 X143.627 Y98.344 E9.76433
G1 X143.741 Y98.675 E9.77597
G1 X143.966 Y99.37 E9.80027
G1 X144.057 Y99.669 E9.81066
G1 X144.266 Y100.386 E9.8355
G1 X144.357 Y100.716 E9.84689
G1 X144.575 Y101.565 E9.87604
G1 X144.649 Y101.87 E9.88648
G1 X144.782 Y102.46 E9.9066
G1 X144.867 Y102.876 E9.92072
G1 X144.995 Y103.573 E9.94429
G1 X145.121 Y104.485 E9.97491
G1 X145.163 Y105.837 E10.0199
G1 X145.082 Y108.289 E10.1015
G1 X145.068 Y110.831 E10.18605
G1 X145.139 Y113.785 E10.28432
G1 X145.151 Y114.07 E10.29381
G1 X145.149 Y114.99 E10.32441
G1 X145.015 Y116.249 E10.36652
G1 X144.899 Y116.943 E10.38992
G1 X144.789 Y117.504 E10.40894
G1 X144.66 Y118.082 E10.42864
G1 X144.58 Y118.416 E10.44006
G1 X144.355 Y119.29 E10.47008
G1 X144.268 Y119.61 E10.48111
G1 X144.059 Y120.328 E10.50598
G1 X143.964 Y120.634 E10.51664
G1 X143.739 Y121.328 E10.5409
G1 X143.629 Y121.651 E10.55225
G1 X143.343 Y122.445 E10.58032
G1 X143.227 Y122.751 E10.5912
G1 X142.964 Y123.416 E10.61499
G1 X142.836 Y123.726 E10.62614
G1 X142.496 Y124.512 E10.65463
G1 X142.356 Y124.823 E10.66597
G1 X142.02 Y125.536 E10.69219
G1 X141.874 Y125.832 E10.70316
G1 X141.537 Y126.493 E10.72784
G1 X141.384 Y126.782 E10.73872
G1 X141 Y127.481 E10.76524
G1 X140.836 Y127.77 E10.77629
G1 X140.43 Y128.457 E10.80284
G1 X140.222 Y128.793 E10.81598
G1 X139.71 Y129.59 E10.84749
G1 X139.18 Y130.342 E10.87809
G1 X138.585 Y131.046 E10.90874
G1 X138.012 Y131.622 E10.93577
G1 X137.043 Y132.523 E10.97978
G1 X135.149 Y134.336 E11.06698
G1 X133.381 Y136.126 E11.15066
G1 X132.13 Y137.473 E11.2118
G1 X132.043 Y137.567 E11.21606
G1 X131.548 Y138.087 E11.23994
G1 X130.884 Y138.725 E11.27057
G1 X129.86 Y139.523 E11.31375
G1 X129.549 Y139.736 E11.32628
G1 X129.214 Y139.956 E11.33961
G1 X128.675 Y140.296 E11.36081
G1 X128.386 Y140.473 E11.37208
G1 X127.696 Y140.878 E11.39869
G1 X127.418 Y141.035 E11.40931
G1 X126.687 Y141.435 E11.43703
G1 X126.367 Y141.603 E11.44905
G1 X125.682 Y141.948 E11.47456
G1 X125.388 Y142.091 E11.48543
G1 X124.735 Y142.395 E11.50939
G1 X124.447 Y142.524 E11.51988
G1 X123.621 Y142.879 E11.54979
G1 X123.306 Y143.008 E11.56111
G1 X122.656 Y143.263 E11.58433
G1 X122.332 Y143.384 E11.59583
G1 X121.552 Y143.661 E11.62337
G1 X121.251 Y143.763 E11.63394
G1 X120.539 Y143.992 E11.65881
G1 X120.224 Y144.088 E11.66976
G1 X119.442 Y144.313 E11.69683
G1 X119.109 Y144.403 E11.7083
G1 X118.306 Y144.606 E11.73585
G1 X118.017 Y144.675 E11.74573
G1 X117.412 Y144.81 E11.76635
G1 X117.074 Y144.879 E11.77782
G1 X116.498 Y144.988 E11.79732
G1 X115.587 Y145.12 E11.82794
G1 X114.668 Y145.172 E11.85855
G1 X114.112 Y145.165 E11.87705
G1 X113.719 Y145.15 E11.89013
G1 X111.137 Y145.08 E11.97604
G1 X108.585 Y145.084 E12.06092
G1 X105.991 Y145.16 E12.14723
G1 X105.071 Y145.147 E12.17783
G1 X104.416 Y145.089 E12.1997
G1 X103.708 Y145.004 E12.22342
G1 X102.626 Y144.817 E12.25994
G1 X101.705 Y144.608 E12.29135
G1 X101.368 Y144.526 E12.30289
G1 X100.661 Y144.341 E12.3272
G1 X100.367 Y144.259 E12.33735
G1 X99.54 Y144.017 E12.36601
G1 X99.217 Y143.917 E12.37725
G1 X98.634 Y143.726 E12.39766
G1 X98.351 Y143.629 E12.40761
G1 X97.591 Y143.356 E12.43447
G1 X97.251 Y143.227 E12.44656
G1 X96.508 Y142.931 E12.47316
G1 X96.199 Y142.803 E12.48429
G1 X95.347 Y142.432 E12.51519
G1 X95.028 Y142.286 E12.52686
G1 X94.399 Y141.987 E12.55003
G1 X94.106 Y141.843 E12.56089
G1 X93.415 Y141.488 E12.58672
G1 X93.135 Y141.338 E12.59729
G1 X92.407 Y140.936 E12.62495
G1 X92.114 Y140.768 E12.63618
G1 X91.453 Y140.375 E12.66176
G1 X91.168 Y140.199 E12.6729
G1 X90.618 Y139.848 E12.6946
G1 X90.372 Y139.687 E12.70438
G1 X90.195 Y139.567 E12.71149
G1 X89.456 Y139.017 E12.74213
G1 X88.767 Y138.406 E12.77276
G1 X88.39 Y138.021 E12.79068
G1 X87.649 Y137.226 E12.82683
G1 X85.803 Y135.292 E12.91575
G1 X84.018 Y133.526 E12.99927
G1 X83.007 Y132.587 E13.04516
G1 X82.94 Y132.523 E13.04824
G1 X81.94 Y131.578 E13.094
G1 X81.298 Y130.917 E13.12465
G1 X80.717 Y130.203 E13.15527
