;FLAVOR:Marlin
;TIME:278
;Filament used: 0.0574277m
;Layer height: 0.12
;MINX:95.87
;MINY:96.567
;MINZ:0.2
;MAXX:123.862
;MAXY:124.592
;MAXZ:5
;Generated with Cura_SteamEngine 4.4.0
M140 S60
M105
M190 S60
M104 S210
M105
M109 S210
M82 ;absolute extrusion mode
M201 X500.00 Y500.00 Z100.00 E5000.00 ;Setup machine max acceleration
M203 X500.00 Y500.00 Z10.00 E50.00 ;Setup machine max feedrate
M204 P500.00 R1000.00 T500.00 ;Setup Print/Retract/Travel acceleration
M205 X8.00 Y8.00 Z0.40 E5.00 ;Setup Jerk
M220 S100 ;Reset Feedrate
M221 S100 ;Reset Flowrate

G28 ;Home

G92 E0 ;Reset Extruder
G1 Z2.0 F3000 ;Move Z Axis up
G1 X10.1 Y20 Z0.28 F5000.0 ;Move to start position
G1 X10.1 Y200.0 Z0.28 F1500.0 E15 ;Draw the first line
G1 X10.4 Y200.0 Z0.28 F5000.0 ;Move to side a little
G1 X10.4 Y20 Z0.28 F1500.0 E30 ;Draw the second line
G92 E0 ;Reset Extruder
G1 Z2.0 F3000 ;Move Z Axis up

G92 E0
G92 E0
G1 F1500 E-6.5
;LAYER_COUNT:41
;LAYER:0
M107
G0 F6000 X99.852 Y100.767 Z0.2
;TYPE:SKIRT
G1 F1500 E0
G1 F1200 X100.235 Y100.394 E0.01778
G1 X100.385 Y100.255 E0.02458
G1 X101.1 Y99.647 E0.0558
G1 X101.509 Y99.343 E0.07275
G1 X101.868 Y99.089 E0.08738
G1 X102.656 Y98.581 E0.11856
G1 X103.467 Y98.149 E0.14912
G1 X103.901 Y97.941 E0.16513
G1 X104.763 Y97.572 E0.19632
G1 X105.251 Y97.401 E0.21351
G1 X105.546 Y97.305 E0.22383
G1 X106.271 Y97.096 E0.24893
G1 X106.936 Y96.929 E0.27173
G1 X107.854 Y96.74 E0.30291
G1 X108.589 Y96.646 E0.32755
G1 X108.92 Y96.615 E0.33861
G1 X109.857 Y96.567 E0.36981
G1 X110.527 Y96.582 E0.3921
G1 X110.905 Y96.602 E0.40469
G1 X111.839 Y96.692 E0.4359
G1 X112.492 Y96.803 E0.45793
G1 X112.875 Y96.88 E0.47093
G1 X113.786 Y97.104 E0.50213
G1 X114.526 Y97.348 E0.52804
G1 X114.815 Y97.455 E0.53829
G1 X115.68 Y97.818 E0.5695
G1 X116.496 Y98.244 E0.60011
G1 X116.91 Y98.483 E0.61601
G1 X117.701 Y98.987 E0.64721
G1 X118.642 Y99.722 E0.68692
G1 X119.066 Y100.092 E0.70564
G1 X119.586 Y100.576 E0.72926
G1 X119.737 Y100.726 E0.73634
G1 X119.883 Y100.873 E0.74323
G1 X120.105 Y101.102 E0.75384
G1 X120.755 Y101.836 E0.78645
G1 X120.887 Y101.999 E0.79343
G1 X121.585 Y102.962 E0.83299
G1 X121.77 Y103.249 E0.84434
G1 X122.244 Y104.059 E0.87556
G1 X122.47 Y104.511 E0.89237
G1 X122.632 Y104.854 E0.90498
G1 X122.996 Y105.719 E0.9362
G1 X123.163 Y106.199 E0.9531
G1 X123.235 Y106.424 E0.96096
G1 X123.511 Y107.457 E0.99652
G1 X123.585 Y107.8 E1.00819
G1 X123.743 Y108.725 E1.0394
G1 X123.809 Y109.416 E1.06249
G1 X123.841 Y109.915 E1.07912
G1 X123.862 Y110.853 E1.11033
G1 X123.825 Y111.547 E1.13344
G1 X123.799 Y111.854 E1.14369
G1 X123.712 Y112.587 E1.16824
G1 X123.679 Y112.803 E1.17551
G1 X123.39 Y114.134 E1.22081
G1 X123.271 Y114.555 E1.23536
G1 X122.978 Y115.446 E1.26655
G1 X122.71 Y116.092 E1.28982
G1 X122.546 Y116.455 E1.30306
G1 X121.911 Y117.657 E1.34828
G1 X121.687 Y118.024 E1.36258
G1 X121.165 Y118.803 E1.39377
G1 X120.822 Y119.246 E1.4124
G1 X120.583 Y119.539 E1.42498
G1 X119.626 Y120.569 E1.47174
G1 X119.242 Y120.933 E1.48934
G1 X118.535 Y121.549 E1.52053
G1 X118.021 Y121.935 E1.54191
G1 X117.718 Y122.149 E1.55425
G1 X116.987 Y122.623 E1.58322
G1 X116.736 Y122.772 E1.59293
G1 X115.681 Y123.323 E1.63252
G1 X115.31 Y123.492 E1.64608
G1 X114.023 Y123.984 E1.69191
G1 X113.808 Y124.051 E1.6994
G1 X112.901 Y124.291 E1.7306
G1 X112.13 Y124.433 E1.75668
G1 X111.857 Y124.473 E1.76585
G1 X110.924 Y124.569 E1.79705
G1 X110.415 Y124.588 E1.81399
G1 X110.127 Y124.592 E1.82357
G1 X109.823 Y124.592 E1.83368
G1 X109.605 Y124.589 E1.84093
G1 X108.386 Y124.504 E1.88157
G1 X108.131 Y124.472 E1.89012
G1 X107.804 Y124.426 E1.9011
G1 X107.535 Y124.384 E1.91016
G1 X106.201 Y124.09 E1.95559
G1 X105.758 Y123.963 E1.97092
G1 X104.868 Y123.666 E2.00213
G1 X104.348 Y123.453 E2.02082
G1 X103.931 Y123.269 E2.03598
G1 X102.881 Y122.737 E2.07513
G1 X102.572 Y122.559 E2.08699
G1 X101.972 Y122.187 E2.11047
G1 X101.778 Y122.058 E2.11822
G1 X101.02 Y121.506 E2.14941
G1 X100.312 Y120.891 E2.1806
G1 X99.638 Y120.195 E2.21282
G1 X99.388 Y119.913 E2.22536
G1 X98.57 Y118.871 E2.26942
G1 X98.27 Y118.437 E2.28696
G1 X97.77 Y117.643 E2.31817
G1 X97.486 Y117.112 E2.3382
G1 X97.305 Y116.751 E2.35163
G1 X97.016 Y116.128 E2.37447
G1 X96.936 Y115.94 E2.38127
G1 X96.496 Y114.705 E2.42488
G1 X96.423 Y114.454 E2.43357
G1 X96.222 Y113.651 E2.4611
G1 X96.136 Y113.243 E2.47497
G1 X95.936 Y111.87 E2.52112
G1 X95.907 Y111.515 E2.53296
G1 X95.87 Y110.577 E2.56419
G1 X95.898 Y109.831 E2.58902
G1 X95.94 Y109.246 E2.60852
G1 X96.047 Y108.315 E2.63969
G1 X96.211 Y107.487 E2.66777
G1 X96.305 Y107.092 E2.68127
G1 X96.561 Y106.19 E2.71246
G1 X96.722 Y105.736 E2.72848
G1 X96.859 Y105.375 E2.74132
G1 X97.229 Y104.513 E2.77252
G1 X97.602 Y103.804 E2.79917
G1 X97.742 Y103.56 E2.80852
G1 X97.953 Y103.208 E2.82217
G1 X98.086 Y102.995 E2.83053
G1 X98.616 Y102.221 E2.86173
G1 X98.929 Y101.823 E2.87857
G1 X99.225 Y101.464 E2.89404
G1 X99.852 Y100.767 E2.92522
G0 F6000 X100.149 Y101.034
G1 F1200 X100.507 Y100.687 E2.94181
G1 X100.657 Y100.548 E2.94861
G1 X101.359 Y99.952 E2.97924
G1 X101.74 Y99.67 E2.995
G1 X102.099 Y99.416 E3.00963
G1 X102.873 Y98.917 E3.04026
G1 X103.64 Y98.51 E3.06914
G1 X104.074 Y98.302 E3.08515
G1 X104.921 Y97.941 E3.11577
G1 X105.375 Y97.781 E3.13178
G1 X105.67 Y97.685 E3.1421
G1 X106.368 Y97.484 E3.16626
G1 X107.033 Y97.317 E3.18906
G1 X107.935 Y97.132 E3.21969
G1 X108.627 Y97.044 E3.24289
G1 X108.958 Y97.013 E3.25394
G1 X109.877 Y96.967 E3.28455
G1 X110.506 Y96.982 E3.30548
G1 X110.884 Y97.002 E3.31807
G1 X111.8 Y97.09 E3.34867
G1 X112.413 Y97.195 E3.36936
G1 X112.796 Y97.272 E3.38235
G1 X113.69 Y97.492 E3.41297
G1 X114.387 Y97.723 E3.4374
G1 X114.676 Y97.83 E3.44765
G1 X115.525 Y98.187 E3.47828
G1 X116.296 Y98.591 E3.50723
G1 X116.71 Y98.83 E3.52313
G1 X117.486 Y99.324 E3.55372
G1 X118.379 Y100.023 E3.59144
G1 X118.803 Y100.393 E3.61016
G1 X119.304 Y100.86 E3.63294
G1 X119.455 Y101.01 E3.64002
G1 X119.596 Y101.152 E3.64667
G1 X119.818 Y101.381 E3.65728
G1 X120.445 Y102.088 E3.68871
G1 X120.577 Y102.251 E3.69569
G1 X121.248 Y103.179 E3.73378
G1 X121.433 Y103.466 E3.74513
G1 X121.898 Y104.261 E3.77577
G1 X122.109 Y104.682 E3.79143
G1 X122.271 Y105.025 E3.80405
G1 X122.627 Y105.874 E3.83467
G1 X122.782 Y106.321 E3.8504
G1 X122.854 Y106.546 E3.85826
G1 X123.12 Y107.542 E3.89255
G1 X123.194 Y107.885 E3.90422
G1 X123.348 Y108.792 E3.93482
G1 X123.41 Y109.442 E3.95653
G1 X123.442 Y109.941 E3.97316
G1 X123.461 Y110.861 E4.00377
G1 X123.426 Y111.514 E4.02552
G1 X123.4 Y111.821 E4.03577
G1 X123.316 Y112.527 E4.05942
G1 X123.283 Y112.743 E4.06668
G1 X123.005 Y114.025 E4.11031
G1 X122.886 Y114.446 E4.12486
G1 X122.598 Y115.32 E4.15547
G1 X122.346 Y115.927 E4.17733
G1 X122.182 Y116.29 E4.19058
G1 X121.57 Y117.448 E4.23414
G1 X121.346 Y117.815 E4.24844
G1 X120.833 Y118.58 E4.27908
G1 X120.512 Y118.993 E4.29648
G1 X120.273 Y119.286 E4.30905
G1 X119.351 Y120.279 E4.35412
G1 X118.967 Y120.643 E4.37172
G1 X118.272 Y121.247 E4.40234
G1 X117.79 Y121.608 E4.42237
G1 X117.487 Y121.822 E4.43471
G1 X116.783 Y122.279 E4.46263
G1 X116.532 Y122.428 E4.47234
G1 X115.515 Y122.959 E4.51049
G1 X115.144 Y123.128 E4.52405
G1 X113.904 Y123.602 E4.56821
G1 X113.689 Y123.669 E4.5757
G1 X112.799 Y123.904 E4.60631
G1 X112.072 Y124.037 E4.63089
G1 X111.799 Y124.077 E4.64007
G1 X110.883 Y124.171 E4.6707
G1 X110.409 Y124.188 E4.68647
G1 X110.121 Y124.192 E4.69605
G1 X109.828 Y124.192 E4.7058
G1 X109.61 Y124.189 E4.71305
G1 X108.436 Y124.108 E4.75219
G1 X108.181 Y124.076 E4.76074
G1 X107.866 Y124.031 E4.77132
G1 X107.597 Y123.989 E4.78038
G1 X106.311 Y123.706 E4.82417
G1 X105.868 Y123.579 E4.8395
G1 X104.995 Y123.287 E4.87012
G1 X104.51 Y123.087 E4.88757
G1 X104.093 Y122.903 E4.90273
G1 X103.081 Y122.39 E4.94046
G1 X102.772 Y122.212 E4.95232
G1 X102.194 Y121.854 E4.97494
G1 X102 Y121.725 E4.98269
G1 X101.256 Y121.182 E5.01332
G1 X100.562 Y120.577 E5.04394
G1 X99.937 Y119.93 E5.07386
G1 X99.687 Y119.648 E5.0864
G1 X98.899 Y118.643 E5.12887
G1 X98.599 Y118.209 E5.14642
G1 X98.109 Y117.43 E5.17703
G1 X97.843 Y116.933 E5.19578
G1 X97.662 Y116.572 E5.20921
G1 X97.384 Y115.971 E5.23124
G1 X97.304 Y115.783 E5.23803
G1 X96.88 Y114.593 E5.28005
G1 X96.807 Y114.342 E5.28874
G1 X96.613 Y113.568 E5.31528
G1 X96.527 Y113.16 E5.32915
G1 X96.334 Y111.837 E5.37362
G1 X96.305 Y111.482 E5.38547
G1 X96.27 Y110.562 E5.41609
G1 X96.297 Y109.86 E5.43945
G1 X96.339 Y109.275 E5.45896
G1 X96.445 Y108.36 E5.4896
G1 X96.6 Y107.58 E5.51605
G1 X96.694 Y107.185 E5.52955
G1 X97.096 Y105.878 E5.57503
G1 X97.233 Y105.517 E5.58787
G1 X97.596 Y104.671 E5.61849
G1 X97.949 Y104.003 E5.64362
G1 X98.089 Y103.759 E5.65298
G1 X98.292 Y103.42 E5.66612
G1 X98.425 Y103.207 E5.67447
G1 X98.946 Y102.448 E5.70509
G1 X99.237 Y102.078 E5.72075
G1 X99.533 Y101.719 E5.73623
G1 X100.149 Y101.034 E5.76687
G0 F6000 X100.447 Y101.302
G1 F1200 X100.779 Y100.98 E5.78225
G1 X100.929 Y100.841 E5.78905
G1 X101.971 Y99.996 E5.83367
G1 X102.33 Y99.742 E5.8483
G1 X103.089 Y99.254 E5.87831
G1 X103.813 Y98.871 E5.90555
G1 X104.247 Y98.663 E5.92156
G1 X105.499 Y98.162 E5.96641
G1 X105.794 Y98.066 E5.97673
G1 X106.466 Y97.872 E5.99999
G1 X107.131 Y97.705 E6.0228
G1 X108.015 Y97.524 E6.05281
G1 X108.664 Y97.442 E6.07457
G1 X108.995 Y97.411 E6.08562
G1 X109.897 Y97.367 E6.11566
G1 X110.485 Y97.381 E6.13522
G1 X110.863 Y97.401 E6.14781
G1 X111.762 Y97.489 E6.17786
G1 X112.334 Y97.587 E6.19716
G1 X112.717 Y97.664 E6.21015
G1 X113.594 Y97.881 E6.2402
G1 X114.249 Y98.099 E6.26316
G1 X114.538 Y98.206 E6.27341
G1 X115.37 Y98.556 E6.30343
G1 X116.096 Y98.937 E6.3307
G1 X116.51 Y99.176 E6.3466
G1 X117.271 Y99.662 E6.37663
G1 X118.116 Y100.325 E6.41236
G1 X118.54 Y100.695 E6.43107
G1 X119.022 Y101.144 E6.45298
G1 X119.173 Y101.294 E6.46006
G1 X119.309 Y101.43 E6.46646
G1 X119.531 Y101.659 E6.47707
G1 X120.134 Y102.34 E6.50732
G1 X120.266 Y102.503 E6.5143
G1 X120.912 Y103.396 E6.55096
G1 X121.097 Y103.683 E6.56231
G1 X121.747 Y104.853 E6.60683
G1 X121.909 Y105.196 E6.61945
G1 X122.401 Y106.443 E6.66403
G1 X122.473 Y106.668 E6.67189
G1 X122.729 Y107.626 E6.70487
G1 X122.803 Y107.969 E6.71654
G1 X122.954 Y108.859 E6.74657
G1 X123.011 Y109.467 E6.76688
G1 X123.043 Y109.966 E6.78351
G1 X123.061 Y110.869 E6.81355
G1 X123.028 Y111.48 E6.8339
G1 X123.002 Y111.787 E6.84415
G1 X122.921 Y112.466 E6.86689
G1 X122.888 Y112.682 E6.87416
G1 X122.62 Y113.916 E6.91616
G1 X122.501 Y114.337 E6.93071
G1 X122.218 Y115.195 E6.96076
G1 X121.981 Y115.763 E6.98123
G1 X121.817 Y116.126 E6.99448
G1 X121.228 Y117.24 E7.03639
G1 X121.004 Y117.607 E7.05069
G1 X120.5 Y118.356 E7.08072
G1 X120.202 Y118.74 E7.09688
G1 X119.963 Y119.033 E7.10946
G1 X119.076 Y119.989 E7.15283
G1 X118.692 Y120.353 E7.17043
G1 X118.01 Y120.944 E7.20045
G1 X117.559 Y121.282 E7.21919
G1 X117.256 Y121.496 E7.23153
G1 X116.579 Y121.935 E7.25837
G1 X116.328 Y122.084 E7.26808
G1 X115.349 Y122.595 E7.30481
G1 X114.978 Y122.764 E7.31837
G1 X113.785 Y123.22 E7.36085
G1 X113.57 Y123.287 E7.36834
G1 X112.696 Y123.517 E7.39839
G1 X112.014 Y123.641 E7.42145
G1 X111.741 Y123.681 E7.43063
G1 X110.404 Y123.788 E7.47524
G1 X110.116 Y123.792 E7.48482
G1 X109.834 Y123.792 E7.4942
G1 X109.616 Y123.789 E7.50145
G1 X108.486 Y123.711 E7.53912
G1 X108.231 Y123.679 E7.54767
G1 X107.927 Y123.636 E7.55788
G1 X107.658 Y123.594 E7.56694
G1 X106.421 Y123.321 E7.60907
G1 X105.978 Y123.194 E7.6244
G1 X105.122 Y122.907 E7.65443
G1 X104.671 Y122.721 E7.67065
G1 X104.254 Y122.537 E7.68581
G1 X103.281 Y122.043 E7.72211
G1 X102.972 Y121.865 E7.73397
G1 X102.415 Y121.521 E7.75574
G1 X102.221 Y121.392 E7.76349
G1 X101.492 Y120.859 E7.79352
G1 X100.813 Y120.264 E7.82355
G1 X100.236 Y119.664 E7.85124
G1 X99.986 Y119.382 E7.86377
G1 X99.228 Y118.416 E7.90461
G1 X98.928 Y117.982 E7.92216
G1 X98.448 Y117.217 E7.9522
G1 X98.201 Y116.754 E7.96965
G1 X98.02 Y116.393 E7.98308
G1 X97.752 Y115.815 E8.00427
G1 X97.672 Y115.627 E8.01107
G1 X97.264 Y114.482 E8.0515
G1 X97.191 Y114.231 E8.06019
G1 X97.004 Y113.486 E8.08574
G1 X96.918 Y113.078 E8.09961
G1 X96.733 Y111.804 E8.14243
G1 X96.704 Y111.449 E8.15427
G1 X96.67 Y110.547 E8.1843
G1 X96.696 Y109.889 E8.2062
G1 X96.738 Y109.304 E8.2257
G1 X96.843 Y108.407 E8.25574
G1 X96.989 Y107.673 E8.28063
G1 X97.083 Y107.278 E8.29414
G1 X97.47 Y106.02 E8.33791
G1 X97.607 Y105.659 E8.35076
G1 X97.964 Y104.83 E8.38078
G1 X98.296 Y104.202 E8.4044
G1 X98.436 Y103.958 E8.41376
G1 X98.631 Y103.632 E8.4264
G1 X98.764 Y103.419 E8.43475
G1 X99.546 Y102.332 E8.47929
G1 X99.842 Y101.973 E8.49476
G1 X100.447 Y101.302 E8.52481
G1 F1500 E2.02481
;MESH:screw.stl
G0 F6000 X107.254 Y107.965
G0 X107.991 Y108.76
G0 X108.068 Y110.934
G0 X108.284 Y111.53
G0 X108.627 Y112.006
G0 X109.051 Y112.23
G0 X110.315 Y112.581
;TYPE:WALL-INNER
G1 F1500 E8.52481
G1 F1200 X110.184 Y112.6 E8.52921
G1 X109.818 Y112.6 E8.54139
G1 X109.446 Y112.547 E8.55388
G1 X109.092 Y112.444 E8.56615
G1 X108.746 Y112.285 E8.57881
G1 X108.514 Y112.136 E8.58798
G1 X108.322 Y111.913 E8.59777
G1 X108.136 Y111.617 E8.6094
G1 X107.995 Y111.304 E8.62081
G1 X107.901 Y110.971 E8.63232
G1 X107.861 Y110.642 E8.64335
G1 X107.866 Y110.356 E8.65286
G1 X107.908 Y110.086 E8.66195
G1 X107.92 Y110.042 E8.66347
G1 X107.989 Y109.816 E8.67132
G1 X108.012 Y109.761 E8.67331
G1 X108.1 Y109.576 E8.68012
G1 X108.132 Y109.523 E8.68218
G1 X108.233 Y109.369 E8.68831
G1 X108.401 Y109.173 E8.69689
G1 X108.561 Y109.031 E8.70401
G1 X108.763 Y108.899 E8.71203
G1 X108.995 Y108.793 E8.72052
G1 X109.158 Y108.744 E8.72618
G1 X109.217 Y108.733 E8.72817
G1 X109.448 Y108.662 E8.73621
G1 X109.572 Y108.616 E8.74061
G1 X109.65 Y108.596 E8.74329
G1 X109.822 Y108.563 E8.74911
G1 X110.031 Y108.552 E8.75607
G1 X110.234 Y108.571 E8.76286
G1 X110.409 Y108.608 E8.76881
G1 X110.6 Y108.68 E8.77559
G1 X110.804 Y108.795 E8.78338
G1 X110.93 Y108.89 E8.78863
G1 X111.101 Y109.057 E8.79658
G1 X111.149 Y109.118 E8.79916
G1 X111.416 Y109.362 E8.81119
G1 X111.54 Y109.509 E8.81759
G1 X111.664 Y109.702 E8.82522
G1 X111.764 Y109.92 E8.8332
G1 X111.832 Y110.15 E8.84117
G1 X111.871 Y110.412 E8.84998
G1 X111.872 Y110.672 E8.85863
G1 X111.835 Y110.942 E8.8677
G1 X111.754 Y111.222 E8.87739
G1 X111.65 Y111.455 E8.88588
G1 X111.476 Y111.738 E8.89693
G1 X111.259 Y111.994 E8.90809
G1 X111.006 Y112.218 E8.91933
G1 X110.737 Y112.393 E8.93
G1 X110.393 Y112.556 E8.94266
G1 X110.315 Y112.581 E8.94539
G0 F6000 X110.402 Y112.973
G1 F1200 X110.213 Y113 E8.95174
G1 X109.79 Y113 E8.96581
G1 X109.361 Y112.939 E8.98022
G1 X108.955 Y112.821 E8.99428
G1 X108.549 Y112.634 E9.00915
G1 X108.25 Y112.442 E9.02097
G1 X107.997 Y112.149 E9.03384
G1 X107.783 Y111.808 E9.04723
G1 X107.618 Y111.441 E9.06061
G1 X107.508 Y111.051 E9.07409
G1 X107.505 Y111.019 E9.07516
G1 X107.461 Y110.662 E9.08712
G1 X107.465 Y110.346 E9.09764
G1 X107.471 Y110.294 E9.09938
G1 X107.516 Y110.006 E9.10907
G1 X107.537 Y109.925 E9.11186
G1 X107.61 Y109.686 E9.12017
G1 X107.645 Y109.601 E9.12322
G1 X107.751 Y109.379 E9.13141
G1 X107.789 Y109.316 E9.13385
G1 X107.913 Y109.128 E9.14134
G1 X108.116 Y108.892 E9.1517
G1 X108.219 Y108.796 E9.15638
G1 X108.326 Y108.706 E9.16103
G1 X108.568 Y108.548 E9.17064
G1 X108.852 Y108.418 E9.18103
G1 X109.062 Y108.355 E9.18832
G1 X109.122 Y108.344 E9.19035
G1 X109.32 Y108.283 E9.19724
G1 X109.433 Y108.242 E9.20124
G1 X109.45 Y108.235 E9.20185
G1 X109.471 Y108.23 E9.20257
G1 X109.558 Y108.207 E9.20556
G1 X109.723 Y108.172 E9.21118
G1 X109.79 Y108.164 E9.21342
G1 X109.982 Y108.15 E9.21982
G1 X110.048 Y108.152 E9.22202
G1 X110.296 Y108.175 E9.2303
G1 X110.524 Y108.224 E9.23806
G1 X110.767 Y108.315 E9.24669
G1 X111.024 Y108.46 E9.2565
G1 X111.193 Y108.587 E9.26353
G1 X111.399 Y108.789 E9.27313
G1 X111.443 Y108.845 E9.2755
G1 X111.702 Y109.082 E9.28718
G1 X111.72 Y109.104 E9.28812
G1 X111.866 Y109.276 E9.29563
G1 X112.013 Y109.505 E9.30468
G1 X112.142 Y109.785 E9.31493
G1 X112.224 Y110.062 E9.32454
G1 X112.271 Y110.379 E9.3352
G1 X112.272 Y110.698 E9.34581
G1 X112.227 Y111.023 E9.35672
G1 X112.13 Y111.361 E9.36842
G1 X112.002 Y111.647 E9.37884
G1 X111.802 Y111.972 E9.39153
G1 X111.546 Y112.275 E9.40472
G1 X111.249 Y112.537 E9.41789
G1 X110.935 Y112.742 E9.43037
