;FLAVOR:Marlin
;TIME:598
;Filament used: 0.155821m
;Layer height: 0.12
;MINX:81.107
;MINY:96.412
;MINZ:0.2
;MAXX:138.648
;MAXY:124.73
;MAXZ:5
;Generated with Cura_SteamEngine 4.4.0
M140 S60
M105
M190 S60
M104 S210
M105
M109 S210
M82 ;absolute extrusion mode
M201 X500.00 Y500.00 Z100.00 E5000.00 ;Setup machine max acceleration
M203 X500.00 Y500.00 Z10.00 E50.00 ;Setup machine max feedrate
M204 P500.00 R1000.00 T500.00 ;Setup Print/Retract/Travel acceleration
M205 X8.00 Y8.00 Z0.40 E5.00 ;Setup Jerk
M220 S100 ;Reset Feedrate
M221 S100 ;Reset Flowrate

G28 ;Home

G92 E0 ;Reset Extruder
G1 Z2.0 F3000 ;Move Z Axis up
G1 X10.1 Y20 Z0.28 F5000.0 ;Move to start position
G1 X10.1 Y200.0 Z0.28 F1500.0 E15 ;Draw the first line
G1 X10.4 Y200.0 Z0.28 F5000.0 ;Move to side a little
G1 X10.4 Y20 Z0.28 F1500.0 E30 ;Draw the second line
G92 E0 ;Reset Extruder
G1 Z2.0 F3000 ;Move Z Axis up

G92 E0
G92 E0
G1 F1500 E-6.5
;LAYER_COUNT:41
;LAYER:0
M107
G0 F6000 X85.744 Y100.173 Z0.2
;TYPE:SKIRT
G1 F1500 E0
G1 F1200 X86.168 Y99.818 E0.01839
G1 X86.363 Y99.663 E0.02668
G1 X87.122 Y99.111 E0.05789
G1 X87.534 Y98.85 E0.07411
G1 X87.916 Y98.62 E0.08894
G1 X88.739 Y98.171 E0.12013
G1 X89.337 Y97.899 E0.14198
G1 X89.535 Y97.816 E0.14912
G1 X90.446 Y97.481 E0.1814
G1 X90.86 Y97.349 E0.19585
G1 X91.138 Y97.264 E0.20552
G1 X91.469 Y97.168 E0.21699
G1 X92.676 Y96.891 E0.25817
G1 X93.073 Y96.823 E0.27157
G1 X94.003 Y96.704 E0.30275
G1 X94.734 Y96.667 E0.3271
G1 X95.07 Y96.661 E0.33828
G1 X95.727 Y96.669 E0.36013
G1 X97.006 Y96.723 E0.40271
G1 X99.671 Y96.798 E0.49138
G1 X102.159 Y96.798 E0.57413
G1 X104.718 Y96.726 E0.65928
G1 X107.182 Y96.586 E0.74136
G1 X107.536 Y96.556 E0.75318
G1 X107.677 Y96.545 E0.75788
G1 X109.057 Y96.446 E0.8039
G1 X109.46 Y96.425 E0.81732
G1 X109.832 Y96.412 E0.8297
G1 X110.77 Y96.419 E0.8609
G1 X111.25 Y96.454 E0.87691
G1 X112.431 Y96.566 E0.91637
G1 X115.024 Y96.778 E1.0029
G1 X117.556 Y96.914 E1.08723
G1 X120.041 Y96.978 E1.16991
G1 X122.57 Y96.97 E1.25403
G1 X124.266 Y96.917 E1.31046
G1 X124.434 Y96.913 E1.31605
G1 X124.882 Y96.906 E1.33096
G1 X125.507 Y96.914 E1.35174
G1 X125.774 Y96.925 E1.36063
G1 X126.708 Y97.004 E1.39181
G1 X127.19 Y97.076 E1.40802
G1 X127.48 Y97.126 E1.41781
G1 X128.397 Y97.325 E1.44901
G1 X129.09 Y97.53 E1.47305
G1 X129.474 Y97.658 E1.48651
G1 X130.35 Y97.993 E1.51771
G1 X131.369 Y98.496 E1.5555
G1 X131.678 Y98.669 E1.56728
G1 X132.476 Y99.162 E1.59848
G1 X133.196 Y99.694 E1.62826
G1 X133.456 Y99.903 E1.63935
G1 X134.138 Y100.499 E1.66948
G1 X134.356 Y100.706 E1.67947
G1 X134.571 Y100.915 E1.68945
G1 X134.941 Y101.286 E1.70687
G1 X135.574 Y101.978 E1.73807
G1 X136.206 Y102.806 E1.77271
G1 X136.373 Y103.048 E1.78249
G1 X136.872 Y103.842 E1.81368
G1 X137.158 Y104.377 E1.83386
G1 X137.314 Y104.689 E1.84546
G1 X137.697 Y105.545 E1.87665
G1 X137.96 Y106.282 E1.90268
G1 X138.085 Y106.676 E1.91643
G1 X138.33 Y107.581 E1.94761
G1 X138.491 Y108.455 E1.97717
G1 X138.539 Y108.793 E1.98852
G1 X138.631 Y109.727 E2.01974
G1 X138.648 Y110.413 E2.04256
G1 X138.645 Y110.864 E2.05756
G1 X138.599 Y111.801 E2.08877
G1 X138.464 Y112.777 E2.12154
G1 X138.386 Y113.202 E2.13591
G1 X138.178 Y114.116 E2.16709
G1 X137.903 Y114.981 E2.19727
G1 X137.75 Y115.401 E2.21214
G1 X137.391 Y116.268 E2.24335
G1 X137.019 Y116.997 E2.27057
G1 X136.803 Y117.384 E2.28531
G1 X136.312 Y118.183 E2.31651
G1 X135.832 Y118.839 E2.34354
G1 X135.532 Y119.219 E2.35964
G1 X134.92 Y119.93 E2.39085
G1 X134.336 Y120.507 E2.41815
G1 X134.117 Y120.708 E2.42804
G1 X133.855 Y120.941 E2.4397
G1 X133.697 Y121.077 E2.44663
G1 X132.961 Y121.658 E2.47782
G1 X132.438 Y122.013 E2.49885
G1 X132.123 Y122.214 E2.51127
G1 X131.312 Y122.684 E2.54245
G1 X130.846 Y122.915 E2.55975
G1 X130.3 Y123.169 E2.57978
G1 X129.433 Y123.528 E2.61099
G1 X128.539 Y123.811 E2.64218
G1 X127.625 Y124.018 E2.67335
G1 X126.689 Y124.147 E2.70477
G1 X126.146 Y124.198 E2.72291
G1 X124.825 Y124.242 E2.76687
G1 X122.2 Y124.172 E2.85421
G1 X119.671 Y124.176 E2.93833
G1 X117.184 Y124.25 E3.02108
G1 X114.643 Y124.397 E3.10574
G1 X111.602 Y124.667 E3.20728
G1 X111.398 Y124.683 E3.21409
G1 X110.898 Y124.718 E3.23076
G1 X109.556 Y124.73 E3.27539
G1 X109.307 Y124.717 E3.28369
G1 X108.935 Y124.691 E3.29609
G1 X108.605 Y124.663 E3.3071
G1 X106.025 Y124.479 E3.39313
G1 X103.504 Y124.371 E3.47706
G1 X100.981 Y124.334 E3.56098
G1 X98.445 Y124.369 E3.64534
G1 X96.537 Y124.442 E3.70885
G1 X96.036 Y124.466 E3.72553
G1 X95.704 Y124.477 E3.73658
G1 X95.202 Y124.486 E3.75328
G1 X94.265 Y124.463 E3.78445
G1 X93.697 Y124.41 E3.80342
G1 X93.096 Y124.338 E3.82356
G1 X92.17 Y124.187 E3.85476
G1 X91.421 Y124.004 E3.88041
G1 X90.995 Y123.884 E3.89513
G1 X90.104 Y123.591 E3.92632
G1 X89.524 Y123.354 E3.94716
G1 X88.973 Y123.11 E3.96721
G1 X88.132 Y122.694 E3.99841
G1 X87.414 Y122.263 E4.02626
G1 X87.077 Y122.043 E4.03965
G1 X86.314 Y121.497 E4.07086
G1 X85.696 Y120.976 E4.09774
G1 X85.544 Y120.838 E4.10457
G1 X84.877 Y120.179 E4.13576
G1 X84.271 Y119.468 E4.16683
G1 X84.017 Y119.143 E4.18055
G1 X83.471 Y118.38 E4.21175
G1 X83.221 Y117.977 E4.22753
G1 X82.978 Y117.567 E4.24338
G1 X82.535 Y116.741 E4.27455
G1 X82.237 Y116.068 E4.29903
G1 X82.032 Y115.559 E4.31728
G1 X81.719 Y114.675 E4.34847
G1 X81.542 Y114.027 E4.37082
G1 X81.448 Y113.637 E4.38416
G1 X81.237 Y112.506 E4.42243
G1 X81.2 Y112.227 E4.43179
G1 X81.12 Y111.357 E4.46084
G1 X81.107 Y111.109 E4.4691
G1 X81.114 Y109.84 E4.51131
G1 X81.132 Y109.555 E4.52081
G1 X81.253 Y108.48 E4.55679
G1 X81.317 Y108.087 E4.57003
G1 X81.507 Y107.169 E4.60121
G1 X81.658 Y106.629 E4.61986
G1 X81.762 Y106.29 E4.63166
G1 X82.075 Y105.406 E4.66285
G1 X82.293 Y104.902 E4.68111
G1 X82.482 Y104.493 E4.6961
G1 X82.911 Y103.659 E4.72729
G1 X83.446 Y102.813 E4.76058
G1 X83.723 Y102.416 E4.77668
G1 X84.292 Y101.67 E4.80789
G1 X84.798 Y101.103 E4.83317
G1 X85.067 Y100.822 E4.8461
G1 X85.744 Y100.173 E4.8773
G0 F6000 X86.021 Y100.462
G1 F1200 X86.417 Y100.131 E4.89446
G1 X86.612 Y99.976 E4.90275
G1 X87.74 Y99.193 E4.94842
G1 X88.122 Y98.963 E4.96325
G1 X88.931 Y98.523 E4.99388
G1 X89.492 Y98.268 E5.01437
G1 X89.69 Y98.185 E5.02152
G1 X90.568 Y97.862 E5.05263
G1 X90.982 Y97.73 E5.06708
G1 X91.249 Y97.649 E5.07636
G1 X91.58 Y97.553 E5.08783
G1 X92.743 Y97.285 E5.12752
G1 X93.14 Y97.217 E5.14092
G1 X94.054 Y97.101 E5.17156
G1 X94.741 Y97.067 E5.19444
G1 X95.077 Y97.061 E5.20562
G1 X95.71 Y97.068 E5.22667
G1 X97.05 Y97.124 E5.27128
G1 X99.66 Y97.198 E5.35812
G1 X102.17 Y97.198 E5.44161
G1 X104.716 Y97.126 E5.52632
G1 X107.238 Y96.983 E5.61034
G1 X107.569 Y96.955 E5.62139
G1 X107.706 Y96.944 E5.62596
G1 X109.086 Y96.845 E5.67197
G1 X109.474 Y96.824 E5.6849
G1 X109.846 Y96.811 E5.69728
G1 X111.212 Y96.852 E5.74273
G1 X112.354 Y96.96 E5.78088
G1 X115.006 Y97.177 E5.86938
G1 X117.525 Y97.313 E5.95329
G1 X120.068 Y97.377 E6.0379
G1 X122.583 Y97.369 E6.12155
G1 X124.278 Y97.317 E6.17795
G1 X124.44 Y97.313 E6.18334
G1 X124.888 Y97.306 E6.19824
G1 X125.49 Y97.314 E6.21827
G1 X125.757 Y97.325 E6.22715
G1 X127.122 Y97.47 E6.27281
G1 X127.412 Y97.52 E6.2826
G1 X128.312 Y97.716 E6.31323
G1 X128.963 Y97.91 E6.33583
G1 X129.347 Y98.038 E6.34929
G1 X130.207 Y98.367 E6.37991
G1 X131.173 Y98.845 E6.41576
G1 X131.482 Y99.018 E6.42754
G1 X132.265 Y99.502 E6.45816
G1 X132.945 Y100.005 E6.48629
G1 X133.205 Y100.214 E6.49738
G1 X133.863 Y100.789 E6.52645
G1 X134.081 Y100.996 E6.53645
G1 X134.287 Y101.198 E6.54604
G1 X134.657 Y101.569 E6.56347
G1 X135.279 Y102.248 E6.5941
G1 X135.876 Y103.034 E6.62692
G1 X136.043 Y103.276 E6.6367
G1 X136.533 Y104.055 E6.66731
G1 X136.8 Y104.556 E6.68619
G1 X136.956 Y104.868 E6.6978
G1 X137.332 Y105.708 E6.72841
G1 X137.579 Y106.403 E6.75294
G1 X137.704 Y106.797 E6.76669
G1 X137.944 Y107.685 E6.79728
G1 X138.095 Y108.512 E6.82524
G1 X138.143 Y108.85 E6.8366
G1 X138.232 Y109.766 E6.86721
G1 X138.248 Y110.411 E6.88867
G1 X138.245 Y110.862 E6.90367
G1 X138.199 Y111.781 E6.93427
G1 X138.071 Y112.704 E6.96526
G1 X137.993 Y113.129 E6.97964
G1 X137.788 Y114.027 E7.01027
G1 X137.527 Y114.844 E7.0388
G1 X137.374 Y115.264 E7.05367
G1 X137.021 Y116.115 E7.08431
G1 X136.67 Y116.802 E7.10997
G1 X136.454 Y117.189 E7.12471
G1 X135.971 Y117.973 E7.15534
G1 X135.518 Y118.591 E7.18082
G1 X135.218 Y118.971 E7.19692
G1 X134.616 Y119.668 E7.22756
G1 X134.066 Y120.212 E7.25329
G1 X133.847 Y120.413 E7.26317
G1 X133.594 Y120.638 E7.27443
G1 X133.436 Y120.774 E7.28137
G1 X132.713 Y121.343 E7.31197
G1 X132.223 Y121.676 E7.33167
G1 X131.908 Y121.877 E7.3441
G1 X131.111 Y122.338 E7.37472
G1 X130.677 Y122.552 E7.39082
G1 X130.131 Y122.806 E7.41085
G1 X129.28 Y123.158 E7.44148
G1 X128.402 Y123.434 E7.47209
G1 X127.503 Y123.634 E7.50272
G1 X126.651 Y123.749 E7.53132
G1 X126.108 Y123.8 E7.54946
G1 X124.835 Y123.842 E7.59182
G1 X122.21 Y123.772 E7.67916
G1 X119.658 Y123.776 E7.76404
G1 X117.148 Y123.85 E7.84756
G1 X114.652 Y123.995 E7.93071
G1 X111.567 Y124.269 E8.03373
G1 X111.37 Y124.284 E8.0403
G1 X110.87 Y124.319 E8.05697
G1 X109.577 Y124.331 E8.09997
G1 X109.328 Y124.318 E8.10827
G1 X108.969 Y124.293 E8.12024
G1 X108.597 Y124.261 E8.13266
G1 X106.035 Y124.078 E8.21809
G1 X103.528 Y123.971 E8.30154
G1 X100.981 Y123.934 E8.38627
G1 X98.424 Y123.969 E8.47132
G1 X96.598 Y124.039 E8.5321
G1 X96.016 Y124.067 E8.55148
G1 X95.697 Y124.077 E8.56209
G1 X95.195 Y124.086 E8.57879
G1 X94.275 Y124.063 E8.6094
G1 X93.744 Y124.013 E8.62714
G1 X93.143 Y123.941 E8.64727
G1 X92.235 Y123.792 E8.67788
G1 X91.53 Y123.619 E8.70202
G1 X91.104 Y123.499 E8.71674
G1 X90.229 Y123.211 E8.74738
G1 X89.686 Y122.988 E8.7669
G1 X89.135 Y122.744 E8.78695
G1 X88.31 Y122.335 E8.81757
G1 X87.633 Y121.928 E8.84385
G1 X87.296 Y121.708 E8.85723
G1 X86.547 Y121.172 E8.88787
G1 X85.965 Y120.68 E8.91321
G1 X85.813 Y120.542 E8.92004
G1 X85.159 Y119.894 E8.95066
G1 X84.586 Y119.221 E8.98006
G1 X84.332 Y118.896 E8.99378
G1 X83.565 Y117.774 E9.03898
G1 X83.322 Y117.364 E9.05484
G1 X82.888 Y116.552 E9.08546
G1 X82.609 Y115.919 E9.10847
G1 X82.404 Y115.41 E9.12672
G1 X82.097 Y114.542 E9.15734
G1 X81.931 Y113.934 E9.1783
G1 X81.837 Y113.544 E9.19165
G1 X81.634 Y112.454 E9.22852
G1 X81.597 Y112.175 E9.23788
G1 X81.52 Y111.336 E9.26591
G1 X81.507 Y111.088 E9.27417
G1 X81.513 Y109.865 E9.31484
G1 X81.531 Y109.58 E9.32434
G1 X81.648 Y108.544 E9.35902
G1 X81.712 Y108.151 E9.37226
G1 X81.899 Y107.25 E9.40287
G1 X82.04 Y106.746 E9.42027
G1 X82.144 Y106.407 E9.43207
G1 X82.452 Y105.539 E9.4627
G1 X82.656 Y105.07 E9.47971
G1 X82.845 Y104.661 E9.4947
G1 X83.267 Y103.842 E9.52534
G1 X83.774 Y103.042 E9.55684
G1 X84.051 Y102.645 E9.57294
G1 X84.61 Y101.913 E9.60358
G1 X85.087 Y101.38 E9.62737
G1 X85.356 Y101.099 E9.64031
G1 X86.021 Y100.462 E9.67093
G0 F6000 X86.298 Y100.751
G1 F1200 X86.666 Y100.444 E9.68687
G1 X86.861 Y100.289 E9.69516
G1 X87.947 Y99.536 E9.73911
G1 X88.329 Y99.306 E9.75394
G1 X89.122 Y98.875 E9.78396
G1 X89.647 Y98.637 E9.80313
G1 X89.845 Y98.554 E9.81027
G1 X90.69 Y98.243 E9.84022
G1 X91.104 Y98.111 E9.85467
G1 X91.361 Y98.033 E9.86361
G1 X91.692 Y97.937 E9.87507
G1 X92.811 Y97.679 E9.91327
G1 X93.208 Y97.611 E9.92666
G1 X94.104 Y97.499 E9.95669
G1 X94.748 Y97.467 E9.97814
G1 X95.084 Y97.461 E9.98932
G1 X95.693 Y97.468 E10.00957
G1 X97.021 Y97.524 E10.05378
G1 X99.649 Y97.598 E10.14123
G1 X102.182 Y97.598 E10.22547
G1 X104.715 Y97.526 E10.30976
G1 X107.258 Y97.382 E10.39447
G1 X107.603 Y97.353 E10.40599
G1 X107.734 Y97.343 E10.41036
G1 X109.114 Y97.244 E10.45637
G1 X109.488 Y97.224 E10.46883
G1 X109.86 Y97.211 E10.48121
G1 X111.175 Y97.25 E10.52497
G1 X112.371 Y97.363 E10.56492
G1 X114.988 Y97.577 E10.65226
G1 X117.492 Y97.712 E10.73566
G1 X120.059 Y97.778 E10.82107
G1 X122.596 Y97.769 E10.90545
G1 X124.29 Y97.717 E10.96182
G1 X124.447 Y97.713 E10.96704
G1 X124.895 Y97.706 E10.98194
G1 X125.474 Y97.714 E11.0012
G1 X125.741 Y97.725 E11.01009
G1 X127.054 Y97.864 E11.05401
G1 X127.344 Y97.914 E11.06379
G1 X128.226 Y98.107 E11.09382
G1 X128.837 Y98.289 E11.11503
G1 X129.221 Y98.417 E11.12849
G1 X130.064 Y98.741 E11.15853
G1 X130.978 Y99.194 E11.19246
G1 X131.287 Y99.367 E11.20424
G1 X132.055 Y99.843 E11.23429
G1 X132.695 Y100.317 E11.26078
G1 X132.955 Y100.526 E11.27187
G1 X133.587 Y101.079 E11.2998
G1 X133.805 Y101.286 E11.3098
G1 X134.004 Y101.48 E11.31904
G1 X134.374 Y101.851 E11.33647
G1 X134.983 Y102.518 E11.36651
G1 X135.547 Y103.261 E11.39754
G1 X135.714 Y103.503 E11.40732
G1 X136.194 Y104.268 E11.43736
G1 X136.442 Y104.734 E11.45491
G1 X136.598 Y105.046 E11.46651
G1 X136.966 Y105.871 E11.49656
G1 X137.197 Y106.523 E11.51957
G1 X137.322 Y106.917 E11.53332
G1 X137.557 Y107.79 E11.56338
G1 X137.699 Y108.568 E11.58969
G1 X137.747 Y108.906 E11.60104
G1 X137.834 Y109.805 E11.63108
G1 X137.848 Y110.408 E11.65115
G1 X137.845 Y110.859 E11.66615
G1 X137.799 Y111.761 E11.69619
G1 X137.677 Y112.632 E11.72544
G1 X137.599 Y113.057 E11.73981
G1 X137.397 Y113.937 E11.76984
G1 X137.151 Y114.707 E11.79673
G1 X136.998 Y115.127 E11.81159
G1 X136.652 Y115.961 E11.84162
G1 X136.321 Y116.607 E11.86577
G1 X136.105 Y116.994 E11.88051
G1 X135.63 Y117.762 E11.91054
G1 X135.204 Y118.343 E11.9345
G1 X134.904 Y118.723 E11.95061
G1 X134.313 Y119.407 E11.98067
G1 X133.795 Y119.918 E12.00487
G1 X133.576 Y120.119 E12.01476
G1 X133.333 Y120.335 E12.02557
G1 X133.175 Y120.471 E12.03251
G1 X132.465 Y121.029 E12.06254
G1 X132.008 Y121.339 E12.08091
G1 X131.693 Y121.54 E12.09334
G1 X130.508 Y122.189 E12.13827
G1 X129.962 Y122.443 E12.1583
G1 X129.127 Y122.788 E12.18835
G1 X128.265 Y123.057 E12.21839
G1 X127.383 Y123.248 E12.2484
G1 X126.614 Y123.35 E12.2742
G1 X126.071 Y123.401 E12.29234
G1 X124.846 Y123.442 E12.33311
G1 X122.22 Y123.372 E12.42048
G1 X119.646 Y123.376 E12.50609
G1 X117.149 Y123.45 E12.58918
G1 X114.592 Y123.598 E12.67437
G1 X111.531 Y123.87 E12.77658
G1 X111.342 Y123.885 E12.78289
G1 X110.842 Y123.92 E12.79956
G1 X109.598 Y123.931 E12.84093
G1 X109.349 Y123.918 E12.84923
G1 X109.004 Y123.894 E12.86073
G1 X108.665 Y123.865 E12.87205
G1 X106.08 Y123.681 E12.95824
G1 X103.515 Y123.571 E13.04363
G1 X100.982 Y123.534 E13.12789
G1 X98.443 Y123.569 E13.21234
G1 X96.477 Y123.644 E13.27778
G1 X95.997 Y123.667 E13.29376
G1 X95.69 Y123.677 E13.30398
G1 X95.188 Y123.686 E13.32068
G1 X94.285 Y123.663 E13.35072
G1 X93.792 Y123.616 E13.36719
G1 X93.191 Y123.544 E13.38733
G1 X92.3 Y123.397 E13.41736
G1 X91.638 Y123.234 E13.44004
G1 X91.212 Y123.114 E13.45476
G1 X90.355 Y122.831 E13.48478
G1 X89.848 Y122.622 E13.50302
G1 X89.297 Y122.378 E13.52306
G1 X88.488 Y121.977 E13.55309
G1 X87.851 Y121.593 E13.57783
G1 X87.514 Y121.373 E13.59121
G1 X86.781 Y120.846 E13.62124
G1 X86.234 Y120.384 E13.64505
G1 X86.082 Y120.246 E13.65188
G1 X85.441 Y119.61 E13.68192
G1 X84.901 Y118.975 E13.70964
G1 X84.647 Y118.65 E13.72336
G1 X83.909 Y117.57 E13.76687
G1 X83.666 Y117.16 E13.78272
G1 X83.241 Y116.363 E13.81276
G1 X82.98 Y115.77 E13.83431
G1 X82.775 Y115.261 E13.85256
G1 X82.475 Y114.409 E13.8826
G1 X82.32 Y113.84 E13.90222
G1 X82.226 Y113.45 E13.91556
G1 X82.031 Y112.401 E13.95105
G1 X81.994 Y112.122 E13.96041
G1 X81.919 Y111.315 E13.98737
G1 X81.906 Y111.067 E13.99563
G1 X81.912 Y109.89 E14.03477
G1 X81.93 Y109.605 E14.04427
G1 X82.043 Y108.609 E14.07761
G1 X82.107 Y108.216 E14.09085
G1 X82.291 Y107.331 E14.12092
G1 X82.423 Y106.863 E14.13709
G1 X82.527 Y106.524 E14.14889
G1 X82.829 Y105.674 E14.17889
G1 X83.019 Y105.237 E14.19474
G1 X83.208 Y104.828 E14.20972
G1 X83.623 Y104.026 E14.23976
G1 X84.102 Y103.27 E14.26952
G1 X84.379 Y102.873 E14.28562
G1 X84.928 Y102.156 E14.31566
G1 X85.376 Y101.657 E14.33796
G1 X85.645 Y101.376 E14.3509
G1 X86.298 Y100.751 E14.38097
G1 F1500 E7.88097
;MESH:screws.stl
G0 F6000 X106.208 Y110.001
G0 X107.27 Y110.23
G0 X108.648 Y112.108
G0 X109.268 Y112.409
G0 X110.457 Y112.729
;TYPE:WALL-INNER
G1 F1500 E14.38097
G1 F1200 X110.13 Y112.753 E14.39187
G1 X109.739 Y112.725 E14.40491
G1 X109.362 Y112.644 E14.41774
G1 X108.998 Y112.513 E14.4306
G1 X108.671 Y112.337 E14.44295
G1 X108.539 Y112.24 E14.4484
G1 X108.475 Y112.18 E14.45132
G1 X108.26 Y111.901 E14.46303
G1 X108.081 Y111.585 E14.47511
G1 X108.01 Y111.416 E14.48121
G1 X107.944 Y111.241 E14.48743
