;FLAVOR:Marlin
;TIME:3985
;Filament used: 2.18082m
;Layer height: 0.2
;MINX:83
;MINY:46.564
;MINZ:0.2
;MAXX:137.686
;MAXY:171.25
;MAXZ:6.2
;Generated with Cura_SteamEngine 4.4.0
M140 S60
M105
M190 S60
M104 S210
M105
M109 S210
M82 ;absolute extrusion mode
M201 X500.00 Y500.00 Z100.00 E5000.00 ;Setup machine max acceleration
M203 X500.00 Y500.00 Z10.00 E50.00 ;Setup machine max feedrate
M204 P500.00 R1000.00 T500.00 ;Setup Print/Retract/Travel acceleration
M205 X8.00 Y8.00 Z0.40 E5.00 ;Setup Jerk
M220 S100 ;Reset Feedrate
M221 S100 ;Reset Flowrate

G28 ;Home

G92 E0 ;Reset Extruder
G1 Z2.0 F3000 ;Move Z Axis up
G1 X10.1 Y20 Z0.28 F5000.0 ;Move to start position
G1 X10.1 Y200.0 Z0.28 F1500.0 E15 ;Draw the first line
G1 X10.4 Y200.0 Z0.28 F5000.0 ;Move to side a little
G1 X10.4 Y20 Z0.28 F1500.0 E30 ;Draw the second line
G92 E0 ;Reset Extruder
G1 Z2.0 F3000 ;Move Z Axis up

G92 E0
G92 E0
G1 F1500 E-6.5
;LAYER_COUNT:31
;LAYER:0
M107
G0 F6000 X88.993 Y57.956 Z0.2
;TYPE:SKIRT
G1 F1500 E0
G1 F1200 X89.41 Y57.32 E0.02529
G1 X89.704 Y56.904 E0.04224
G1 X89.973 Y56.54 E0.05729
G1 X90.134 Y56.331 E0.06607
G1 X90.455 Y55.933 E0.08307
G1 X91.309 Y54.925 E0.12701
G1 X91.682 Y54.507 E0.14565
G1 X92.019 Y54.148 E0.16202
G1 X92.515 Y53.653 E0.18533
G1 X93.028 Y53.172 E0.20872
G1 X93.572 Y52.695 E0.23278
G1 X94.768 Y51.713 E0.28425
G1 X95.488 Y51.169 E0.31427
G1 X95.998 Y50.816 E0.3349
G1 X96.359 Y50.576 E0.34932
G1 X96.529 Y50.468 E0.35601
G1 X96.795 Y50.305 E0.36639
G1 X97.211 Y50.057 E0.3825
G1 X97.465 Y49.91 E0.39226
G1 X97.977 Y49.623 E0.41178
G1 X98.291 Y49.453 E0.42366
G1 X98.879 Y49.148 E0.44569
G1 X99.294 Y48.944 E0.46107
G1 X99.562 Y48.819 E0.47091
G1 X99.859 Y48.686 E0.48173
G1 X100.221 Y48.53 E0.49484
G1 X100.795 Y48.302 E0.51538
G1 X101.287 Y48.122 E0.53281
G1 X101.449 Y48.064 E0.53853
G1 X102.437 Y47.72 E0.57333
G1 X103.258 Y47.469 E0.60188
G1 X104.019 Y47.269 E0.62805
G1 X104.628 Y47.128 E0.64884
G1 X105.052 Y47.042 E0.66323
G1 X105.432 Y46.971 E0.67609
G1 X106.411 Y46.808 E0.7091
G1 X107.099 Y46.716 E0.73219
G1 X107.686 Y46.656 E0.75181
G1 X108.105 Y46.621 E0.7658
G1 X108.607 Y46.589 E0.78253
G1 X109.266 Y46.567 E0.80446
G1 X110.062 Y46.564 E0.83093
G1 X110.393 Y46.568 E0.84194
G1 X111.188 Y46.589 E0.86839
G1 X111.604 Y46.608 E0.88224
G1 X111.806 Y46.621 E0.88898
G1 X112.135 Y46.647 E0.89995
G1 X112.59 Y46.69 E0.91515
G1 X113.388 Y46.795 E0.94192
G1 X114.844 Y47.041 E0.99104
G1 X115.724 Y47.227 E1.02095
G1 X116.498 Y47.424 E1.04752
G1 X116.813 Y47.509 E1.05837
G1 X117.033 Y47.572 E1.06598
G1 X117.634 Y47.763 E1.08695
G1 X118.481 Y48.059 E1.1168
G1 X118.873 Y48.204 E1.1307
G1 X119.507 Y48.453 E1.15335
G1 X120.122 Y48.717 E1.17561
G1 X120.931 Y49.093 E1.20528
G1 X121.755 Y49.519 E1.23614
G1 X122.925 Y50.188 E1.28096
G1 X123.487 Y50.532 E1.30288
G1 X123.889 Y50.795 E1.31886
G1 X124.33 Y51.099 E1.33667
G1 X124.907 Y51.518 E1.36039
G1 X125.439 Y51.93 E1.38277
G1 X125.888 Y52.3 E1.40212
G1 X126.029 Y52.418 E1.40824
G1 X126.517 Y52.834 E1.42956
G1 X126.74 Y53.029 E1.43942
G1 X126.91 Y53.182 E1.44702
G1 X127.358 Y53.609 E1.46761
G1 X128.018 Y54.274 E1.49877
G1 X128.616 Y54.926 E1.5282
G1 X129.457 Y55.922 E1.57155
G1 X129.827 Y56.385 E1.59126
G1 X130.078 Y56.717 E1.60511
G1 X130.383 Y57.142 E1.62251
G1 X130.781 Y57.724 E1.64596
G1 X131.117 Y58.246 E1.66661
G1 X131.268 Y58.496 E1.67632
G1 X131.394 Y58.711 E1.68461
G1 X131.882 Y59.562 E1.71724
G1 X132.114 Y59.988 E1.73337
G1 X132.225 Y60.203 E1.74142
G1 X132.418 Y60.595 E1.75595
G1 X132.8 Y61.413 E1.78598
G1 X133.139 Y62.22 E1.81509
G1 X133.273 Y62.579 E1.82783
G1 X133.295 Y62.64 E1.82999
G1 X133.626 Y63.543 E1.86198
G1 X133.819 Y64.117 E1.88212
G1 X133.957 Y64.569 E1.89784
G1 X134.09 Y65.045 E1.91428
G1 X134.212 Y65.52 E1.93059
G1 X134.289 Y65.837 E1.94144
G1 X134.344 Y66.081 E1.94976
G1 X134.445 Y66.586 E1.96689
G1 X134.666 Y67.837 E2.00914
G1 X134.776 Y68.626 E2.03564
G1 X134.849 Y69.336 E2.05938
G1 X134.883 Y69.742 E2.07293
G1 X134.905 Y70.078 E2.08413
G1 X134.928 Y70.655 E2.10333
G1 X134.935 Y71.193 E2.12123
G1 X134.99 Y73.763 E2.20673
G1 X135.118 Y76.293 E2.29098
G1 X135.312 Y78.766 E2.37349
G1 X135.584 Y81.309 E2.45855
G1 X135.922 Y83.8 E2.54216
G1 X136.331 Y86.284 E2.62589
G1 X136.813 Y88.773 E2.71021
G1 X137.214 Y90.596 E2.7723
G1 X137.389 Y91.352 E2.79811
G1 X137.561 Y92.274 E2.8293
G1 X137.663 Y93.393 E2.86667
G1 X137.677 Y93.743 E2.87832
G1 X137.686 Y94.183 E2.89296
G1 X137.686 Y121.646 E3.80638
G1 X137.685 Y121.804 E3.81164
G1 X137.675 Y122.501 E3.83482
G1 X137.623 Y123.418 E3.86537
G1 X137.521 Y124.457 E3.9001
G1 X137.505 Y124.616 E3.90541
G1 X137.436 Y125.23 E3.92596
G1 X137.225 Y127.709 E4.00871
G1 X137.082 Y130.208 E4.09196
G1 X137.009 Y132.787 E4.17778
G1 X137 Y134.087 E4.22101
G1 X137 Y159.514 E5.06672
G1 X136.999 Y159.665 E5.07174
G1 X136.989 Y160.392 E5.09593
G1 X136.936 Y161.329 E5.12714
G1 X136.804 Y162.257 E5.15832
G1 X136.593 Y163.171 E5.18952
G1 X136.304 Y164.063 E5.2207
G1 X135.941 Y164.928 E5.2519
G1 X135.506 Y165.759 E5.2831
G1 X135.001 Y166.549 E5.31428
G1 X134.431 Y167.294 E5.34548
G1 X133.8 Y167.988 E5.37668
G1 X133.111 Y168.625 E5.40789
G1 X132.371 Y169.201 E5.43908
G1 X131.585 Y169.712 E5.47026
G1 X130.758 Y170.154 E5.50145
G1 X129.896 Y170.524 E5.53265
G1 X129.006 Y170.819 E5.56383
G1 X128.094 Y171.038 E5.59503
G1 X127.167 Y171.178 E5.62621
G1 X126.299 Y171.237 E5.65515
G1 X125.979 Y171.246 E5.6658
G1 X125.67 Y171.25 E5.67607
G1 X94.707 Y171.25 E6.70591
G1 X94.565 Y171.249 E6.71063
G1 X93.867 Y171.24 E6.73385
G1 X92.931 Y171.188 E6.76503
G1 X92.002 Y171.056 E6.79624
G1 X91.088 Y170.846 E6.82743
G1 X90.195 Y170.559 E6.85863
G1 X89.33 Y170.196 E6.88983
G1 X88.499 Y169.762 E6.92101
G1 X87.708 Y169.258 E6.9522
G1 X86.963 Y168.688 E6.9834
G1 X86.269 Y168.057 E7.0146
G1 X85.632 Y167.37 E7.04576
G1 X85.055 Y166.63 E7.07697
G1 X84.543 Y165.844 E7.10817
G1 X84.1 Y165.017 E7.13938
G1 X83.729 Y164.156 E7.17056
G1 X83.433 Y163.266 E7.20175
G1 X83.214 Y162.354 E7.23295
G1 X83.073 Y161.427 E7.26414
G1 X83.013 Y160.538 E7.29377
G1 X83.004 Y160.205 E7.30485
G1 X83 Y159.908 E7.31473
G1 X83 Y132.457 E8.22775
G1 X83.001 Y132.299 E8.23301
G1 X83.011 Y131.602 E8.25619
G1 X83.063 Y130.685 E8.28674
G1 X83.165 Y129.646 E8.32147
G1 X83.181 Y129.487 E8.32678
G1 X83.25 Y128.873 E8.34733
G1 X83.461 Y126.394 E8.43008
G1 X83.604 Y123.895 E8.51333
G1 X83.677 Y121.316 E8.59915
G1 X83.686 Y120.016 E8.64239
G1 X83.686 Y94.56 E9.48906
G1 X83.687 Y94.402 E9.49431
G1 X83.697 Y93.705 E9.5175
G1 X83.751 Y92.769 E9.54868
G1 X83.829 Y92.16 E9.5691
G1 X84.004 Y91.046 E9.60661
G1 X84.374 Y88.443 E9.69405
G1 X84.662 Y85.929 E9.77822
G1 X84.873 Y83.442 E9.86123
G1 X85.018 Y80.909 E9.94562
G1 X85.089 Y78.42 E10.02843
G1 X85.091 Y75.885 E10.11275
G1 X85.04 Y73.842 E10.18072
G1 X84.995 Y72.56 E10.22339
G1 X84.988 Y72.255 E10.23353
G1 X84.984 Y71.709 E10.25169
G1 X84.985 Y71.478 E10.25938
G1 X84.998 Y70.522 E10.29118
G1 X85.043 Y69.669 E10.31959
G1 X85.117 Y68.861 E10.34657
G1 X85.246 Y67.912 E10.37843
G1 X85.492 Y66.548 E10.42453
G1 X85.548 Y66.255 E10.43445
G1 X85.632 Y65.852 E10.44814
G1 X85.805 Y65.144 E10.47238
G1 X85.987 Y64.491 E10.49493
G1 X86.185 Y63.855 E10.51708
G1 X86.312 Y63.487 E10.53003
G1 X86.394 Y63.257 E10.53815
G1 X86.662 Y62.533 E10.56383
G1 X86.821 Y62.13 E10.57824
G1 X87.033 Y61.62 E10.59661
G1 X87.245 Y61.142 E10.614
G1 X87.581 Y60.431 E10.64016
G1 X88.039 Y59.564 E10.67277
G1 X88.641 Y58.538 E10.71233
G1 X88.728 Y58.392 E10.71799
G1 X88.993 Y57.956 E10.73496
G0 F6000 X89.335 Y58.163
G1 F1200 X89.737 Y57.551 E10.75931
G1 X90.031 Y57.135 E10.77625
G1 X90.29 Y56.784 E10.79076
G1 X90.451 Y56.575 E10.79954
G1 X90.76 Y56.192 E10.8159
G1 X91.614 Y55.184 E10.85984
G1 X91.974 Y54.781 E10.87782
G1 X92.311 Y54.422 E10.89419
G1 X92.789 Y53.944 E10.91668
G1 X93.302 Y53.463 E10.94007
G1 X93.826 Y53.004 E10.96324
G1 X95.022 Y52.022 E11.01471
G1 X95.715 Y51.498 E11.0436
G1 X96.225 Y51.145 E11.06423
G1 X96.574 Y50.914 E11.07815
G1 X96.744 Y50.806 E11.08485
G1 X97 Y50.648 E11.09486
G1 X97.416 Y50.4 E11.11097
G1 X97.661 Y50.259 E11.12037
G1 X98.173 Y49.972 E11.13989
G1 X98.475 Y49.809 E11.1513
G1 X99.063 Y49.504 E11.17334
G1 X99.463 Y49.307 E11.18817
G1 X99.731 Y49.182 E11.198
G1 X100.017 Y49.053 E11.20844
G1 X100.379 Y48.897 E11.22155
G1 X100.932 Y48.677 E11.24134
G1 X101.424 Y48.497 E11.25877
G1 X101.581 Y48.441 E11.26431
G1 X102.569 Y48.097 E11.29911
G1 X103.36 Y47.856 E11.32661
G1 X104.121 Y47.656 E11.35278
G1 X104.708 Y47.52 E11.37282
G1 X105.132 Y47.434 E11.38721
G1 X105.498 Y47.366 E11.39959
G1 X106.477 Y47.203 E11.4326
G1 X107.14 Y47.114 E11.45485
G1 X107.727 Y47.054 E11.47448
G1 X108.131 Y47.02 E11.48796
G1 X108.633 Y46.988 E11.50469
G1 X109.267 Y46.967 E11.52579
G1 X110.063 Y46.964 E11.55227
G1 X110.383 Y46.968 E11.56291
G1 X111.178 Y46.989 E11.58936
G1 X111.579 Y47.007 E11.60271
G1 X111.781 Y47.02 E11.60944
G1 X112.097 Y47.045 E11.61999
G1 X112.552 Y47.088 E11.63519
G1 X113.321 Y47.189 E11.66098
G1 X114.777 Y47.435 E11.7101
G1 X115.626 Y47.615 E11.73896
G1 X116.4 Y47.812 E11.76553
G1 X116.703 Y47.894 E11.77597
G1 X116.923 Y47.957 E11.78358
G1 X117.502 Y48.14 E11.80378
G1 X118.349 Y48.436 E11.83362
G1 X118.727 Y48.577 E11.84704
G1 X119.361 Y48.826 E11.86969
G1 X119.954 Y49.079 E11.89113
G1 X120.763 Y49.455 E11.92081
G1 X121.557 Y49.866 E11.95054
G1 X122.727 Y50.535 E11.99537
G1 X123.268 Y50.867 E12.01648
G1 X123.67 Y51.13 E12.03246
G1 X124.095 Y51.423 E12.04963
G1 X124.672 Y51.842 E12.07335
G1 X125.185 Y52.239 E12.09492
G1 X125.634 Y52.609 E12.11427
G1 X125.77 Y52.722 E12.12015
G1 X126.258 Y53.138 E12.14148
G1 X126.472 Y53.326 E12.15095
G1 X126.642 Y53.479 E12.15856
G1 X127.075 Y53.891 E12.17844
G1 X127.735 Y54.556 E12.2096
G1 X128.31 Y55.184 E12.23792
G1 X129.151 Y56.18 E12.28128
G1 X129.507 Y56.626 E12.30026
G1 X129.758 Y56.958 E12.3141
G1 X130.053 Y57.368 E12.3309
G1 X130.451 Y57.95 E12.35435
G1 X130.774 Y58.453 E12.37424
G1 X130.925 Y58.703 E12.38395
G1 X131.047 Y58.91 E12.39194
G1 X131.535 Y59.761 E12.42457
G1 X131.759 Y60.171 E12.44011
G1 X131.87 Y60.386 E12.44816
G1 X132.055 Y60.764 E12.46215
G1 X132.437 Y61.582 E12.49218
G1 X132.764 Y62.36 E12.52025
G1 X132.898 Y62.719 E12.533
G1 X132.919 Y62.778 E12.53508
G1 X133.25 Y63.681 E12.56707
G1 X133.436 Y64.234 E12.58647
G1 X133.574 Y64.686 E12.60219
G1 X133.703 Y65.144 E12.61802
G1 X133.825 Y65.619 E12.63433
G1 X133.899 Y65.925 E12.6448
G1 X133.954 Y66.169 E12.65312
G1 X134.051 Y66.656 E12.66963
G1 X134.272 Y67.907 E12.71189
G1 X134.378 Y68.667 E12.73741
G1 X134.451 Y69.377 E12.76115
G1 X134.484 Y69.768 E12.7742
G1 X134.506 Y70.104 E12.7854
G1 X134.528 Y70.661 E12.80394
G1 X134.534 Y71.112 E12.81894
G1 X134.592 Y73.792 E12.9081
G1 X134.718 Y76.309 E12.99192
G1 X134.917 Y78.842 E13.07643
G1 X135.188 Y81.369 E13.16096
G1 X135.524 Y83.847 E13.24413
G1 X135.931 Y86.32 E13.32749
G1 X136.423 Y88.857 E13.41344
G1 X136.843 Y90.767 E13.47849
G1 X136.999 Y91.443 E13.50156
G1 X137.167 Y92.348 E13.53217
G1 X137.264 Y93.409 E13.56761
G1 X137.278 Y93.759 E13.57926
G1 X137.286 Y94.183 E13.59337
G1 X137.286 Y121.646 E14.50679
G1 X137.285 Y121.798 E14.51185
G1 X137.275 Y122.495 E14.53503
G1 X137.225 Y123.379 E14.56448
G1 X137.123 Y124.418 E14.5992
G1 X137.107 Y124.571 E14.60432
G1 X137.042 Y125.151 E14.62373
G1 X136.826 Y127.686 E14.70835
G1 X136.682 Y130.21 E14.79244
G1 X136.609 Y132.774 E14.87775
G1 X136.6 Y134.084 E14.92132
G1 X136.6 Y159.514 E15.76713
G1 X136.599 Y159.66 E15.77198
G1 X136.589 Y160.387 E15.79616
G1 X136.536 Y161.306 E15.82678
G1 X136.404 Y162.217 E15.8574
G1 X136.193 Y163.113 E15.88801
G1 X135.906 Y163.988 E15.91864
G1 X135.543 Y164.834 E15.94926
G1 X135.109 Y165.646 E15.97988
G1 X134.605 Y166.417 E16.01052
G1 X134.037 Y167.141 E16.04113
G1 X133.408 Y167.813 E16.07174
G1 X132.723 Y168.428 E16.10236
G1 X131.987 Y168.981 E16.13298
G1 X131.206 Y169.469 E16.16361
G1 X130.386 Y169.887 E16.19422
G1 X129.532 Y170.232 E16.22486
G1 X128.652 Y170.501 E16.25546
G1 X127.751 Y170.694 E16.28611
G1 X126.838 Y170.807 E16.31671
G1 X126.288 Y170.837 E16.33503
G1 X125.968 Y170.846 E16.34567
G1 X125.67 Y170.85 E16.35559
G1 X94.707 Y170.85 E17.38542
G1 X94.57 Y170.849 E17.38998
G1 X93.872 Y170.84 E17.41319
G1 X92.953 Y170.788 E17.44381
G1 X92.042 Y170.657 E17.47442
G1 X91.146 Y170.447 E17.50503
G1 X90.271 Y170.16 E17.53566
G1 X89.424 Y169.798 E17.56629
G1 X88.612 Y169.364 E17.59692
G1 X87.841 Y168.862 E17.62752
G1 X87.116 Y168.294 E17.65815
G1 X86.443 Y167.665 E17.68879
G1 X85.828 Y166.981 E17.71938
G1 X85.274 Y166.246 E17.75
G1 X84.786 Y165.465 E17.78063
G1 X84.367 Y164.645 E17.81125
G1 X84.021 Y163.792 E17.84187
G1 X83.751 Y162.912 E17.87248
G1 X83.558 Y162.011 E17.90313
G1 X83.444 Y161.098 E17.93373
G1 X83.413 Y160.527 E17.95275
G1 X83.404 Y160.194 E17.96383
G1 X83.4 Y159.908 E17.97335
G1 X83.4 Y132.457 E18.88637
G1 X83.401 Y132.305 E18.89143
G1 X83.411 Y131.608 E18.91461
G1 X83.461 Y130.724 E18.94406
G1 X83.563 Y129.685 E18.97878
G1 X83.579 Y129.532 E18.9839
G1 X83.644 Y128.952 E19.00331
G1 X83.86 Y126.417 E19.08793
G1 X84.004 Y123.893 E19.17202
G1 X84.077 Y121.329 E19.25733
G1 X84.086 Y120.019 E19.3009
G1 X84.086 Y94.56 E20.14767
G1 X84.087 Y94.408 E20.15273
G1 X84.097 Y93.711 E20.17591
G1 X84.15 Y92.792 E20.20653
G1 X84.224 Y92.222 E20.22565
G1 X84.402 Y91.087 E20.26386
G1 X84.769 Y88.513 E20.35034
G1 X85.058 Y85.974 E20.43533
G1 X85.273 Y83.459 E20.51928
G1 X85.416 Y80.944 E20.60307
G1 X85.489 Y78.396 E20.68785
G1 X85.491 Y75.875 E20.7717
G1 X85.44 Y73.832 E20.83967
G1 X85.395 Y72.546 E20.88247
G1 X85.388 Y72.252 E20.89225
G1 X85.384 Y71.706 E20.91041
G1 X85.385 Y71.484 E20.91779
G1 X85.398 Y70.528 E20.94959
G1 X85.441 Y69.705 E20.977
G1 X85.515 Y68.897 E21.00399
G1 X85.639 Y67.983 E21.03467
G1 X85.885 Y66.619 E21.08077
G1 X85.94 Y66.337 E21.09032
G1 X86.024 Y65.934 E21.10401
G1 X86.19 Y65.251 E21.12739
G1 X86.372 Y64.598 E21.14994
G1 X86.563 Y63.986 E21.17126
G1 X86.69 Y63.618 E21.18421
G1 X86.769 Y63.396 E21.19205
G1 X87.037 Y62.672 E21.21773
G1 X87.19 Y62.283 E21.23163
G1 X87.402 Y61.773 E21.25
G1 X87.606 Y61.313 E21.26673
G1 X87.942 Y60.602 E21.29289
G1 X88.384 Y59.767 E21.32431
G1 X88.986 Y58.741 E21.36388
G1 X89.07 Y58.599 E21.36937
G1 X89.335 Y58.163 E21.38634
G0 F6000 X89.677 Y58.371
G1 F1200 X90.063 Y57.782 E21.40976
G1 X90.357 Y57.366 E21.4267
G1 X90.607 Y57.028 E21.44068
G1 X90.768 Y56.819 E21.44946
G1 X91.066 Y56.451 E21.46521
G1 X91.92 Y55.443 E21.50915
G1 X92.265 Y55.055 E21.52642
G1 X92.602 Y54.696 E21.5428
G1 X93.062 Y54.236 E21.56443
G1 X93.575 Y53.755 E21.58782
G1 X94.079 Y53.313 E21.61012
G1 X95.275 Y52.331 E21.66159
G1 X95.943 Y51.827 E21.68942
G1 X96.453 Y51.474 E21.71005
G1 X96.788 Y51.251 E21.72343
G1 X96.958 Y51.143 E21.73013
G1 X97.205 Y50.992 E21.73976
G1 X97.621 Y50.744 E21.75587
G1 X97.857 Y50.608 E21.76493
G1 X98.369 Y50.321 E21.78445
G1 X98.659 Y50.164 E21.79542
G1 X99.247 Y49.859 E21.81745
G1 X99.632 Y49.669 E21.83173
G1 X99.9 Y49.544 E21.84157
G1 X100.175 Y49.421 E21.85159
G1 X100.537 Y49.265 E21.8647
G1 X101.069 Y49.053 E21.88374
G1 X101.561 Y48.873 E21.90117
G1 X101.712 Y48.819 E21.9065
G1 X102.7 Y48.475 E21.9413
G1 X103.461 Y48.243 E21.96776
G1 X104.222 Y48.043 E21.99393
G1 X104.787 Y47.912 E22.01322
G1 X105.211 Y47.826 E22.02761
G1 X105.564 Y47.761 E22.03955
G1 X106.543 Y47.598 E22.07256
G1 X107.181 Y47.512 E22.09397
G1 X107.768 Y47.452 E22.1136
G1 X108.156 Y47.42 E22.12654
G1 X108.658 Y47.388 E22.14328
G1 X109.269 Y47.367 E22.16361
G1 X110.065 Y47.364 E22.19008
G1 X110.372 Y47.368 E22.2003
G1 X111.167 Y47.389 E22.22675
G1 X111.553 Y47.406 E22.2396
G1 X111.755 Y47.419 E22.24633
G1 X112.06 Y47.443 E22.25651
G1 X112.515 Y47.486 E22.27171
G1 X113.254 Y47.584 E22.2965
G1 X114.71 Y47.83 E22.34561
G1 X115.527 Y48.002 E22.37338
G1 X116.301 Y48.199 E22.39995
G1 X116.593 Y48.278 E22.41001
G1 X116.813 Y48.341 E22.41762
G1 X117.37 Y48.518 E22.43706
G1 X118.217 Y48.814 E22.4669
G1 X118.581 Y48.949 E22.47981
G1 X119.215 Y49.198 E22.50247
G1 X119.785 Y49.442 E22.52309
G1 X120.594 Y49.818 E22.55276
G1 X121.358 Y50.213 E22.58137
G1 X122.528 Y50.882 E22.6262
G1 X123.049 Y51.201 E22.64651
