;FLAVOR:Marlin
;TIME:3966
;Filament used: 2.07909m
;Layer height: 0.2
;MINX:82.414
;MINY:43.825
;MINZ:0.2
;MAXX:136.697
;MAXY:168.572
;MAXZ:4.6
;Generated with Cura_SteamEngine 4.4.0
M140 S60
M105
M190 S60
M104 S210
M105
M109 S210
M82 ;absolute extrusion mode
M201 X500.00 Y500.00 Z100.00 E5000.00 ;Setup machine max acceleration
M203 X500.00 Y500.00 Z10.00 E50.00 ;Setup machine max feedrate
M204 P500.00 R1000.00 T500.00 ;Setup Print/Retract/Travel acceleration
M205 X8.00 Y8.00 Z0.40 E5.00 ;Setup Jerk
M220 S100 ;Reset Feedrate
M221 S100 ;Reset Flowrate

G28 ;Home

G92 E0 ;Reset Extruder
G1 Z2.0 F3000 ;Move Z Axis up
G1 X10.1 Y20 Z0.28 F5000.0 ;Move to start position
G1 X10.1 Y200.0 Z0.28 F1500.0 E15 ;Draw the first line
G1 X10.4 Y200.0 Z0.28 F5000.0 ;Move to side a little
G1 X10.4 Y20 Z0.28 F1500.0 E30 ;Draw the second line
G92 E0 ;Reset Extruder
G1 Z2.0 F3000 ;Move Z Axis up

G92 E0
G92 E0
G1 F1500 E-6.5
;LAYER_COUNT:23
;LAYER:0
M107
G0 F6000 X88.195 Y55.274 Z0.2
;TYPE:SKIRT
G1 F1500 E0
G1 F1200 X88.64 Y54.591 E0.02711
G1 X88.986 Y54.102 E0.04704
G1 X89.298 Y53.683 E0.06441
G1 X89.441 Y53.5 E0.07214
G1 X89.717 Y53.162 E0.08665
G1 X90.494 Y52.245 E0.12663
G1 X91.037 Y51.649 E0.15344
G1 X91.85 Y50.821 E0.19204
G1 X92.682 Y50.057 E0.22961
G1 X93.375 Y49.483 E0.25954
G1 X93.473 Y49.403 E0.26374
G1 X94.065 Y48.924 E0.28907
G1 X94.726 Y48.428 E0.31656
G1 X95.271 Y48.051 E0.3386
G1 X96.021 Y47.577 E0.36811
G1 X97.352 Y46.807 E0.41925
G1 X98.135 Y46.395 E0.44868
G1 X98.772 Y46.092 E0.47214
G1 X99.132 Y45.928 E0.4853
G1 X99.398 Y45.813 E0.49494
G1 X99.96 Y45.588 E0.51507
G1 X100.454 Y45.406 E0.53258
G1 X100.658 Y45.333 E0.53979
G1 X101.591 Y45.01 E0.57263
G1 X102.047 Y44.864 E0.58855
G1 X102.436 Y44.748 E0.60205
G1 X102.875 Y44.627 E0.6172
G1 X103.289 Y44.522 E0.63141
G1 X103.781 Y44.409 E0.6482
G1 X104.239 Y44.315 E0.66375
G1 X104.621 Y44.243 E0.67668
G1 X105.617 Y44.075 E0.71027
G1 X106.311 Y43.981 E0.73356
G1 X106.918 Y43.918 E0.75386
G1 X107.357 Y43.881 E0.76851
G1 X107.845 Y43.85 E0.78478
G1 X108.5 Y43.828 E0.80658
G1 X109.281 Y43.825 E0.83255
G1 X109.601 Y43.829 E0.8432
G1 X110.391 Y43.849 E0.86948
G1 X110.817 Y43.868 E0.88366
G1 X111.082 Y43.885 E0.89249
G1 X111.43 Y43.912 E0.9041
G1 X111.815 Y43.949 E0.91697
G1 X112.236 Y43.998 E0.93107
G1 X112.458 Y44.028 E0.93852
G1 X112.881 Y44.094 E0.95276
G1 X114.098 Y44.307 E0.99385
G1 X114.794 Y44.452 E1.01749
G1 X115.454 Y44.612 E1.04008
G1 X115.922 Y44.736 E1.05618
G1 X116.364 Y44.864 E1.07149
G1 X116.958 Y45.055 E1.09224
G1 X117.753 Y45.335 E1.12028
G1 X118.108 Y45.467 E1.13287
G1 X118.757 Y45.721 E1.15605
G1 X119.431 Y46.011 E1.18046
G1 X120.262 Y46.402 E1.211
G1 X121.051 Y46.813 E1.24059
G1 X122.167 Y47.453 E1.28338
G1 X122.785 Y47.835 E1.30755
G1 X123.334 Y48.2 E1.32947
G1 X123.718 Y48.467 E1.34503
G1 X124.071 Y48.724 E1.35955
G1 X124.527 Y49.075 E1.37869
G1 X125.078 Y49.522 E1.40229
G1 X125.262 Y49.674 E1.41023
G1 X125.446 Y49.83 E1.41825
G1 X125.596 Y49.96 E1.42485
G1 X126.052 Y50.361 E1.44505
G1 X126.59 Y50.867 E1.46961
G1 X127.233 Y51.514 E1.49995
G1 X127.827 Y52.161 E1.52917
G1 X128.687 Y53.177 E1.57344
G1 X129.102 Y53.698 E1.59559
G1 X129.401 Y54.098 E1.6122
G1 X129.675 Y54.481 E1.62787
G1 X129.972 Y54.916 E1.64539
G1 X130.252 Y55.348 E1.66251
G1 X130.419 Y55.619 E1.6731
G1 X130.591 Y55.909 E1.68431
G1 X131.095 Y56.786 E1.71795
G1 X131.347 Y57.25 E1.73551
G1 X131.635 Y57.812 E1.75652
G1 X131.927 Y58.427 E1.77916
G1 X132.189 Y59.027 E1.80094
G1 X132.438 Y59.648 E1.82319
G1 X132.879 Y60.853 E1.86587
G1 X133.084 Y61.47 E1.88749
G1 X133.187 Y61.813 E1.8994
G1 X133.305 Y62.237 E1.91404
G1 X133.466 Y62.863 E1.93554
G1 X133.583 Y63.364 E1.95265
G1 X133.646 Y63.667 E1.96295
G1 X133.712 Y64.012 E1.97463
G1 X133.903 Y65.105 E2.01153
G1 X134.009 Y65.871 E2.03725
G1 X134.083 Y66.589 E2.06126
G1 X134.116 Y66.981 E2.07434
G1 X134.139 Y67.324 E2.08578
G1 X134.163 Y67.895 E2.10479
G1 X134.169 Y68.296 E2.11813
G1 X134.17 Y68.476 E2.12411
G1 X134.168 Y69.803 E2.16825
G1 X134.173 Y70.115 E2.17863
G1 X134.174 Y70.255 E2.18328
G1 X134.177 Y71.145 E2.21289
G1 X134.255 Y73.667 E2.29681
G1 X134.406 Y76.199 E2.38117
G1 X134.625 Y78.7 E2.46467
G1 X134.913 Y81.171 E2.54742
G1 X135.275 Y83.666 E2.63127
G1 X135.939 Y87.346 E2.75564
G1 X136.188 Y88.579 E2.79748
G1 X136.334 Y89.506 E2.82869
G1 X136.401 Y90.445 E2.86
G1 X136.41 Y90.765 E2.87065
G1 X136.414 Y91.074 E2.88093
G1 X136.414 Y118.513 E3.79355
G1 X136.413 Y118.67 E3.79878
G1 X136.395 Y119.929 E3.84065
G1 X136.395 Y122.507 E3.9264
G1 X136.466 Y125.057 E4.01125
G1 X136.609 Y127.572 E4.09503
G1 X136.637 Y127.931 E4.10701
G1 X136.653 Y128.164 E4.11477
G1 X136.669 Y128.444 E4.1241
G1 X136.682 Y128.738 E4.13389
G1 X136.692 Y129.067 E4.14484
G1 X136.697 Y129.401 E4.15595
G1 X136.697 Y156.836 E5.06844
G1 X136.696 Y156.987 E5.07346
G1 X136.686 Y157.714 E5.09764
G1 X136.633 Y158.651 E5.12886
G1 X136.501 Y159.579 E5.16004
G1 X136.29 Y160.493 E5.19123
G1 X136.001 Y161.385 E5.22242
G1 X135.638 Y162.25 E5.25362
G1 X135.203 Y163.081 E5.28482
G1 X134.698 Y163.871 E5.316
G1 X134.128 Y164.616 E5.3472
G1 X133.497 Y165.31 E5.3784
G1 X132.808 Y165.947 E5.40961
G1 X132.068 Y166.523 E5.4408
G1 X131.282 Y167.034 E5.47198
G1 X130.455 Y167.476 E5.50317
G1 X129.593 Y167.846 E5.53437
G1 X128.703 Y168.141 E5.56555
G1 X127.791 Y168.36 E5.59675
G1 X126.864 Y168.5 E5.62793
G1 X125.996 Y168.559 E5.65687
G1 X125.676 Y168.568 E5.66752
G1 X125.367 Y168.572 E5.67779
G1 X94.404 Y168.572 E6.70763
G1 X94.262 Y168.571 E6.71235
G1 X93.564 Y168.562 E6.73557
G1 X92.628 Y168.51 E6.76675
G1 X91.699 Y168.378 E6.79796
G1 X90.785 Y168.168 E6.82915
G1 X89.892 Y167.881 E6.86035
G1 X89.027 Y167.518 E6.89155
G1 X88.196 Y167.084 E6.92273
G1 X87.405 Y166.58 E6.95392
G1 X86.66 Y166.01 E6.98512
G1 X85.966 Y165.379 E7.01632
G1 X85.329 Y164.692 E7.04748
G1 X84.752 Y163.952 E7.07869
G1 X84.24 Y163.166 E7.10989
G1 X83.797 Y162.339 E7.14109
G1 X83.426 Y161.478 E7.17228
G1 X83.13 Y160.588 E7.20347
G1 X82.911 Y159.676 E7.23467
G1 X82.77 Y158.749 E7.26585
G1 X82.71 Y157.86 E7.29549
G1 X82.701 Y157.527 E7.30657
G1 X82.697 Y157.23 E7.31645
G1 X82.697 Y129.798 E8.22884
G1 X82.698 Y129.64 E8.2341
G1 X82.716 Y128.386 E8.27581
G1 X82.716 Y125.809 E8.36152
G1 X82.645 Y123.259 E8.44637
G1 X82.503 Y120.751 E8.52992
G1 X82.474 Y120.387 E8.54206
G1 X82.459 Y120.166 E8.54943
G1 X82.442 Y119.875 E8.55912
G1 X82.427 Y119.543 E8.57018
G1 X82.418 Y119.224 E8.58079
G1 X82.414 Y118.914 E8.5911
G1 X82.414 Y91.451 E9.50453
G1 X82.415 Y91.293 E9.50978
G1 X82.425 Y90.596 E9.53297
G1 X82.479 Y89.66 E9.56415
G1 X82.607 Y88.759 E9.59442
G1 X82.726 Y88.116 E9.61617
G1 X83.164 Y85.554 E9.70262
G1 X83.519 Y83.059 E9.78644
G1 X83.804 Y80.555 E9.87026
G1 X84.019 Y78.013 E9.95511
G1 X84.159 Y75.554 E10.03703
G1 X84.231 Y72.996 E10.12214
G1 X84.231 Y70.43 E10.20748
G1 X84.22 Y69.135 E10.25056
G1 X84.221 Y68.926 E10.25751
G1 X84.233 Y67.79 E10.29529
G1 X84.277 Y66.91 E10.3246
G1 X84.342 Y66.195 E10.34848
G1 X84.459 Y65.308 E10.37824
G1 X84.663 Y64.134 E10.41787
G1 X84.725 Y63.808 E10.42891
G1 X84.865 Y63.125 E10.4521
G1 X85.048 Y62.371 E10.4779
G1 X85.215 Y61.774 E10.49852
G1 X85.409 Y61.152 E10.52019
G1 X85.611 Y60.566 E10.54081
G1 X85.728 Y60.242 E10.55226
G1 X86.074 Y59.332 E10.58464
G1 X86.416 Y58.529 E10.61367
G1 X86.781 Y57.759 E10.64202
G1 X87.21 Y56.945 E10.67262
G1 X87.748 Y56.019 E10.70824
G1 X87.834 Y55.874 E10.71385
G1 X88.195 Y55.274 E10.73714
G0 F6000 X88.537 Y55.48
G1 F1200 X88.967 Y54.822 E10.76328
G1 X89.313 Y54.333 E10.7832
G1 X89.614 Y53.929 E10.79996
G1 X89.757 Y53.746 E10.80768
G1 X90.022 Y53.42 E10.82166
G1 X90.799 Y52.503 E10.86163
G1 X91.322 Y51.929 E10.88746
G1 X92.135 Y51.101 E10.92606
G1 X92.937 Y50.365 E10.96226
G1 X93.63 Y49.791 E10.99219
G1 X93.725 Y49.714 E10.99626
G1 X94.317 Y49.235 E11.02159
G1 X94.954 Y48.757 E11.04807
G1 X95.499 Y48.38 E11.07012
G1 X96.221 Y47.923 E11.09854
G1 X97.552 Y47.153 E11.14968
G1 X98.307 Y46.756 E11.17805
G1 X98.944 Y46.453 E11.20151
G1 X99.291 Y46.295 E11.21419
G1 X99.557 Y46.18 E11.22383
G1 X100.099 Y45.964 E11.24324
G1 X100.593 Y45.782 E11.26075
G1 X100.789 Y45.711 E11.26768
G1 X101.722 Y45.388 E11.30052
G1 X102.161 Y45.247 E11.31586
G1 X102.55 Y45.131 E11.32936
G1 X102.973 Y45.014 E11.34395
G1 X103.387 Y44.909 E11.35816
G1 X103.862 Y44.8 E11.37437
G1 X104.32 Y44.706 E11.38992
G1 X104.688 Y44.638 E11.40237
G1 X105.684 Y44.47 E11.43596
G1 X106.353 Y44.379 E11.45842
G1 X106.96 Y44.316 E11.47872
G1 X107.382 Y44.28 E11.4928
G1 X107.87 Y44.249 E11.50907
G1 X108.501 Y44.228 E11.53006
G1 X109.282 Y44.225 E11.55604
G1 X109.591 Y44.228 E11.56632
G1 X110.381 Y44.248 E11.5926
G1 X110.792 Y44.267 E11.60629
G1 X111.057 Y44.284 E11.61512
G1 X111.392 Y44.311 E11.6263
G1 X111.777 Y44.348 E11.63916
G1 X112.183 Y44.394 E11.65275
G1 X112.405 Y44.424 E11.6602
G1 X112.812 Y44.488 E11.67391
G1 X114.029 Y44.701 E11.715
G1 X114.699 Y44.84 E11.73776
G1 X115.359 Y45 E11.76034
G1 X115.811 Y45.12 E11.7759
G1 X116.253 Y45.248 E11.7912
G1 X116.825 Y45.432 E11.81119
G1 X117.62 Y45.712 E11.83922
G1 X117.962 Y45.839 E11.85136
G1 X118.611 Y46.093 E11.87454
G1 X119.261 Y46.373 E11.89808
G1 X120.092 Y46.764 E11.92862
G1 X120.852 Y47.16 E11.95713
G1 X121.968 Y47.8 E11.99991
G1 X122.564 Y48.168 E12.02321
G1 X123.113 Y48.533 E12.04514
G1 X123.483 Y48.791 E12.06014
G1 X123.836 Y49.048 E12.07466
G1 X124.275 Y49.385 E12.09307
G1 X124.826 Y49.832 E12.11667
G1 X125.003 Y49.979 E12.12432
G1 X125.187 Y50.135 E12.13235
G1 X125.332 Y50.26 E12.13871
G1 X125.788 Y50.661 E12.15891
G1 X126.307 Y51.149 E12.1826
G1 X126.95 Y51.796 E12.21294
G1 X127.522 Y52.42 E12.2411
G1 X128.382 Y53.436 E12.28537
G1 X128.781 Y53.938 E12.3067
G1 X129.08 Y54.338 E12.32331
G1 X129.344 Y54.707 E12.3384
G1 X129.641 Y55.142 E12.35592
G1 X129.911 Y55.558 E12.37241
G1 X130.078 Y55.829 E12.383
G1 X130.244 Y56.108 E12.3938
G1 X130.748 Y56.985 E12.42744
G1 X130.991 Y57.433 E12.44439
G1 X131.279 Y57.995 E12.4654
G1 X131.56 Y58.587 E12.48719
G1 X131.822 Y59.187 E12.50897
G1 X132.062 Y59.786 E12.53043
G1 X132.503 Y60.991 E12.57311
G1 X132.701 Y61.585 E12.59393
G1 X132.804 Y61.928 E12.60585
G1 X132.918 Y62.337 E12.61997
G1 X133.079 Y62.963 E12.64147
G1 X133.191 Y63.445 E12.65792
G1 X133.254 Y63.748 E12.66822
G1 X133.318 Y64.081 E12.6795
G1 X133.509 Y65.174 E12.7164
G1 X133.611 Y65.912 E12.74118
G1 X133.685 Y66.63 E12.76519
G1 X133.717 Y67.008 E12.7778
G1 X133.74 Y67.351 E12.78924
G1 X133.763 Y67.901 E12.80755
G1 X133.769 Y68.302 E12.82089
G1 X133.77 Y68.476 E12.82667
G1 X133.768 Y69.809 E12.87101
G1 X133.773 Y70.121 E12.88139
G1 X133.774 Y70.256 E12.88588
G1 X133.777 Y71.159 E12.91591
G1 X133.856 Y73.702 E13.00053
G1 X134.004 Y76.189 E13.0834
G1 X134.228 Y78.744 E13.1687
G1 X134.518 Y81.238 E13.25221
G1 X134.877 Y83.71 E13.33529
G1 X135.553 Y87.456 E13.4619
G1 X135.796 Y88.659 E13.50272
G1 X135.938 Y89.568 E13.53332
G1 X136.001 Y90.456 E13.56293
G1 X136.01 Y90.776 E13.57358
G1 X136.014 Y91.074 E13.58349
G1 X136.014 Y118.513 E14.49611
G1 X136.013 Y118.665 E14.50117
G1 X135.995 Y119.924 E14.54305
G1 X135.995 Y122.518 E14.62933
G1 X136.066 Y125.055 E14.71374
G1 X136.212 Y127.626 E14.79939
G1 X136.238 Y127.962 E14.8106
G1 X136.254 Y128.187 E14.8181
G1 X136.27 Y128.467 E14.82743
G1 X136.282 Y128.75 E14.83685
G1 X136.292 Y129.079 E14.8478
G1 X136.297 Y129.401 E14.85851
G1 X136.297 Y156.836 E15.771
G1 X136.296 Y156.982 E15.77586
G1 X136.286 Y157.709 E15.80004
G1 X136.233 Y158.628 E15.83065
G1 X136.101 Y159.539 E15.86127
G1 X135.89 Y160.435 E15.89189
G1 X135.603 Y161.31 E15.92252
G1 X135.24 Y162.156 E15.95313
G1 X134.806 Y162.968 E15.98376
G1 X134.302 Y163.739 E16.01439
G1 X133.734 Y164.463 E16.045
G1 X133.105 Y165.135 E16.07561
G1 X132.42 Y165.75 E16.10623
G1 X131.684 Y166.303 E16.13685
G1 X130.903 Y166.791 E16.16748
G1 X130.083 Y167.209 E16.19809
G1 X129.229 Y167.554 E16.22873
G1 X128.349 Y167.823 E16.25933
G1 X127.448 Y168.016 E16.28998
G1 X126.535 Y168.129 E16.32058
G1 X125.985 Y168.159 E16.3389
G1 X125.665 Y168.168 E16.34955
G1 X125.367 Y168.172 E16.35946
G1 X94.404 Y168.172 E17.38929
G1 X94.267 Y168.171 E17.39385
G1 X93.569 Y168.162 E17.41707
G1 X92.65 Y168.11 E17.44768
G1 X91.739 Y167.979 E17.47829
G1 X90.843 Y167.769 E17.5089
G1 X89.968 Y167.482 E17.53953
G1 X89.121 Y167.12 E17.57017
G1 X88.309 Y166.686 E17.60079
G1 X87.538 Y166.184 E17.63139
G1 X86.813 Y165.616 E17.66202
G1 X86.14 Y164.987 E17.69266
G1 X85.525 Y164.303 E17.72326
G1 X84.971 Y163.568 E17.75387
G1 X84.483 Y162.787 E17.7845
G1 X84.064 Y161.967 E17.81513
G1 X83.718 Y161.114 E17.84574
G1 X83.448 Y160.234 E17.87636
G1 X83.255 Y159.333 E17.90701
G1 X83.141 Y158.42 E17.93761
G1 X83.11 Y157.849 E17.95663
G1 X83.101 Y157.516 E17.96771
G1 X83.097 Y157.23 E17.97722
G1 X83.097 Y129.798 E18.88961
G1 X83.098 Y129.646 E18.89467
G1 X83.116 Y128.392 E18.93638
G1 X83.116 Y125.798 E19.02266
G1 X83.045 Y123.261 E19.10707
G1 X82.9 Y120.697 E19.19249
G1 X82.873 Y120.356 E19.20386
G1 X82.858 Y120.142 E19.211
G1 X82.841 Y119.851 E19.22069
G1 X82.827 Y119.532 E19.23131
G1 X82.818 Y119.213 E19.24193
G1 X82.814 Y118.914 E19.25187
G1 X82.814 Y91.451 E20.1653
G1 X82.815 Y91.299 E20.17035
G1 X82.825 Y90.602 E20.19354
G1 X82.878 Y89.683 E20.22415
G1 X83 Y88.831 E20.25278
G1 X83.121 Y88.177 E20.2749
G1 X83.561 Y85.606 E20.36166
G1 X83.919 Y83.089 E20.44622
G1 X84.202 Y80.597 E20.52963
G1 X84.416 Y78.071 E20.61395
G1 X84.559 Y75.552 E20.69787
G1 X84.631 Y73.007 E20.78255
G1 X84.631 Y70.427 E20.86836
G1 X84.62 Y69.132 E20.91143
G1 X84.621 Y68.93 E20.91815
G1 X84.633 Y67.794 E20.95594
G1 X84.676 Y66.946 E20.98418
G1 X84.741 Y66.231 E21.00806
G1 X84.853 Y65.376 E21.03674
G1 X85.057 Y64.202 E21.07637
G1 X85.117 Y63.888 E21.087
G1 X85.257 Y63.205 E21.11019
G1 X85.433 Y62.478 E21.13507
G1 X85.6 Y61.881 E21.15569
G1 X85.787 Y61.283 E21.17653
G1 X85.989 Y60.697 E21.19714
G1 X86.102 Y60.384 E21.20821
G1 X86.448 Y59.474 E21.24059
G1 X86.778 Y58.701 E21.26855
G1 X87.143 Y57.931 E21.29689
G1 X87.556 Y57.146 E21.32639
G1 X88.094 Y56.22 E21.36201
G1 X88.176 Y56.08 E21.36741
G1 X88.537 Y55.48 E21.3907
G0 F6000 X88.88 Y55.686
G1 F1200 X89.294 Y55.053 E21.41585
G1 X89.64 Y54.564 E21.43578
G1 X89.929 Y54.176 E21.45187
G1 X90.072 Y53.993 E21.45959
G1 X90.327 Y53.679 E21.47305
G1 X91.104 Y52.762 E21.51302
G1 X91.608 Y52.21 E21.53788
G1 X92.421 Y51.382 E21.57648
G1 X93.193 Y50.673 E21.61134
G1 X93.886 Y50.099 E21.64127
G1 X93.976 Y50.025 E21.64515
G1 X94.568 Y49.546 E21.67047
G1 X95.181 Y49.086 E21.69596
G1 X95.726 Y48.709 E21.71801
G1 X96.421 Y48.269 E21.74536
G1 X97.752 Y47.499 E21.79651
G1 X98.479 Y47.117 E21.82382
G1 X99.116 Y46.814 E21.84728
G1 X99.449 Y46.663 E21.85944
G1 X99.715 Y46.548 E21.86908
G1 X100.237 Y46.339 E21.88779
G1 X100.731 Y46.157 E21.9053
G1 X100.92 Y46.089 E21.91198
G1 X101.853 Y45.766 E21.94481
G1 X102.275 Y45.63 E21.95956
G1 X102.664 Y45.514 E21.97306
G1 X103.071 Y45.402 E21.9871
G1 X103.485 Y45.297 E22.00131
G1 X103.942 Y45.192 E22.0169
G1 X104.4 Y45.098 E22.03245
G1 X104.754 Y45.032 E22.04443
G1 X105.75 Y44.864 E22.07803
G1 X106.394 Y44.776 E22.09965
G1 X107.001 Y44.713 E22.11994
G1 X107.407 Y44.68 E22.13349
G1 X107.895 Y44.649 E22.14975
G1 X108.503 Y44.628 E22.16999
G1 X109.284 Y44.625 E22.19597
G1 X109.581 Y44.628 E22.20584
G1 X110.371 Y44.648 E22.23213
G1 X110.766 Y44.666 E22.24528
G1 X111.031 Y44.683 E22.25411
G1 X111.354 Y44.709 E22.26489
G1 X111.739 Y44.746 E22.27775
G1 X112.129 Y44.791 E22.29081
G1 X112.351 Y44.821 E22.29826
G1 X112.743 Y44.882 E22.31146
G1 X113.96 Y45.095 E22.35255
G1 X114.605 Y45.229 E22.37446
G1 X115.265 Y45.389 E22.39705
G1 X115.699 Y45.505 E22.41199
G1 X116.141 Y45.633 E22.42729
G1 X116.692 Y45.809 E22.44653
G1 X117.487 Y46.089 E22.47457
G1 X117.816 Y46.212 E22.48625
G1 X118.465 Y46.466 E22.50943
G1 X119.091 Y46.735 E22.53209
G1 X119.922 Y47.126 E22.56264
G1 X120.653 Y47.507 E22.59005
G1 X121.769 Y48.147 E22.63284
G1 X122.342 Y48.501 E22.65524
G1 X122.891 Y48.866 E22.67717
G1 X123.248 Y49.114 E22.69163
G1 X123.601 Y49.371 E22.70615
G1 X124.023 Y49.696 E22.72387
G1 X124.574 Y50.143 E22.74747
G1 X124.744 Y50.284 E22.75481
G1 X124.928 Y50.44 E22.76284
