;FLAVOR:Marlin
;TIME:7794
;Filament used: 4.08391m
;Layer height: 0.2
;MINX:67
;MINY:47.954
;MINZ:0.2
;MAXX:153
;MAXY:171.25
;MAXZ:4.6
;Generated with Cura_SteamEngine 4.4.0
M140 S60
M105
M190 S60
M104 S210
M105
M109 S210
M82 ;absolute extrusion mode
M201 X500.00 Y500.00 Z100.00 E5000.00 ;Setup machine max acceleration
M203 X500.00 Y500.00 Z10.00 E50.00 ;Setup machine max feedrate
M204 P500.00 R1000.00 T500.00 ;Setup Print/Retract/Travel acceleration
M205 X8.00 Y8.00 Z0.40 E5.00 ;Setup Jerk
M220 S100 ;Reset Feedrate
M221 S100 ;Reset Flowrate

G28 ;Home

G92 E0 ;Reset Extruder
G1 Z2.0 F3000 ;Move Z Axis up
G1 X10.1 Y20 Z0.28 F5000.0 ;Move to start position
G1 X10.1 Y200.0 Z0.28 F1500.0 E15 ;Draw the first line
G1 X10.4 Y200.0 Z0.28 F5000.0 ;Move to side a little
G1 X10.4 Y20 Z0.28 F1500.0 E30 ;Draw the second line
G92 E0 ;Reset Extruder
G1 Z2.0 F3000 ;Move Z Axis up

G92 E0
G92 E0
G1 F1500 E-6.5
;LAYER_COUNT:23
;LAYER:0
M107
G0 F6000 X74.246 Y58.698 Z0.2
;TYPE:SKIRT
G1 F1500 E0
G1 F1200 X74.553 Y58.321 E0.01617
G1 X75.291 Y57.452 E0.05409
G1 X75.485 Y57.228 E0.06395
G1 X75.702 Y56.986 E0.07476
G1 X76.136 Y56.529 E0.09572
G1 X76.657 Y56.011 E0.12015
G1 X77.298 Y55.423 E0.14909
G1 X77.943 Y54.876 E0.17721
G1 X78.128 Y54.722 E0.18522
G1 X78.827 Y54.155 E0.21516
G1 X79.503 Y53.649 E0.24324
G1 X80.089 Y53.244 E0.26693
G1 X80.529 Y52.955 E0.28444
G1 X80.733 Y52.828 E0.29243
G1 X81.076 Y52.623 E0.30573
G1 X82.168 Y51.997 E0.34759
G1 X82.902 Y51.612 E0.37516
G1 X83.516 Y51.319 E0.39779
G1 X83.876 Y51.155 E0.41094
G1 X84.238 Y50.998 E0.42407
G1 X84.846 Y50.756 E0.44583
G1 X85.452 Y50.535 E0.46729
G1 X85.637 Y50.469 E0.47382
G1 X86.432 Y50.195 E0.50179
G1 X86.918 Y50.04 E0.51875
G1 X87.286 Y49.932 E0.53151
G1 X87.68 Y49.825 E0.54509
G1 X88.094 Y49.72 E0.55929
G1 X88.484 Y49.628 E0.57262
G1 X88.735 Y49.574 E0.58116
G1 X89.155 Y49.492 E0.59539
G1 X90.305 Y49.291 E0.63422
G1 X90.816 Y49.214 E0.65141
G1 X91.029 Y49.187 E0.65855
G1 X91.389 Y49.148 E0.6706
G1 X91.903 Y49.1 E0.68777
G1 X92.245 Y49.073 E0.69918
G1 X92.632 Y49.049 E0.71207
G1 X93.249 Y49.028 E0.73261
G1 X94.108 Y49.023 E0.76118
G1 X94.481 Y49.027 E0.77358
G1 X95.263 Y49.049 E0.7996
G1 X95.962 Y49.091 E0.82289
G1 X98.718 Y49.345 E0.91495
G1 X101.236 Y49.524 E0.99891
G1 X103.769 Y49.633 E1.08323
G1 X106.292 Y49.671 E1.16716
G1 X108.815 Y49.637 E1.25108
G1 X111.301 Y49.533 E1.33384
G1 X113.816 Y49.357 E1.41769
G1 X116.341 Y49.107 E1.50209
G1 X118.819 Y48.792 E1.58517
G1 X121.339 Y48.398 E1.67
G1 X121.891 Y48.298 E1.68866
G1 X122.104 Y48.262 E1.69584
G1 X122.397 Y48.215 E1.70571
G1 X122.718 Y48.168 E1.7165
G1 X123.094 Y48.119 E1.72912
G1 X123.46 Y48.078 E1.74137
G1 X123.979 Y48.028 E1.75871
G1 X124.38 Y47.996 E1.77209
G1 X124.682 Y47.978 E1.78215
G1 X125.272 Y47.959 E1.80178
G1 X126.136 Y47.954 E1.83052
G1 X126.483 Y47.958 E1.84206
G1 X127.299 Y47.979 E1.86921
G1 X128.042 Y48.023 E1.89397
G1 X128.736 Y48.088 E1.91715
G1 X129.584 Y48.201 E1.9456
G1 X130.891 Y48.427 E1.98972
G1 X131.567 Y48.566 E2.01267
G1 X132.297 Y48.74 E2.03763
G1 X132.798 Y48.871 E2.05486
G1 X133.186 Y48.983 E2.06829
G1 X133.792 Y49.178 E2.08946
G1 X134.592 Y49.46 E2.11768
G1 X134.94 Y49.589 E2.13002
G1 X135.536 Y49.822 E2.1513
G1 X135.905 Y49.974 E2.16458
G1 X136.145 Y50.078 E2.17328
G1 X136.476 Y50.228 E2.18536
G1 X137.072 Y50.51 E2.20729
G1 X137.813 Y50.896 E2.23508
G1 X138.966 Y51.553 E2.27922
G1 X139.618 Y51.955 E2.3047
G1 X140.241 Y52.37 E2.3296
G1 X140.617 Y52.632 E2.34484
G1 X140.889 Y52.83 E2.35603
G1 X141.321 Y53.161 E2.37413
G1 X141.802 Y53.549 E2.39468
G1 X141.998 Y53.711 E2.40314
G1 X142.302 Y53.968 E2.41638
G1 X142.458 Y54.103 E2.42324
G1 X142.893 Y54.485 E2.4425
G1 X143.443 Y55.002 E2.4676
G1 X144.085 Y55.649 E2.49792
G1 X144.677 Y56.294 E2.52704
G1 X145.504 Y57.272 E2.56964
G1 X145.917 Y57.792 E2.59172
G1 X146.283 Y58.282 E2.61207
G1 X146.563 Y58.676 E2.62814
G1 X146.855 Y59.105 E2.6454
G1 X147.171 Y59.596 E2.66482
G1 X147.412 Y59.994 E2.6803
G1 X147.552 Y60.231 E2.68945
G1 X147.946 Y60.92 E2.71585
G1 X148.191 Y61.374 E2.73301
G1 X148.486 Y61.951 E2.75456
G1 X148.785 Y62.584 E2.77785
G1 X149.058 Y63.214 E2.80069
G1 X149.298 Y63.815 E2.82221
G1 X149.722 Y64.976 E2.86332
G1 X149.936 Y65.626 E2.88608
G1 X150.071 Y66.082 E2.9019
G1 X150.179 Y66.473 E2.91539
G1 X150.309 Y66.98 E2.9328
G1 X150.4 Y67.362 E2.94586
G1 X150.461 Y67.641 E2.95536
G1 X150.551 Y68.097 E2.97082
G1 X150.74 Y69.178 E3.00732
G1 X150.817 Y69.694 E3.02467
G1 X150.866 Y70.082 E3.03768
G1 X150.902 Y70.406 E3.04852
G1 X150.925 Y70.645 E3.0565
G1 X150.952 Y70.971 E3.06738
G1 X150.989 Y71.529 E3.08598
G1 X151.013 Y72.202 E3.10838
G1 X151.015 Y72.604 E3.12175
G1 X151.014 Y72.771 E3.12731
G1 X150.993 Y74.811 E3.19516
G1 X151.003 Y77.456 E3.28313
G1 X151.083 Y79.943 E3.3659
G1 X151.237 Y82.475 E3.45027
G1 X151.459 Y84.978 E3.53384
G1 X151.752 Y87.472 E3.61736
G1 X152.115 Y89.949 E3.70063
G1 X152.786 Y93.656 E3.82593
G1 X152.925 Y94.719 E3.86158
G1 X152.963 Y95.184 E3.8771
G1 X153 Y96.08 E3.90693
G1 X153 Y123.524 E4.81972
G1 X152.999 Y123.681 E4.82494
G1 X152.981 Y124.944 E4.86695
G1 X152.978 Y125.099 E4.87211
G1 X152.933 Y126.687 E4.92495
G1 X152.931 Y129.235 E5.0097
G1 X152.961 Y130.59 E5.05477
G1 X152.995 Y131.742 E5.09311
G1 X153 Y132.067 E5.10392
G1 X153 Y159.514 E6.01681
G1 X152.999 Y159.665 E6.02183
G1 X152.989 Y160.392 E6.04601
G1 X152.936 Y161.329 E6.07723
G1 X152.804 Y162.257 E6.1084
G1 X152.593 Y163.171 E6.1396
G1 X152.304 Y164.063 E6.17079
G1 X151.941 Y164.928 E6.20199
G1 X151.506 Y165.759 E6.23319
G1 X151.001 Y166.549 E6.26437
G1 X150.431 Y167.294 E6.29557
G1 X149.8 Y167.988 E6.32677
G1 X149.111 Y168.625 E6.35798
G1 X148.371 Y169.201 E6.38917
G1 X147.585 Y169.712 E6.42035
G1 X146.758 Y170.154 E6.45154
G1 X145.896 Y170.524 E6.48274
G1 X145.006 Y170.819 E6.51392
G1 X144.094 Y171.038 E6.54512
G1 X143.167 Y171.178 E6.5763
G1 X142.299 Y171.237 E6.60524
G1 X141.979 Y171.246 E6.61588
G1 X141.67 Y171.25 E6.62616
G1 X78.707 Y171.25 E8.72032
G1 X78.565 Y171.249 E8.72504
G1 X77.867 Y171.24 E8.74826
G1 X76.931 Y171.188 E8.77944
G1 X76.002 Y171.056 E8.81065
G1 X75.088 Y170.846 E8.84184
G1 X74.195 Y170.559 E8.87304
G1 X73.33 Y170.196 E8.90424
G1 X72.499 Y169.762 E8.93542
G1 X71.708 Y169.258 E8.96662
G1 X70.963 Y168.688 E8.99782
G1 X70.269 Y168.057 E9.02901
G1 X69.632 Y167.37 E9.06017
G1 X69.055 Y166.63 E9.09138
G1 X68.543 Y165.844 E9.12258
G1 X68.1 Y165.017 E9.15379
G1 X67.729 Y164.156 E9.18497
G1 X67.433 Y163.266 E9.21616
G1 X67.214 Y162.354 E9.24736
G1 X67.073 Y161.427 E9.27855
G1 X67.013 Y160.538 E9.30818
G1 X67.004 Y160.205 E9.31926
G1 X67 Y159.908 E9.32914
G1 X67 Y132.457 E10.24217
G1 X67.001 Y132.298 E10.24745
G1 X67.019 Y131.054 E10.28883
G1 X67.022 Y130.901 E10.29392
G1 X67.067 Y129.313 E10.34676
G1 X67.069 Y126.765 E10.43151
G1 X67.037 Y125.33 E10.47925
G1 X67.005 Y124.258 E10.51492
G1 X67 Y123.933 E10.52573
G1 X67 Y96.457 E11.43959
G1 X67.001 Y96.299 E11.44484
G1 X67.011 Y95.602 E11.46803
G1 X67.065 Y94.666 E11.49921
G1 X67.194 Y93.754 E11.52984
G1 X67.388 Y92.708 E11.56523
G1 X67.418 Y92.557 E11.57035
G1 X67.534 Y91.977 E11.59002
G1 X67.954 Y89.522 E11.67286
G1 X68.313 Y86.997 E11.75769
G1 X68.599 Y84.477 E11.84204
G1 X68.808 Y82.016 E11.92419
G1 X68.951 Y79.479 E12.0087
G1 X69.023 Y76.929 E12.09355
G1 X69.03 Y75.059 E12.15575
G1 X69.025 Y74.404 E12.17753
G1 X69.026 Y74.209 E12.18402
G1 X69.038 Y73.016 E12.2237
G1 X69.084 Y72.108 E12.25394
G1 X69.163 Y71.259 E12.2823
G1 X69.294 Y70.306 E12.31429
G1 X69.514 Y69.099 E12.3551
G1 X69.558 Y68.873 E12.36276
G1 X69.671 Y68.319 E12.38156
G1 X69.861 Y67.536 E12.40836
G1 X70.024 Y66.957 E12.42837
G1 X70.211 Y66.357 E12.44927
G1 X70.389 Y65.84 E12.46746
G1 X70.501 Y65.531 E12.47839
G1 X70.876 Y64.539 E12.51366
G1 X71.229 Y63.709 E12.54366
G1 X71.59 Y62.949 E12.57165
G1 X72.008 Y62.155 E12.60149
G1 X72.512 Y61.285 E12.63493
G1 X72.598 Y61.14 E12.64054
G1 X72.988 Y60.49 E12.66575
G1 X73.469 Y59.755 E12.69497
G1 X73.844 Y59.23 E12.71643
G1 X74.104 Y58.881 E12.7309
G1 X74.246 Y58.698 E12.7386
G0 F6000 X74.562 Y58.943
G1 F1200 X74.857 Y58.579 E12.75419
G1 X75.595 Y57.71 E12.79211
G1 X75.783 Y57.495 E12.80161
G1 X76 Y57.253 E12.81242
G1 X76.418 Y56.813 E12.8326
G1 X76.939 Y56.295 E12.85704
G1 X77.557 Y55.728 E12.88493
G1 X78.202 Y55.181 E12.91306
G1 X78.38 Y55.033 E12.92076
G1 X79.079 Y54.466 E12.9507
G1 X79.73 Y53.978 E12.97776
G1 X80.316 Y53.573 E13.00145
G1 X80.741 Y53.294 E13.01836
G1 X80.945 Y53.167 E13.02635
G1 X81.275 Y52.97 E13.03914
G1 X82.367 Y52.344 E13.081
G1 X83.074 Y51.973 E13.10756
G1 X83.688 Y51.68 E13.13018
G1 X84.035 Y51.522 E13.14286
G1 X84.397 Y51.365 E13.15599
G1 X84.983 Y51.132 E13.17696
G1 X85.589 Y50.911 E13.19842
G1 X85.767 Y50.848 E13.2047
G1 X86.562 Y50.574 E13.23267
G1 X87.031 Y50.424 E13.24904
G1 X87.399 Y50.316 E13.2618
G1 X87.778 Y50.212 E13.27487
G1 X88.192 Y50.107 E13.28908
G1 X88.569 Y50.019 E13.30195
G1 X88.82 Y49.965 E13.31049
G1 X89.224 Y49.886 E13.32418
G1 X90.374 Y49.685 E13.36301
G1 X90.866 Y49.611 E13.37956
G1 X91.079 Y49.584 E13.3867
G1 X91.426 Y49.546 E13.39831
G1 X91.94 Y49.498 E13.41548
G1 X92.27 Y49.472 E13.42649
G1 X92.657 Y49.448 E13.43939
G1 X93.251 Y49.428 E13.45916
G1 X94.11 Y49.423 E13.48773
G1 X94.47 Y49.427 E13.4997
G1 X95.252 Y49.449 E13.52572
G1 X95.925 Y49.49 E13.54815
G1 X98.653 Y49.741 E13.63926
G1 X101.226 Y49.924 E13.72506
G1 X103.745 Y50.033 E13.80892
G1 X106.292 Y50.071 E13.89364
G1 X108.802 Y50.037 E13.97713
G1 X111.345 Y49.931 E14.06179
G1 X113.847 Y49.755 E14.14521
G1 X116.394 Y49.504 E14.23033
G1 X118.864 Y49.189 E14.31315
G1 X121.427 Y48.789 E14.39943
G1 X121.962 Y48.692 E14.41751
G1 X122.167 Y48.657 E14.42443
G1 X122.46 Y48.61 E14.4343
G1 X122.769 Y48.565 E14.44468
G1 X123.145 Y48.516 E14.4573
G1 X123.499 Y48.476 E14.46915
G1 X124.018 Y48.426 E14.48649
G1 X124.403 Y48.396 E14.49933
G1 X124.705 Y48.378 E14.50939
G1 X125.275 Y48.359 E14.52836
G1 X126.139 Y48.354 E14.5571
G1 X126.473 Y48.358 E14.56821
G1 X127.289 Y48.379 E14.59536
G1 X128.004 Y48.421 E14.61918
G1 X128.698 Y48.486 E14.64236
G1 X129.516 Y48.595 E14.66981
G1 X130.823 Y48.821 E14.71393
G1 X131.475 Y48.955 E14.73607
G1 X132.205 Y49.129 E14.76103
G1 X132.687 Y49.256 E14.77761
G1 X133.075 Y49.368 E14.79104
G1 X133.659 Y49.555 E14.81143
G1 X134.459 Y49.837 E14.83965
G1 X134.795 Y49.962 E14.85157
G1 X135.391 Y50.195 E14.87285
G1 X135.746 Y50.341 E14.88562
G1 X135.986 Y50.445 E14.89432
G1 X136.305 Y50.589 E14.90596
G1 X136.901 Y50.871 E14.92789
G1 X137.615 Y51.243 E14.95467
G1 X138.768 Y51.9 E14.99881
G1 X139.397 Y52.288 E15.02339
G1 X140.02 Y52.703 E15.04828
G1 X140.381 Y52.955 E15.06293
G1 X140.653 Y53.153 E15.07412
G1 X141.07 Y53.473 E15.0916
G1 X141.551 Y53.861 E15.11215
G1 X141.739 Y54.016 E15.12026
G1 X142.043 Y54.273 E15.1335
G1 X142.194 Y54.403 E15.14012
G1 X142.629 Y54.785 E15.15938
G1 X143.159 Y55.284 E15.18359
G1 X143.801 Y55.931 E15.21391
G1 X144.371 Y56.553 E15.24197
G1 X145.198 Y57.531 E15.28457
G1 X145.596 Y58.032 E15.30585
G1 X145.962 Y58.522 E15.32619
G1 X146.233 Y58.901 E15.34169
G1 X146.525 Y59.33 E15.35895
G1 X146.829 Y59.804 E15.37768
G1 X147.07 Y60.202 E15.39315
G1 X147.205 Y60.43 E15.40196
G1 X147.599 Y61.119 E15.42836
G1 X147.835 Y61.556 E15.44488
G1 X148.13 Y62.133 E15.46644
G1 X148.418 Y62.743 E15.48887
G1 X148.691 Y63.373 E15.51171
G1 X148.922 Y63.952 E15.53244
G1 X149.346 Y65.113 E15.57355
G1 X149.553 Y65.74 E15.59551
G1 X149.688 Y66.196 E15.61133
G1 X149.792 Y66.572 E15.62431
G1 X149.922 Y67.079 E15.64171
G1 X150.009 Y67.448 E15.65432
G1 X150.07 Y67.727 E15.66382
G1 X150.157 Y68.165 E15.67867
G1 X150.346 Y69.246 E15.71517
G1 X150.42 Y69.744 E15.73192
G1 X150.469 Y70.132 E15.74493
G1 X150.504 Y70.445 E15.7554
G1 X150.527 Y70.684 E15.76339
G1 X150.553 Y70.998 E15.77387
G1 X150.59 Y71.556 E15.79247
G1 X150.613 Y72.204 E15.81403
G1 X150.615 Y72.606 E15.8274
G1 X150.614 Y72.767 E15.83276
G1 X150.593 Y74.809 E15.90068
G1 X150.603 Y77.436 E15.98806
G1 X150.685 Y79.981 E16.07275
G1 X150.838 Y82.498 E16.15662
G1 X151.062 Y85.023 E16.24093
G1 X151.358 Y87.544 E16.32535
G1 X151.72 Y90.017 E16.40848
G1 X152.392 Y93.727 E16.53388
G1 X152.527 Y94.752 E16.56827
G1 X152.565 Y95.217 E16.58379
G1 X152.6 Y96.08 E16.61252
G1 X152.6 Y123.524 E17.52531
G1 X152.599 Y123.675 E17.53033
G1 X152.581 Y124.938 E17.57234
G1 X152.578 Y125.088 E17.57733
G1 X152.533 Y126.659 E17.6296
G1 X152.531 Y129.243 E17.71555
G1 X152.561 Y130.602 E17.76076
G1 X152.595 Y131.754 E17.79909
G1 X152.6 Y132.067 E17.8095
G1 X152.6 Y159.514 E18.72239
G1 X152.599 Y159.66 E18.72725
G1 X152.589 Y160.387 E18.75143
G1 X152.536 Y161.306 E18.78205
G1 X152.404 Y162.217 E18.81267
G1 X152.193 Y163.113 E18.84328
G1 X151.906 Y163.988 E18.87391
G1 X151.543 Y164.834 E18.90453
G1 X151.109 Y165.646 E18.93515
G1 X150.605 Y166.417 E18.96579
G1 X150.037 Y167.141 E18.9964
G1 X149.408 Y167.813 E19.02701
G1 X148.723 Y168.428 E19.05763
G1 X147.987 Y168.981 E19.08825
G1 X147.206 Y169.469 E19.11888
G1 X146.386 Y169.887 E19.14949
G1 X145.532 Y170.232 E19.18012
G1 X144.652 Y170.501 E19.21073
G1 X143.751 Y170.694 E19.24138
G1 X142.838 Y170.807 E19.27198
G1 X142.288 Y170.837 E19.2903
G1 X141.968 Y170.846 E19.30094
G1 X141.67 Y170.85 E19.31086
G1 X78.707 Y170.85 E21.40501
G1 X78.57 Y170.849 E21.40957
G1 X77.872 Y170.84 E21.43279
G1 X76.953 Y170.788 E21.4634
G1 X76.042 Y170.657 E21.49401
G1 X75.146 Y170.447 E21.52462
G1 X74.271 Y170.16 E21.55525
G1 X73.424 Y169.798 E21.58589
G1 X72.612 Y169.364 E21.61651
G1 X71.841 Y168.862 E21.64711
G1 X71.116 Y168.294 E21.67774
G1 X70.443 Y167.665 E21.70838
G1 X69.828 Y166.981 E21.73898
G1 X69.274 Y166.246 E21.76959
G1 X68.786 Y165.465 E21.80022
G1 X68.367 Y164.645 E21.83085
G1 X68.021 Y163.792 E21.86146
G1 X67.751 Y162.912 E21.89208
G1 X67.558 Y162.011 E21.92272
G1 X67.444 Y161.098 E21.95333
G1 X67.413 Y160.527 E21.97235
G1 X67.404 Y160.194 E21.98343
G1 X67.4 Y159.908 E21.99294
G1 X67.4 Y132.457 E22.90596
G1 X67.401 Y132.304 E22.91105
G1 X67.419 Y131.06 E22.95243
G1 X67.422 Y130.912 E22.95736
G1 X67.467 Y129.324 E23.01019
G1 X67.469 Y126.757 E23.09557
G1 X67.437 Y125.321 E23.14335
G1 X67.405 Y124.246 E23.17912
G1 X67.4 Y123.933 E23.18953
G1 X67.4 Y96.457 E24.10338
G1 X67.401 Y96.305 E24.10844
G1 X67.411 Y95.608 E24.13162
G1 X67.464 Y94.689 E24.16224
G1 X67.588 Y93.827 E24.19121
G1 X67.782 Y92.781 E24.22659
G1 X67.81 Y92.635 E24.23153
G1 X67.927 Y92.051 E24.25134
G1 X68.351 Y89.573 E24.33496
G1 X68.713 Y87.027 E24.42049
G1 X68.993 Y84.558 E24.50314
G1 X69.211 Y82.002 E24.58846
G1 X69.351 Y79.512 E24.67141
G1 X69.423 Y76.941 E24.75695
G1 X69.43 Y75.056 E24.81965
G1 X69.425 Y74.401 E24.84144
G1 X69.426 Y74.213 E24.84769
G1 X69.438 Y73.02 E24.88737
G1 X69.483 Y72.145 E24.91651
G1 X69.562 Y71.296 E24.94487
G1 X69.688 Y70.377 E24.97572
G1 X69.908 Y69.17 E25.01653
G1 X69.95 Y68.953 E25.02388
G1 X70.063 Y68.399 E25.04269
G1 X70.246 Y67.645 E25.06849
G1 X70.409 Y67.066 E25.0885
G1 X70.589 Y66.487 E25.10867
G1 X70.767 Y65.97 E25.12685
G1 X70.875 Y65.673 E25.13736
G1 X71.25 Y64.681 E25.17264
G1 X71.59 Y63.881 E25.20155
G1 X71.951 Y63.121 E25.22953
G1 X72.354 Y62.356 E25.25829
G1 X72.858 Y61.486 E25.29173
G1 X72.941 Y61.345 E25.29717
G1 X73.331 Y60.695 E25.32238
G1 X73.794 Y59.988 E25.35049
G1 X74.169 Y59.463 E25.37195
G1 X74.42 Y59.126 E25.38593
G1 X74.562 Y58.943 E25.39363
G0 F6000 X74.878 Y59.188
G1 F1200 X75.162 Y58.838 E25.40862
G1 X75.9 Y57.969 E25.44654
G1 X76.081 Y57.762 E25.45569
G1 X76.298 Y57.52 E25.4665
G1 X76.7 Y57.097 E25.48591
G1 X77.221 Y56.579 E25.51034
G1 X77.816 Y56.033 E25.5372
G1 X78.461 Y55.486 E25.56533
G1 X78.632 Y55.343 E25.57275
G1 X79.331 Y54.776 E25.60268
G1 X79.958 Y54.307 E25.62872
G1 X80.544 Y53.902 E25.65242
G1 X80.952 Y53.634 E25.66865
G1 X81.156 Y53.507 E25.67665
G1 X81.474 Y53.317 E25.68897
G1 X82.566 Y52.691 E25.73083
G1 X83.246 Y52.334 E25.75638
G1 X83.86 Y52.041 E25.779
G1 X84.195 Y51.889 E25.79124
G1 X84.557 Y51.732 E25.80436
G1 X85.12 Y51.507 E25.82453
G1 X85.726 Y51.286 E25.84598
G1 X85.897 Y51.226 E25.85201
G1 X86.692 Y50.952 E25.87998
G1 X87.144 Y50.808 E25.89576
G1 X87.512 Y50.7 E25.90851
G1 X87.876 Y50.6 E25.92107
