;FLAVOR:Marlin
;TIME:1889
;Filament used: 1.03008m
;Layer height: 0.2
;MINX:29.25
;MINY:86.5
;MINZ:0.2
;MAXX:190.736
;MAXY:133.5
;MAXZ:2
;Generated with Cura_SteamEngine 4.4.0
M140 S60
M105
M190 S60
M104 S210
M105
M109 S210
M82 ;absolute extrusion mode
M201 X500.00 Y500.00 Z100.00 E5000.00 ;Setup machine max acceleration
M203 X500.00 Y500.00 Z10.00 E50.00 ;Setup machine max feedrate
M204 P500.00 R1000.00 T500.00 ;Setup Print/Retract/Travel acceleration
M205 X8.00 Y8.00 Z0.40 E5.00 ;Setup Jerk
M220 S100 ;Reset Feedrate
M221 S100 ;Reset Flowrate

G28 ;Home

G92 E0 ;Reset Extruder
G1 Z2.0 F3000 ;Move Z Axis up
G1 X10.1 Y20 Z0.28 F5000.0 ;Move to start position
G1 X10.1 Y200.0 Z0.28 F1500.0 E15 ;Draw the first line
G1 X10.4 Y200.0 Z0.28 F5000.0 ;Move to side a little
G1 X10.4 Y20 Z0.28 F1500.0 E30 ;Draw the second line
G92 E0 ;Reset Extruder
G1 Z2.0 F3000 ;Move Z Axis up

G92 E0
G92 E0
G1 F1500 E-6.5
;LAYER_COUNT:10
;LAYER:0
M107
G0 F6000 X36.363 Y87.222 Z0.2
;TYPE:SKIRT
G1 F1500 E0
G1 F1200 X37.254 Y86.928 E0.03121
G1 X38.166 Y86.71 E0.06239
G1 X39.093 Y86.571 E0.09357
G1 X39.951 Y86.513 E0.12217
G1 X40.271 Y86.504 E0.13282
G1 X40.58 Y86.5 E0.1431
G1 X59.543 Y86.5 E0.77381
G1 X59.701 Y86.501 E0.77907
G1 X60.399 Y86.511 E0.80228
G1 X61.176 Y86.55 E0.82816
G1 X63.904 Y86.783 E0.91922
G1 X66.436 Y86.925 E1.00357
G1 X68.968 Y86.997 E1.08782
G1 X71.455 Y86.997 E1.17054
G1 X74.013 Y86.925 E1.25565
G1 X76.504 Y86.783 E1.33864
G1 X79.336 Y86.548 E1.43315
G1 X79.917 Y86.515 E1.45251
G1 X80.25 Y86.505 E1.46359
G1 X80.58 Y86.5 E1.47457
G1 X99.543 Y86.5 E2.10528
G1 X99.701 Y86.501 E2.11053
G1 X100.398 Y86.511 E2.13372
G1 X101.617 Y86.597 E2.17436
G1 X102.663 Y86.729 E2.20943
G1 X102.844 Y86.753 E2.2155
G1 X103.443 Y86.839 E2.23563
G1 X105.935 Y87.122 E2.31905
G1 X108.442 Y87.336 E2.40273
G1 X110.958 Y87.478 E2.48655
G1 X113.453 Y87.55 E2.56957
G1 X115.977 Y87.55 E2.65351
G1 X118.528 Y87.479 E2.73839
G1 X120.989 Y87.339 E2.82038
G1 X123.532 Y87.124 E2.90526
G1 X125.961 Y86.85 E2.98656
G1 X127.323 Y86.678 E3.03222
G1 X127.658 Y86.641 E3.04343
G1 X128.058 Y86.603 E3.0568
G1 X128.389 Y86.577 E3.06784
G1 X128.745 Y86.554 E3.07971
G1 X129.11 Y86.536 E3.09186
G1 X129.75 Y86.516 E3.11316
G1 X130.094 Y86.511 E3.1246
G1 X130.405 Y86.511 E3.13494
G1 X130.748 Y86.516 E3.14635
G1 X131.39 Y86.536 E3.16772
G1 X131.76 Y86.554 E3.18004
G1 X132.114 Y86.577 E3.19184
G1 X132.416 Y86.601 E3.20191
G1 X132.826 Y86.639 E3.21561
G1 X133.203 Y86.68 E3.22822
G1 X133.83 Y86.76 E3.24924
G1 X134.157 Y86.807 E3.26023
G1 X134.838 Y86.915 E3.28316
G1 X137.382 Y87.282 E3.36865
G1 X139.862 Y87.569 E3.45169
G1 X142.412 Y87.791 E3.53682
G1 X144.892 Y87.935 E3.61945
G1 X147.416 Y88.011 E3.70343
G1 X149.944 Y88.016 E3.78752
G1 X152.461 Y87.95 E3.87126
G1 X154.958 Y87.813 E3.95444
G1 X157.461 Y87.605 E4.03797
G1 X159.955 Y87.326 E4.12144
G1 X162.779 Y86.927 E4.2163
G1 X163.834 Y86.761 E4.25182
G1 X164.118 Y86.72 E4.26137
G1 X164.325 Y86.693 E4.26831
G1 X164.718 Y86.649 E4.28146
G1 X165.409 Y86.584 E4.30455
G1 X166.045 Y86.543 E4.32574
G1 X166.714 Y86.519 E4.34801
G1 X167.108 Y86.512 E4.36112
G1 X167.392 Y86.512 E4.37056
G1 X167.736 Y86.517 E4.382
G1 X168.312 Y86.535 E4.40117
G1 X168.961 Y86.575 E4.4228
G1 X169.744 Y86.646 E4.44895
G1 X170.134 Y86.688 E4.46199
G1 X170.347 Y86.715 E4.46914
G1 X170.699 Y86.766 E4.48097
G1 X171.081 Y86.827 E4.49383
G1 X171.385 Y86.88 E4.5041
G1 X171.878 Y86.973 E4.52078
G1 X172.269 Y87.054 E4.53406
G1 X172.609 Y87.131 E4.54566
G1 X172.907 Y87.203 E4.55585
G1 X173.2 Y87.278 E4.56591
G1 X173.53 Y87.368 E4.57729
G1 X174.031 Y87.513 E4.59464
G1 X174.369 Y87.616 E4.60639
G1 X174.674 Y87.715 E4.61705
G1 X175.029 Y87.837 E4.62954
G1 X175.415 Y87.977 E4.6432
G1 X175.705 Y88.087 E4.65351
G1 X176.062 Y88.228 E4.66628
G1 X176.402 Y88.369 E4.67852
G1 X176.835 Y88.557 E4.69422
G1 X177.091 Y88.672 E4.70356
G1 X177.276 Y88.758 E4.71034
G1 X177.627 Y88.929 E4.72333
G1 X178.14 Y89.19 E4.74247
G1 X178.454 Y89.356 E4.75428
G1 X178.763 Y89.526 E4.76601
G1 X179.096 Y89.717 E4.77878
G1 X179.381 Y89.887 E4.78982
G1 X179.621 Y90.034 E4.79918
G1 X179.955 Y90.245 E4.81232
G1 X180.259 Y90.444 E4.82441
G1 X180.639 Y90.702 E4.83968
G1 X180.92 Y90.9 E4.85112
G1 X181.197 Y91.101 E4.8625
G1 X181.49 Y91.321 E4.87469
G1 X181.796 Y91.559 E4.88758
G1 X182.046 Y91.759 E4.89823
G1 X182.43 Y92.076 E4.91479
G1 X182.738 Y92.34 E4.92828
G1 X182.901 Y92.485 E4.93554
G1 X183.096 Y92.662 E4.9443
G1 X183.426 Y92.97 E4.95931
G1 X183.718 Y93.254 E4.97286
G1 X184.111 Y93.649 E4.99139
G1 X184.506 Y94.067 E5.01052
G1 X184.953 Y94.566 E5.0328
G1 X185.208 Y94.861 E5.04577
G1 X185.429 Y95.126 E5.05725
G1 X185.653 Y95.404 E5.06912
G1 X185.891 Y95.709 E5.08199
G1 X186.115 Y96.006 E5.09436
G1 X186.291 Y96.248 E5.10431
G1 X186.49 Y96.531 E5.11582
G1 X186.858 Y97.072 E5.13758
G1 X187.19 Y97.59 E5.15805
G1 X187.54 Y98.172 E5.18063
G1 X187.724 Y98.491 E5.19288
G1 X187.832 Y98.685 E5.20027
G1 X188.015 Y99.028 E5.2132
G1 X188.334 Y99.652 E5.23651
G1 X188.595 Y100.199 E5.25667
G1 X188.807 Y100.677 E5.27406
G1 X188.975 Y101.076 E5.28846
G1 X189.201 Y101.645 E5.30882
G1 X189.417 Y102.237 E5.32978
G1 X189.634 Y102.89 E5.35267
G1 X189.747 Y103.253 E5.36531
G1 X189.835 Y103.552 E5.37568
G1 X189.936 Y103.916 E5.38824
G1 X190.057 Y104.386 E5.40438
G1 X190.122 Y104.651 E5.41346
G1 X190.177 Y104.889 E5.42158
G1 X190.265 Y105.308 E5.43582
G1 X190.349 Y105.749 E5.45076
G1 X190.406 Y106.075 E5.46176
G1 X190.498 Y106.652 E5.4812
G1 X190.582 Y107.306 E5.50313
G1 X190.652 Y108.017 E5.52689
G1 X190.683 Y108.406 E5.53987
G1 X190.701 Y108.693 E5.54943
G1 X190.717 Y109.016 E5.56019
G1 X190.733 Y109.496 E5.57616
G1 X190.736 Y110.115 E5.59675
G1 X190.717 Y110.941 E5.62423
G1 X190.701 Y111.334 E5.63731
G1 X190.688 Y111.555 E5.64468
G1 X190.659 Y111.931 E5.65722
G1 X190.609 Y112.467 E5.67512
G1 X190.536 Y113.074 E5.69546
G1 X190.424 Y113.822 E5.72061
G1 X190.354 Y114.234 E5.73451
G1 X190.293 Y114.557 E5.74545
G1 X190.225 Y114.889 E5.75672
G1 X190.151 Y115.224 E5.76813
G1 X190.065 Y115.583 E5.78041
G1 X189.944 Y116.055 E5.79661
G1 X189.861 Y116.361 E5.80716
G1 X189.786 Y116.622 E5.81619
G1 X189.677 Y116.979 E5.82861
G1 X189.506 Y117.506 E5.84703
G1 X189.4 Y117.817 E5.85796
G1 X189.322 Y118.035 E5.86566
G1 X189.201 Y118.357 E5.8771
G1 X189.02 Y118.817 E5.89355
G1 X188.883 Y119.149 E5.90549
G1 X188.709 Y119.552 E5.92009
G1 X188.454 Y120.1 E5.94019
G1 X188.1 Y120.81 E5.96658
G1 X187.917 Y121.161 E5.97975
G1 X187.782 Y121.409 E5.98914
G1 X187.593 Y121.742 E6.00187
G1 X187.335 Y122.179 E6.01875
G1 X186.988 Y122.73 E6.04041
G1 X186.506 Y123.446 E6.06912
G1 X186.13 Y123.971 E6.0906
G1 X185.739 Y124.484 E6.11205
G1 X185.479 Y124.812 E6.12597
G1 X185.24 Y125.102 E6.13847
G1 X185.014 Y125.367 E6.15005
G1 X184.746 Y125.672 E6.16356
G1 X184.545 Y125.894 E6.17352
G1 X184.39 Y126.061 E6.1811
G1 X184.116 Y126.347 E6.19427
G1 X183.705 Y126.759 E6.21363
G1 X183.458 Y126.999 E6.22508
G1 X183.133 Y127.305 E6.23993
G1 X182.853 Y127.559 E6.2525
G1 X182.688 Y127.704 E6.25981
G1 X182.425 Y127.928 E6.2713
G1 X182.043 Y128.243 E6.28776
G1 X181.803 Y128.435 E6.29799
G1 X181.541 Y128.639 E6.30903
G1 X181.238 Y128.867 E6.32164
G1 X180.802 Y129.183 E6.33955
G1 X180.324 Y129.51 E6.35882
G1 X179.689 Y129.921 E6.38397
G1 X179.327 Y130.146 E6.39815
G1 X179.076 Y130.295 E6.40786
G1 X178.766 Y130.472 E6.41973
G1 X178.459 Y130.641 E6.43139
G1 X178.142 Y130.809 E6.44332
G1 X177.627 Y131.071 E6.46254
G1 X177.3 Y131.231 E6.47465
G1 X177.114 Y131.318 E6.48148
G1 X176.823 Y131.449 E6.49209
G1 X176.391 Y131.636 E6.50775
G1 X176.087 Y131.762 E6.51869
G1 X175.73 Y131.904 E6.53147
G1 X175.391 Y132.032 E6.54352
G1 X175.005 Y132.171 E6.55717
G1 X174.664 Y132.288 E6.56916
G1 X174.358 Y132.387 E6.57986
G1 X174.036 Y132.486 E6.59106
G1 X173.536 Y132.631 E6.60838
G1 X173.191 Y132.725 E6.62027
G1 X172.897 Y132.8 E6.63036
G1 X172.645 Y132.861 E6.63898
G1 X172.306 Y132.939 E6.65055
G1 X171.886 Y133.027 E6.66483
G1 X171.395 Y133.12 E6.68145
G1 X171.041 Y133.181 E6.69339
G1 X170.688 Y133.236 E6.70528
G1 X170.352 Y133.283 E6.71656
G1 X169.974 Y133.33 E6.72923
G1 X169.66 Y133.364 E6.73974
G1 X169.282 Y133.4 E6.75236
G1 X168.941 Y133.428 E6.76374
G1 X168.597 Y133.45 E6.77521
G1 X168.245 Y133.466 E6.78693
G1 X167.742 Y133.482 E6.80367
G1 X167.392 Y133.488 E6.81531
G1 X167.109 Y133.488 E6.82472
G1 X166.761 Y133.482 E6.8363
G1 X166.256 Y133.466 E6.8531
G1 X165.898 Y133.449 E6.86502
G1 X165.556 Y133.427 E6.87642
G1 X165.222 Y133.401 E6.88757
G1 X164.843 Y133.365 E6.90023
G1 X164.526 Y133.33 E6.91084
G1 X164.148 Y133.283 E6.9235
G1 X163.773 Y133.23 E6.9361
G1 X163.428 Y133.175 E6.94772
G1 X163.108 Y133.119 E6.95853
G1 X161.886 Y132.887 E6.9999
G1 X159.376 Y132.446 E7.08466
G1 X156.841 Y132.075 E7.16987
G1 X154.37 Y131.784 E7.25262
G1 X151.871 Y131.56 E7.33607
G1 X149.334 Y131.407 E7.42061
G1 X146.838 Y131.325 E7.50367
G1 X144.314 Y131.315 E7.58762
G1 X141.792 Y131.375 E7.67153
G1 X139.27 Y131.508 E7.75552
G1 X136.822 Y131.705 E7.83721
G1 X132.986 Y132.15 E7.96565
G1 X132.599 Y132.203 E7.97864
G1 X132.153 Y132.255 E7.99358
G1 X131.7 Y132.298 E8.00871
G1 X131.273 Y132.33 E8.02295
G1 X130.86 Y132.353 E8.03671
G1 X130.452 Y132.368 E8.05029
G1 X130.075 Y132.375 E8.06283
G1 X129.657 Y132.375 E8.07673
G1 X128.988 Y132.362 E8.09899
G1 X128.28 Y132.325 E8.12257
G1 X127.733 Y132.279 E8.14083
G1 X127.132 Y132.212 E8.16094
G1 X126.76 Y132.16 E8.17343
G1 X126.415 Y132.106 E8.18505
G1 X123.792 Y131.654 E8.27357
G1 X121.262 Y131.292 E8.35858
G1 X118.791 Y131.008 E8.44131
G1 X116.291 Y130.793 E8.52476
G1 X113.753 Y130.647 E8.60932
G1 X111.258 Y130.574 E8.69234
G1 X108.733 Y130.572 E8.77632
G1 X106.21 Y130.641 E8.86027
G1 X103.691 Y130.781 E8.94418
G1 X101.215 Y130.989 E9.02682
G1 X98.692 Y131.274 E9.11127
G1 X96.183 Y131.628 E9.19554
G1 X93.776 Y132.037 E9.27675
G1 X93.449 Y132.097 E9.28781
G1 X92.69 Y132.209 E9.31332
G1 X92.138 Y132.271 E9.3318
G1 X91.379 Y132.33 E9.35712
G1 X90.536 Y132.366 E9.38518
G1 X90.067 Y132.376 E9.40079
G1 X89.785 Y132.376 E9.41017
G1 X89.357 Y132.368 E9.4244
G1 X88.535 Y132.336 E9.45176
G1 X88.15 Y132.314 E9.46459
G1 X87.88 Y132.294 E9.47359
G1 X87.643 Y132.274 E9.48151
G1 X87.238 Y132.235 E9.49504
G1 X85.241 Y132.062 E9.56171
G1 X82.692 Y131.906 E9.64665
G1 X80.206 Y131.825 E9.72937
G1 X77.682 Y131.815 E9.81332
G1 X75.15 Y131.876 E9.89756
G1 X72.643 Y132.006 E9.98106
G1 X70.149 Y132.208 E10.06428
G1 X67.653 Y132.48 E10.14779
G1 X65.098 Y132.833 E10.23358
G1 X63.395 Y133.11 E10.29096
G1 X62.139 Y133.327 E10.33336
G1 X61.209 Y133.447 E10.36454
G1 X60.678 Y133.479 E10.38224
G1 X60.329 Y133.492 E10.39385
G1 X59.92 Y133.5 E10.40746
G1 X40.957 Y133.5 E11.03817
G1 X40.815 Y133.499 E11.04289
G1 X40.117 Y133.49 E11.06611
G1 X39.181 Y133.438 E11.09729
G1 X38.252 Y133.306 E11.1285
G1 X37.338 Y133.096 E11.15969
G1 X36.445 Y132.809 E11.19089
G1 X35.58 Y132.446 E11.22209
G1 X34.749 Y132.012 E11.25327
G1 X33.958 Y131.508 E11.28447
G1 X33.213 Y130.938 E11.31567
G1 X32.519 Y130.307 E11.34686
G1 X31.882 Y129.62 E11.37802
G1 X31.305 Y128.88 E11.40924
G1 X30.793 Y128.094 E11.44043
G1 X30.35 Y127.267 E11.47164
G1 X29.979 Y126.406 E11.50282
G1 X29.683 Y125.516 E11.53402
G1 X29.464 Y124.604 E11.56521
G1 X29.323 Y123.677 E11.5964
G1 X29.263 Y122.788 E11.62603
G1 X29.254 Y122.455 E11.63711
G1 X29.25 Y122.158 E11.64699
G1 X29.25 Y98.191 E12.44414
G1 X29.251 Y98.03 E12.44949
G1 X29.261 Y97.348 E12.47218
G1 X29.315 Y96.411 E12.5034
G1 X29.448 Y95.483 E12.53458
G1 X29.66 Y94.569 E12.56578
G1 X29.949 Y93.677 E12.59697
G1 X30.313 Y92.813 E12.62815
G1 X30.749 Y91.983 E12.65934
G1 X31.254 Y91.192 E12.69055
G1 X31.825 Y90.448 E12.72174
G1 X32.457 Y89.755 E12.75294
G1 X33.146 Y89.119 E12.78412
G1 X33.887 Y88.543 E12.81534
G1 X34.674 Y88.033 E12.84653
G1 X35.501 Y87.592 E12.8777
G1 X36.363 Y87.222 E12.9089
G0 F6000 X36.727 Y87.515
G1 F1200 X37.608 Y87.246 E12.93954
G1 X38.508 Y87.055 E12.97014
G1 X39.422 Y86.942 E13.00077
G1 X39.962 Y86.913 E13.01876
G1 X40.282 Y86.904 E13.02941
G1 X40.58 Y86.9 E13.03932
G1 X59.543 Y86.9 E13.67003
G1 X59.695 Y86.901 E13.67509
G1 X60.393 Y86.911 E13.69831
G1 X61.142 Y86.948 E13.72325
G1 X63.916 Y87.185 E13.81585
G1 X66.403 Y87.325 E13.8987
G1 X68.957 Y87.397 E13.98368
G1 X71.466 Y87.397 E14.06713
G1 X74.013 Y87.325 E14.15187
G1 X76.52 Y87.183 E14.23539
G1 X79.369 Y86.946 E14.33048
G1 X79.929 Y86.915 E14.34913
G1 X80.262 Y86.905 E14.36021
G1 X80.58 Y86.9 E14.37079
G1 X99.543 Y86.9 E15.0015
G1 X99.695 Y86.901 E15.00656
G1 X100.392 Y86.911 E15.02974
G1 X101.567 Y86.993 E15.06892
G1 X102.613 Y87.125 E15.10398
G1 X102.787 Y87.149 E15.10982
G1 X103.377 Y87.233 E15.12965
G1 X105.888 Y87.519 E15.2137
G1 X108.42 Y87.735 E15.29822
G1 X110.925 Y87.877 E15.38167
G1 X113.477 Y87.95 E15.46659
G1 X115.988 Y87.95 E15.5501
G1 X118.526 Y87.879 E15.63455
G1 X121.047 Y87.736 E15.71854
G1 X123.574 Y87.522 E15.80288
G1 X125.977 Y87.251 E15.88332
G1 X127.373 Y87.075 E15.93011
G1 X127.696 Y87.04 E15.94092
G1 X128.096 Y87.002 E15.95428
G1 X128.415 Y86.976 E15.96493
G1 X128.771 Y86.953 E15.97679
G1 X129.123 Y86.936 E15.98852
G1 X129.763 Y86.916 E16.00981
G1 X130.094 Y86.911 E16.02082
G1 X130.405 Y86.911 E16.03117
G1 X130.735 Y86.916 E16.04214
G1 X131.377 Y86.936 E16.06351
G1 X131.734 Y86.953 E16.07539
G1 X132.088 Y86.976 E16.08719
G1 X132.379 Y86.999 E16.0969
G1 X132.789 Y87.037 E16.1106
G1 X133.153 Y87.077 E16.12278
G1 X133.78 Y87.157 E16.1438
G1 X134.094 Y87.202 E16.15435
G1 X134.785 Y87.311 E16.17762
G1 X137.316 Y87.677 E16.26267
G1 X139.85 Y87.97 E16.34752
G1 X142.355 Y88.188 E16.43115
G1 X144.893 Y88.336 E16.51571
G1 X147.403 Y88.411 E16.59923
G1 X149.954 Y88.416 E16.68407
G1 X152.458 Y88.35 E16.76739
G1 X154.977 Y88.212 E16.85129
G1 X157.54 Y87.999 E16.93683
G1 X160.019 Y87.722 E17.0198
G1 X162.767 Y87.333 E17.11211
G1 X163.896 Y87.156 E17.15012
G1 X164.17 Y87.117 E17.15932
G1 X164.377 Y87.09 E17.16627
G1 X164.755 Y87.048 E17.17892
G1 X165.446 Y86.983 E17.202
G1 X166.059 Y86.943 E17.22243
G1 X166.728 Y86.919 E17.2447
G1 X167.108 Y86.912 E17.25734
G1 X167.392 Y86.912 E17.26678
G1 X167.723 Y86.917 E17.27779
G1 X168.299 Y86.935 E17.29696
G1 X168.925 Y86.973 E17.31782
G1 X169.708 Y87.044 E17.34397
G1 X170.084 Y87.085 E17.35655
G1 X170.297 Y87.112 E17.36369
G1 X170.635 Y87.161 E17.37505
G1 X171.017 Y87.222 E17.38792
G1 X171.311 Y87.273 E17.39784
G1 X171.804 Y87.366 E17.41453
G1 X172.18 Y87.444 E17.4273
G1 X172.52 Y87.521 E17.43889
G1 X172.808 Y87.59 E17.44874
G1 X173.101 Y87.665 E17.4588
G1 X173.419 Y87.752 E17.46977
G1 X173.92 Y87.897 E17.48712
G1 X174.246 Y87.997 E17.49846
G1 X174.551 Y88.096 E17.50912
G1 X174.892 Y88.213 E17.52111
G1 X175.278 Y88.353 E17.53477
G1 X175.558 Y88.459 E17.54473
G1 X175.915 Y88.6 E17.5575
G1 X176.243 Y88.736 E17.5693
G1 X176.676 Y88.924 E17.58501
G1 X176.922 Y89.035 E17.59398
G1 X177.107 Y89.121 E17.60077
G1 X177.446 Y89.285 E17.61329
G1 X177.959 Y89.546 E17.63244
G1 X178.261 Y89.707 E17.64382
G1 X178.57 Y89.877 E17.65555
G1 X178.891 Y90.061 E17.66786
G1 X179.176 Y90.231 E17.67889
G1 X179.407 Y90.372 E17.68789
G1 X179.741 Y90.583 E17.70103
G1 X180.034 Y90.775 E17.71269
G1 X180.414 Y91.033 E17.72796
G1 X180.685 Y91.224 E17.73899
G1 X180.962 Y91.425 E17.75037
G1 X181.245 Y91.637 E17.76213
G1 X181.551 Y91.875 E17.77503
G1 X181.791 Y92.068 E17.78527
G1 X182.175 Y92.385 E17.80183
G1 X182.472 Y92.639 E17.81483
G1 X182.635 Y92.784 E17.82209
G1 X182.823 Y92.955 E17.83054
G1 X183.153 Y93.263 E17.84555
G1 X183.434 Y93.536 E17.85858
G1 X183.827 Y93.931 E17.87711
G1 X184.208 Y94.334 E17.89556
G1 X184.655 Y94.833 E17.91784
G1 X184.901 Y95.117 E17.93034
G1 X185.122 Y95.382 E17.94182
G1 X185.338 Y95.65 E17.95326
G1 X185.576 Y95.955 E17.96613
G1 X185.792 Y96.241 E17.97805
G1 X185.968 Y96.483 E17.98801
G1 X186.16 Y96.756 E17.99911
G1 X186.528 Y97.297 E18.02087
G1 X186.847 Y97.796 E18.04057
G1 X187.197 Y98.378 E18.06315
G1 X187.375 Y98.685 E18.07496
G1 X187.483 Y98.879 E18.08234
G1 X187.659 Y99.21 E18.09481
G1 X187.978 Y99.834 E18.11812
G1 X188.23 Y100.361 E18.13755
G1 X188.442 Y100.839 E18.15494
G1 X188.603 Y101.224 E18.16882
G1 X188.829 Y101.793 E18.18918
