;FLAVOR:Marlin
;TIME:13893
;Filament used: 10.5893m
;Layer height: 0.2
;MINX:4
;MINY:74
;MINZ:0.2
;MAXX:216
;MAXY:146
;MAXZ:6
;Generated with Cura_SteamEngine 4.4.0
M140 S60
M105
M190 S60
M104 S210
M105
M109 S210
M82 ;absolute extrusion mode
M201 X500.00 Y500.00 Z100.00 E5000.00 ;Setup machine max acceleration
M203 X500.00 Y500.00 Z10.00 E50.00 ;Setup machine max feedrate
M204 P500.00 R1000.00 T500.00 ;Setup Print/Retract/Travel acceleration
M205 X8.00 Y8.00 Z0.40 E5.00 ;Setup Jerk
M220 S100 ;Reset Feedrate
M221 S100 ;Reset Flowrate

G28 ;Home

G92 E0 ;Reset Extruder
G1 Z2.0 F3000 ;Move Z Axis up
G1 X10.1 Y20 Z0.28 F5000.0 ;Move to start position
G1 X10.1 Y200.0 Z0.28 F1500.0 E15 ;Draw the first line
G1 X10.4 Y200.0 Z0.28 F5000.0 ;Move to side a little
G1 X10.4 Y20 Z0.28 F1500.0 E30 ;Draw the second line
G92 E0 ;Reset Extruder
G1 Z2.0 F3000 ;Move Z Axis up

G92 E0
G92 E0
G1 F1500 E-6.5
;LAYER_COUNT:30
;LAYER:0
M107
G0 F6000 X12.903 Y74.213 Z0.2
;TYPE:SKIRT
G1 F1500 E0
G1 F1200 X13.83 Y74.072 E0.03119
G1 X14.701 Y74.013 E0.06022
G1 X15.022 Y74.004 E0.0709
G1 X15.33 Y74 E0.08115
G1 X204.293 Y74 E6.36608
G1 X204.451 Y74.001 E6.37134
G1 X205.149 Y74.011 E6.39456
G1 X206.085 Y74.065 E6.42574
G1 X207.013 Y74.197 E6.45692
G1 X207.927 Y74.409 E6.48812
G1 X208.819 Y74.698 E6.51931
G1 X209.684 Y75.061 E6.55051
G1 X210.514 Y75.497 E6.58169
G1 X211.305 Y76.002 E6.61291
G1 X212.049 Y76.573 E6.6441
G1 X212.742 Y77.205 E6.67529
G1 X213.379 Y77.893 E6.70648
G1 X213.954 Y78.634 E6.73767
G1 X214.465 Y79.42 E6.76886
G1 X214.907 Y80.248 E6.80007
G1 X215.276 Y81.11 E6.83126
G1 X215.571 Y82 E6.86245
G1 X215.789 Y82.912 E6.89363
G1 X215.929 Y83.84 E6.92485
G1 X215.987 Y84.701 E6.95355
G1 X215.996 Y85.021 E6.9642
G1 X216 Y85.33 E6.97448
G1 X216 Y134.264 E8.60203
G1 X215.999 Y134.4 E8.60655
G1 X215.99 Y135.127 E8.63073
G1 X215.939 Y136.064 E8.66194
G1 X215.807 Y136.992 E8.69312
G1 X215.598 Y137.906 E8.7243
G1 X215.311 Y138.799 E8.7555
G1 X214.949 Y139.665 E8.78672
G1 X214.515 Y140.496 E8.8179
G1 X214.011 Y141.287 E8.8491
G1 X213.442 Y142.032 E8.88028
G1 X212.811 Y142.727 E8.9115
G1 X212.124 Y143.365 E8.94268
G1 X211.385 Y143.942 E8.97387
G1 X210.599 Y144.454 E9.00507
G1 X209.773 Y144.897 E9.03624
G1 X208.911 Y145.269 E9.06747
G1 X208.022 Y145.565 E9.09863
G1 X207.11 Y145.785 E9.12983
G1 X206.183 Y145.926 E9.16102
G1 X205.299 Y145.987 E9.19049
G1 X204.978 Y145.996 E9.20117
G1 X204.67 Y146 E9.21142
G1 X15.707 Y146 E15.49635
G1 X15.565 Y145.999 E15.50108
G1 X14.867 Y145.99 E15.52429
G1 X13.931 Y145.938 E15.55547
G1 X13.002 Y145.806 E15.58668
G1 X12.088 Y145.596 E15.61787
G1 X11.195 Y145.309 E15.64907
G1 X10.33 Y144.946 E15.68027
G1 X9.499 Y144.512 E15.71145
G1 X8.708 Y144.008 E15.74265
G1 X7.963 Y143.438 E15.77385
G1 X7.269 Y142.807 E15.80505
G1 X6.632 Y142.12 E15.83621
G1 X6.055 Y141.38 E15.86742
G1 X5.543 Y140.594 E15.89862
G1 X5.1 Y139.767 E15.92982
G1 X4.729 Y138.906 E15.961
G1 X4.433 Y138.016 E15.9922
G1 X4.214 Y137.104 E16.02339
G1 X4.073 Y136.177 E16.05458
G1 X4.013 Y135.288 E16.08422
G1 X4.004 Y134.955 E16.0953
G1 X4 Y134.658 E16.10517
G1 X4 Y85.674 E17.73439
G1 X4.001 Y85.525 E17.73934
G1 X4.01 Y84.86 E17.76146
G1 X4.063 Y83.924 E17.79265
G1 X4.195 Y82.995 E17.82386
G1 X4.406 Y82.081 E17.85505
G1 X4.694 Y81.189 E17.88623
G1 X5.057 Y80.324 E17.91743
G1 X5.492 Y79.493 E17.94863
G1 X5.996 Y78.703 E17.9798
G1 X6.566 Y77.958 E18.01099
G1 X7.198 Y77.264 E18.04221
G1 X7.886 Y76.627 E18.0734
G1 X8.626 Y76.051 E18.10459
G1 X9.412 Y75.539 E18.13579
G1 X10.239 Y75.097 E18.16698
G1 X11.101 Y74.727 E18.19818
G1 X11.991 Y74.431 E18.22937
G1 X12.903 Y74.213 E18.26056
G0 F6000 X13.245 Y74.557
G1 F1200 X14.159 Y74.443 E18.2912
G1 X14.712 Y74.413 E18.30962
G1 X15.033 Y74.404 E18.3203
G1 X15.33 Y74.4 E18.33018
G1 X204.293 Y74.4 E24.61511
G1 X204.445 Y74.401 E24.62017
G1 X205.143 Y74.411 E24.64338
G1 X206.062 Y74.464 E24.674
G1 X206.973 Y74.597 E24.70462
G1 X207.869 Y74.808 E24.73524
G1 X208.743 Y75.096 E24.76585
G1 X209.59 Y75.459 E24.79649
G1 X210.401 Y75.894 E24.8271
G1 X211.171 Y76.398 E24.85771
G1 X211.895 Y76.967 E24.88834
G1 X212.567 Y77.597 E24.91898
G1 X213.182 Y78.282 E24.94959
G1 X213.735 Y79.018 E24.98021
G1 X214.222 Y79.799 E25.01083
G1 X214.639 Y80.62 E25.04145
G1 X214.984 Y81.474 E25.07209
G1 X215.253 Y82.354 E25.10269
G1 X215.445 Y83.255 E25.13333
G1 X215.558 Y84.168 E25.16393
G1 X215.587 Y84.712 E25.18205
G1 X215.596 Y85.032 E25.1927
G1 X215.6 Y85.33 E25.20261
G1 X215.6 Y134.264 E26.83016
G1 X215.599 Y134.395 E26.83452
G1 X215.59 Y135.122 E26.8587
G1 X215.539 Y136.041 E26.88932
G1 X215.408 Y136.953 E26.91996
G1 X215.198 Y137.849 E26.95057
G1 X214.912 Y138.724 E26.98119
G1 X214.551 Y139.571 E27.01181
G1 X214.117 Y140.383 E27.04243
G1 X213.615 Y141.155 E27.07306
G1 X213.047 Y141.88 E27.10369
G1 X212.419 Y142.553 E27.13431
G1 X211.735 Y143.169 E27.16492
G1 X211 Y143.723 E27.19554
G1 X210.22 Y144.212 E27.22616
G1 X209.4 Y144.631 E27.25678
G1 X208.547 Y144.977 E27.2874
G1 X207.667 Y145.248 E27.31803
G1 X206.767 Y145.441 E27.34864
G1 X205.853 Y145.556 E27.37928
G1 X205.288 Y145.587 E27.3981
G1 X204.967 Y145.596 E27.40878
G1 X204.67 Y145.6 E27.41866
G1 X15.707 Y145.6 E33.7036
G1 X15.57 Y145.599 E33.70815
G1 X14.872 Y145.59 E33.73137
G1 X13.953 Y145.538 E33.76198
G1 X13.042 Y145.407 E33.7926
G1 X12.146 Y145.197 E33.8232
G1 X11.271 Y144.91 E33.85383
G1 X10.424 Y144.548 E33.88447
G1 X9.612 Y144.114 E33.91509
G1 X8.841 Y143.612 E33.94569
G1 X8.116 Y143.044 E33.97632
G1 X7.443 Y142.415 E34.00696
G1 X6.828 Y141.731 E34.03756
G1 X6.274 Y140.996 E34.06817
G1 X5.786 Y140.215 E34.0988
G1 X5.367 Y139.395 E34.12943
G1 X5.021 Y138.542 E34.16004
G1 X4.751 Y137.662 E34.19066
G1 X4.558 Y136.761 E34.22131
G1 X4.444 Y135.848 E34.25191
G1 X4.413 Y135.277 E34.27093
G1 X4.404 Y134.944 E34.28201
G1 X4.4 Y134.658 E34.29152
G1 X4.4 Y85.674 E35.92074
G1 X4.401 Y85.531 E35.92549
G1 X4.41 Y84.866 E35.94761
G1 X4.462 Y83.946 E35.97826
G1 X4.594 Y83.035 E36.00888
G1 X4.805 Y82.139 E36.03949
G1 X5.092 Y81.264 E36.07012
G1 X5.455 Y80.418 E36.10074
G1 X5.889 Y79.606 E36.13136
G1 X6.392 Y78.835 E36.16198
G1 X6.961 Y78.111 E36.19261
G1 X7.589 Y77.439 E36.2232
G1 X8.274 Y76.823 E36.25384
G1 X9.01 Y76.27 E36.28446
G1 X9.791 Y75.782 E36.31509
G1 X10.611 Y75.364 E36.3457
G1 X11.465 Y75.019 E36.37634
G1 X12.345 Y74.749 E36.40695
G1 X13.245 Y74.557 E36.43756
G0 F6000 X12.696 Y75.075
G1 F1200 X13.584 Y74.909 E36.46761
G1 X14.723 Y74.813 E36.50562
G1 X15.044 Y74.804 E36.5163
G1 X15.33 Y74.8 E36.52582
G1 X204.293 Y74.8 E42.81075
G1 X204.439 Y74.801 E42.81561
G1 X205.137 Y74.811 E42.83883
G1 X206.039 Y74.864 E42.86888
G1 X206.932 Y74.996 E42.8989
G1 X207.81 Y75.207 E42.92894
G1 X208.666 Y75.495 E42.95898
G1 X209.493 Y75.857 E42.989
G1 X210.285 Y76.292 E43.01906
G1 X211.036 Y76.794 E43.0491
G1 X211.739 Y77.361 E43.07914
G1 X212.389 Y77.988 E43.10918
G1 X212.981 Y78.67 E43.13921
G1 X213.511 Y79.401 E43.16925
G1 X213.973 Y80.177 E43.19928
G1 X214.366 Y80.99 E43.22932
G1 X214.684 Y81.835 E43.25935
G1 X214.927 Y82.705 E43.28939
G1 X215.092 Y83.593 E43.31943
G1 X215.187 Y84.723 E43.35715
G1 X215.196 Y85.043 E43.3678
G1 X215.2 Y85.33 E43.37734
G1 X215.2 Y134.264 E45.00489
G1 X215.199 Y134.39 E45.00908
G1 X215.19 Y135.117 E45.03327
G1 X215.139 Y136.019 E45.06331
G1 X215.008 Y136.913 E45.09337
G1 X214.799 Y137.791 E45.12339
G1 X214.513 Y138.648 E45.15343
G1 X214.152 Y139.476 E45.18348
G1 X213.72 Y140.268 E45.21348
G1 X213.219 Y141.02 E45.24354
G1 X212.653 Y141.724 E45.27358
G1 X212.028 Y142.375 E45.3036
G1 X211.347 Y142.969 E45.33365
G1 X210.616 Y143.5 E45.3637
G1 X209.842 Y143.964 E45.39372
G1 X209.029 Y144.358 E45.42377
G1 X208.185 Y144.678 E45.45379
G1 X207.315 Y144.923 E45.48385
G1 X206.428 Y145.089 E45.51386
G1 X205.277 Y145.187 E45.55229
G1 X204.956 Y145.196 E45.56297
G1 X204.67 Y145.2 E45.57248
G1 X15.707 Y145.2 E51.85741
G1 X15.575 Y145.199 E51.8618
G1 X14.877 Y145.19 E51.88502
G1 X13.976 Y145.139 E51.91504
G1 X13.082 Y145.007 E51.94509
G1 X12.204 Y144.798 E51.97511
G1 X11.347 Y144.511 E52.00517
G1 X10.52 Y144.15 E52.03519
G1 X9.727 Y143.717 E52.06524
G1 X8.976 Y143.216 E52.09526
G1 X8.272 Y142.65 E52.12531
G1 X7.621 Y142.024 E52.15535
G1 X7.028 Y141.343 E52.18538
G1 X6.498 Y140.612 E52.21541
G1 X6.034 Y139.837 E52.24545
G1 X5.64 Y139.024 E52.2755
G1 X5.32 Y138.18 E52.30552
G1 X5.076 Y137.31 E52.33558
G1 X4.91 Y136.422 E52.36562
G1 X4.813 Y135.267 E52.40417
G1 X4.804 Y134.934 E52.41525
G1 X4.8 Y134.658 E52.42443
G1 X4.8 Y85.674 E54.05365
G1 X4.801 Y85.536 E54.05824
G1 X4.81 Y84.871 E54.08036
G1 X4.862 Y83.969 E54.11041
G1 X4.994 Y83.076 E54.14043
G1 X5.204 Y82.198 E54.17046
G1 X5.491 Y81.341 E54.20052
G1 X5.853 Y80.514 E54.23055
G1 X6.286 Y79.722 E54.26057
G1 X6.788 Y78.971 E54.29061
G1 X7.355 Y78.267 E54.32068
G1 X7.981 Y77.617 E54.35069
G1 X8.662 Y77.024 E54.38073
G1 X9.394 Y76.494 E54.41078
G1 X10.169 Y76.031 E54.44081
G1 X10.982 Y75.638 E54.47084
G1 X11.827 Y75.318 E54.5009
G1 X12.696 Y75.075 E54.53091
G1 F1500 E48.03091
;MESH:knives_holder.stl
G0 F6000 X33.728 Y96.756
G0 X25.653 Y96.814
G0 X25.653 Y99.186
G0 X36.139 Y99.241
G0 X59.073 Y122.884
G0 X59.073 Y124.719
G0 X61 Y124.549
;TYPE:WALL-INNER
G1 F1500 E54.53091
G1 F1200 X61 Y119.452 E54.70044
G1 X24.199 Y119.451 E55.92444
G1 X24 Y119.451 E55.93106
G1 X24 Y119.65 E55.93534
G1 X24 Y124.549 E56.09828
G1 X61 Y124.549 E57.32891
G0 F6000 X60.6 Y124.149
G1 F1200 X60.6 Y119.852 E57.47183
G1 X24.599 Y119.851 E58.66923
G1 X24.4 Y119.851 E58.67585
G1 X24.4 Y120.05 E58.68013
G1 X24.4 Y124.149 E58.81646
G1 X60.6 Y124.149 E60.02048
G0 F6000 X60.2 Y123.749
;TYPE:WALL-OUTER
G1 F1200 X60.2 Y120.252 E60.13679
G1 X24.8 Y120.251 E61.3142
G1 X24.8 Y123.749 E61.43054
G1 X60.2 Y123.749 E62.60795
G1 F1500 E56.10795
G0 F6000 X60.5 Y123.749
G0 X61.17 Y121.379
G0 X59.335 Y121.379
G0 X61.196 Y99.174
G0 X61.196 Y101.029
G0 X76 Y100.839
;TYPE:WALL-INNER
G1 F1500 E62.60795
G1 F1200 X76 Y95.162 E62.79677
G1 X24.199 Y95.161 E64.51968
G1 X24 Y95.161 E64.52629
G1 X24 Y95.36 E64.53058
G1 X24 Y100.839 E64.71281
G1 X76 Y100.839 E66.44234
G0 F6000 X75.6 Y100.439
G1 F1200 X75.6 Y95.562 E66.60455
G1 X24.599 Y95.561 E68.30085
G1 X24.4 Y95.561 E68.30747
G1 X24.4 Y95.76 E68.31175
G1 X24.4 Y100.439 E68.46737
G1 X75.6 Y100.439 E70.17029
G0 F6000 X75.2 Y100.039
;TYPE:WALL-OUTER
G1 F1200 X75.2 Y95.962 E70.30589
G1 X24.8 Y95.961 E71.9822
G1 X24.8 Y100.039 E72.11784
G1 X75.2 Y100.039 E73.79415
G1 F1500 E67.29415
G0 F6000 X75.5 Y100.039
G0 X75.443 Y100.223
G0 X74.073 Y101.009
G0 X74.073 Y99.174
G0 X185.413 Y122.307
G0 X184.16 Y123.72
G0 X185.52 Y124.741
;TYPE:WALL-INNER
G1 F1500 E73.79415
G1 F1200 X185.864 Y124.973 E73.80795
G1 X186.22 Y125.184 E73.82171
G1 X186.589 Y125.372 E73.83549
G1 X186.971 Y125.537 E73.84933
G1 X187.36 Y125.678 E73.86309
G1 X187.757 Y125.793 E73.87684
G1 X188.163 Y125.884 E73.89067
G1 X188.573 Y125.949 E73.90448
G1 X188.973 Y125.985 E73.91784
G1 X188.985 Y125.987 E73.91824
G1 X189.4 Y126 E73.93205
G1 X189.815 Y125.987 E73.94586
G1 X190.227 Y125.949 E73.95962
G1 X190.637 Y125.884 E73.97343
G1 X191.043 Y125.793 E73.98727
G1 X191.439 Y125.678 E74.00099
G1 X191.83 Y125.537 E74.01481
G1 X192.211 Y125.372 E74.02862
G1 X192.58 Y125.184 E74.04239
G1 X192.936 Y124.973 E74.05616
G1 X193.28 Y124.741 E74.06996
G1 X193.61 Y124.485 E74.08385
G1 X193.918 Y124.212 E74.09754
G1 X194.212 Y123.919 E74.11134
G1 X194.48 Y123.613 E74.12487
G1 X194.733 Y123.288 E74.13857
G1 X194.969 Y122.943 E74.15247
G1 X195.18 Y122.586 E74.16627
G1 X195.368 Y122.218 E74.18001
G1 X195.534 Y121.838 E74.1938
G1 X195.675 Y121.447 E74.20763
G1 X195.789 Y121.05 E74.22137
G1 X195.882 Y120.646 E74.23515
G1 X195.947 Y120.234 E74.24903
G1 X195.983 Y119.834 E74.26238
G1 X195.985 Y119.822 E74.26279
G1 X195.999 Y119.412 E74.27643
G1 X195.99 Y118.997 E74.29024
G1 X195.951 Y118.581 E74.30414
G1 X195.886 Y118.17 E74.31798
G1 X195.796 Y117.765 E74.33178
G1 X195.681 Y117.368 E74.34552
G1 X195.54 Y116.978 E74.35932
G1 X195.375 Y116.597 E74.37313
G1 X195.188 Y116.228 E74.38688
G1 X194.977 Y115.87 E74.40071
G1 X194.744 Y115.527 E74.4145
G1 X194.492 Y115.201 E74.4282
G1 X194.217 Y114.887 E74.44208
G1 X193.918 Y114.589 E74.45613
G1 X193.609 Y114.315 E74.46986
G1 X193.28 Y114.06 E74.48371
G1 X192.936 Y113.827 E74.49752
G1 X192.58 Y113.616 E74.51129
G1 X192.211 Y113.428 E74.52506
G1 X191.83 Y113.263 E74.53887
G1 X191.439 Y113.122 E74.5527
G1 X191.043 Y113.007 E74.56641
G1 X190.637 Y112.916 E74.58025
G1 X190.227 Y112.851 E74.59406
G1 X189.827 Y112.815 E74.60742
G1 X189.815 Y112.813 E74.60782
G1 X189.4 Y112.8 E74.62163
G1 X188.985 Y112.813 E74.63544
G1 X188.573 Y112.851 E74.6492
G1 X188.163 Y112.916 E74.66301
G1 X187.757 Y113.007 E74.67685
G1 X187.36 Y113.122 E74.69059
G1 X186.971 Y113.263 E74.70436
G1 X186.589 Y113.428 E74.7182
G1 X186.22 Y113.616 E74.73197
G1 X185.864 Y113.827 E74.74573
G1 X185.52 Y114.06 E74.75955
G1 X185.191 Y114.315 E74.7734
G1 X184.882 Y114.59 E74.78716
G1 X184.595 Y114.876 E74.80063
G1 X184.32 Y115.185 E74.81439
G1 X184.066 Y115.513 E74.82819
G1 X183.831 Y115.857 E74.84204
G1 X183.62 Y116.214 E74.85584
G1 X183.432 Y116.583 E74.86961
G1 X183.266 Y116.963 E74.8834
G1 X183.125 Y117.353 E74.8972
G1 X183.015 Y117.738 E74.91051
G1 X183.011 Y117.749 E74.9109
G1 X182.918 Y118.154 E74.92472
G1 X182.853 Y118.566 E74.9386
G1 X182.817 Y118.966 E74.95195
G1 X182.815 Y118.978 E74.95236
G1 X182.801 Y119.388 E74.966
G1 X182.81 Y119.803 E74.97981
G1 X182.849 Y120.219 E74.99371
G1 X182.914 Y120.63 E75.00755
G1 X183.004 Y121.034 E75.02131
G1 X183.119 Y121.431 E75.03506
G1 X183.26 Y121.823 E75.04892
G1 X183.425 Y122.203 E75.06269
G1 X183.612 Y122.572 E75.07645
G1 X183.823 Y122.93 E75.09027
G1 X184.056 Y123.273 E75.10407
G1 X184.307 Y123.599 E75.11775
G1 X184.583 Y123.914 E75.13168
G1 X184.877 Y124.205 E75.14544
G1 X185.19 Y124.485 E75.15941
G1 X185.52 Y124.741 E75.1733
G0 F6000 X185.755 Y124.417
G1 F1200 X186.078 Y124.635 E75.18626
G1 X186.413 Y124.833 E75.1992
G1 X186.76 Y125.01 E75.21216
G1 X187.118 Y125.165 E75.22513
G1 X187.484 Y125.297 E75.23807
G1 X187.857 Y125.405 E75.25099
G1 X188.238 Y125.491 E75.26398
G1 X188.623 Y125.552 E75.27695
G1 X189.01 Y125.588 E75.28987
G1 X189.4 Y125.6 E75.30285
G1 X189.79 Y125.588 E75.31583
G1 X190.177 Y125.552 E75.32875
G1 X190.562 Y125.491 E75.34172
G1 X190.943 Y125.405 E75.35471
G1 X191.316 Y125.297 E75.36763
G1 X191.683 Y125.165 E75.3806
G1 X192.04 Y125.01 E75.39354
G1 X192.387 Y124.833 E75.4065
G1 X192.722 Y124.635 E75.41944
G1 X193.045 Y124.417 E75.4324
G1 X193.354 Y124.177 E75.44542
G1 X193.644 Y123.92 E75.4583
G1 X193.92 Y123.645 E75.47126
G1 X194.172 Y123.358 E75.48397
G1 X194.41 Y123.052 E75.49686
G1 X194.631 Y122.728 E75.5099
G1 X194.829 Y122.393 E75.52285
G1 X195.006 Y122.047 E75.53577
G1 X195.162 Y121.69 E75.54873
G1 X195.294 Y121.324 E75.56167
G1 X195.402 Y120.95 E75.57462
G1 X195.489 Y120.57 E75.58759
G1 X195.55 Y120.184 E75.60058
G1 X195.586 Y119.797 E75.61351
G1 X195.599 Y119.41 E75.62639
G1 X195.59 Y119.02 E75.63936
G1 X195.554 Y118.631 E75.65236
G1 X195.493 Y118.245 E75.66536
G1 X195.408 Y117.864 E75.67834
G1 X195.3 Y117.492 E75.69122
G1 X195.168 Y117.125 E75.70419
G1 X195.013 Y116.767 E75.71717
G1 X194.837 Y116.42 E75.73011
G1 X194.639 Y116.084 E75.74308
G1 X194.42 Y115.762 E75.75603
G1 X194.183 Y115.455 E75.76893
G1 X193.925 Y115.161 E75.78194
G1 X193.644 Y114.881 E75.79514
G1 X193.353 Y114.623 E75.80807
G1 X193.045 Y114.384 E75.82104
G1 X192.722 Y114.165 E75.83402
G1 X192.387 Y113.967 E75.84696
G1 X192.04 Y113.79 E75.85992
G1 X191.683 Y113.635 E75.87286
G1 X191.316 Y113.503 E75.88583
G1 X190.943 Y113.395 E75.89875
G1 X190.562 Y113.309 E75.91174
G1 X190.177 Y113.248 E75.92471
G1 X189.79 Y113.212 E75.93763
G1 X189.4 Y113.2 E75.95061
G1 X189.01 Y113.212 E75.96359
G1 X188.623 Y113.248 E75.97652
G1 X188.238 Y113.309 E75.98948
G1 X187.857 Y113.395 E76.00247
G1 X187.484 Y113.503 E76.01539
G1 X187.118 Y113.635 E76.02833
G1 X186.76 Y113.79 E76.0413
G1 X186.413 Y113.967 E76.05426
G1 X186.078 Y114.165 E76.0672
G1 X185.755 Y114.384 E76.08018
G1 X185.447 Y114.623 E76.09315
G1 X185.156 Y114.881 E76.10608
G1 X184.886 Y115.151 E76.11878
