;FLAVOR:Marlin
;TIME:5168
;Filament used: 3.83386m
;Layer height: 0.2
;MINX:51
;MINY:85.833
;MINZ:0.2
;MAXX:169
;MAXY:147.333
;MAXZ:10
;Generated with Cura_SteamEngine 4.4.0
M140 S60
M105
M190 S60
M104 S210
M105
M109 S210
M82 ;absolute extrusion mode
M201 X500.00 Y500.00 Z100.00 E5000.00 ;Setup machine max acceleration
M203 X500.00 Y500.00 Z10.00 E50.00 ;Setup machine max feedrate
M204 P500.00 R1000.00 T500.00 ;Setup Print/Retract/Travel acceleration
M205 X8.00 Y8.00 Z0.40 E5.00 ;Setup Jerk
M220 S100 ;Reset Feedrate
M221 S100 ;Reset Flowrate

G28 ;Home

G92 E0 ;Reset Extruder
G1 Z2.0 F3000 ;Move Z Axis up
G1 X10.1 Y20 Z0.28 F5000.0 ;Move to start position
G1 X10.1 Y200.0 Z0.28 F1500.0 E15 ;Draw the first line
G1 X10.4 Y200.0 Z0.28 F5000.0 ;Move to side a little
G1 X10.4 Y20 Z0.28 F1500.0 E30 ;Draw the second line
G92 E0 ;Reset Extruder
G1 Z2.0 F3000 ;Move Z Axis up

G92 E0
G92 E0
G1 F1500 E-6.5
;LAYER_COUNT:50
;LAYER:0
M107
G0 F6000 X56.412 Y87.372 Z0.2
;TYPE:SKIRT
G1 F1500 E0
G1 F1200 X57.239 Y86.93 E0.03119
G1 X58.101 Y86.56 E0.06239
G1 X58.991 Y86.264 E0.09358
G1 X59.903 Y86.046 E0.12477
G1 X60.83 Y85.905 E0.15596
G1 X61.701 Y85.846 E0.18499
G1 X62.022 Y85.837 E0.19567
G1 X62.33 Y85.833 E0.20592
G1 X157.293 Y85.833 E3.3644
G1 X157.451 Y85.834 E3.36966
G1 X158.149 Y85.844 E3.39288
G1 X159.085 Y85.898 E3.42406
G1 X160.013 Y86.03 E3.45523
G1 X160.927 Y86.242 E3.48644
G1 X161.819 Y86.531 E3.51763
G1 X162.684 Y86.894 E3.54883
G1 X163.514 Y87.33 E3.58001
G1 X164.305 Y87.835 E3.61122
G1 X165.049 Y88.406 E3.64242
G1 X165.742 Y89.038 E3.67361
G1 X166.379 Y89.726 E3.7048
G1 X166.954 Y90.467 E3.73599
G1 X167.465 Y91.253 E3.76718
G1 X167.907 Y92.081 E3.79839
G1 X168.276 Y92.943 E3.82958
G1 X168.571 Y93.833 E3.86076
G1 X168.789 Y94.745 E3.89195
G1 X168.929 Y95.673 E3.92317
G1 X168.987 Y96.534 E3.95187
G1 X168.996 Y96.854 E3.96252
G1 X169 Y97.163 E3.97279
G1 X169 Y135.597 E5.25111
G1 X168.999 Y135.733 E5.25564
G1 X168.99 Y136.46 E5.27982
G1 X168.939 Y137.397 E5.31103
G1 X168.807 Y138.325 E5.34221
G1 X168.598 Y139.239 E5.37339
G1 X168.311 Y140.132 E5.40459
G1 X167.949 Y140.998 E5.43581
G1 X167.515 Y141.829 E5.46699
G1 X167.011 Y142.62 E5.49818
G1 X166.442 Y143.365 E5.52936
G1 X165.811 Y144.06 E5.56059
G1 X165.124 Y144.698 E5.59177
G1 X164.385 Y145.275 E5.62295
G1 X163.599 Y145.787 E5.65415
G1 X162.773 Y146.23 E5.68533
G1 X161.911 Y146.602 E5.71655
G1 X161.022 Y146.898 E5.74772
G1 X160.11 Y147.118 E5.77892
G1 X159.183 Y147.259 E5.81011
G1 X158.299 Y147.32 E5.83958
G1 X157.978 Y147.329 E5.85026
G1 X157.67 Y147.333 E5.8605
G1 X62.707 Y147.333 E9.01899
G1 X62.565 Y147.332 E9.02371
G1 X61.867 Y147.323 E9.04693
G1 X60.931 Y147.271 E9.07811
G1 X60.002 Y147.139 E9.10932
G1 X59.088 Y146.929 E9.14051
G1 X58.195 Y146.642 E9.17171
G1 X57.33 Y146.279 E9.20291
G1 X56.499 Y145.845 E9.23409
G1 X55.708 Y145.341 E9.26528
G1 X54.963 Y144.771 E9.29648
G1 X54.269 Y144.14 E9.32768
G1 X53.632 Y143.453 E9.35884
G1 X53.055 Y142.713 E9.39005
G1 X52.543 Y141.927 E9.42125
G1 X52.1 Y141.1 E9.45245
G1 X51.729 Y140.239 E9.48364
G1 X51.433 Y139.349 E9.51483
G1 X51.214 Y138.437 E9.54603
G1 X51.073 Y137.51 E9.57721
G1 X51.013 Y136.621 E9.60685
G1 X51.004 Y136.288 E9.61793
G1 X51 Y135.991 E9.62781
G1 X51 Y97.507 E10.90779
G1 X51.001 Y97.358 E10.91275
G1 X51.01 Y96.693 E10.93487
G1 X51.063 Y95.757 E10.96605
G1 X51.195 Y94.828 E10.99726
G1 X51.406 Y93.914 E11.02846
G1 X51.694 Y93.022 E11.05963
G1 X52.057 Y92.157 E11.09083
G1 X52.492 Y91.326 E11.12203
G1 X52.996 Y90.536 E11.1532
G1 X53.566 Y89.791 E11.1844
G1 X54.198 Y89.097 E11.21562
G1 X54.886 Y88.46 E11.2468
G1 X55.626 Y87.884 E11.27799
G1 X56.412 Y87.372 E11.30919
G0 F6000 X56.791 Y87.615
G1 F1200 X57.611 Y87.197 E11.3398
G1 X58.465 Y86.852 E11.37044
G1 X59.345 Y86.582 E11.40105
G1 X60.245 Y86.39 E11.43166
G1 X61.159 Y86.276 E11.4623
G1 X61.712 Y86.246 E11.48072
G1 X62.033 Y86.237 E11.4914
G1 X62.33 Y86.233 E11.50128
G1 X157.293 Y86.233 E14.65976
G1 X157.445 Y86.234 E14.66482
G1 X158.143 Y86.244 E14.68803
G1 X159.062 Y86.297 E14.71865
G1 X159.973 Y86.43 E14.74927
G1 X160.869 Y86.641 E14.77989
G1 X161.743 Y86.929 E14.81049
G1 X162.59 Y87.292 E14.84114
G1 X163.401 Y87.727 E14.87175
G1 X164.171 Y88.231 E14.90236
G1 X164.895 Y88.8 E14.93299
G1 X165.567 Y89.43 E14.96363
G1 X166.182 Y90.115 E14.99424
G1 X166.735 Y90.851 E15.02486
G1 X167.222 Y91.632 E15.05548
G1 X167.639 Y92.453 E15.0861
G1 X167.984 Y93.307 E15.11674
G1 X168.253 Y94.187 E15.14734
G1 X168.445 Y95.088 E15.17798
G1 X168.558 Y96.001 E15.20858
G1 X168.587 Y96.545 E15.2267
G1 X168.596 Y96.865 E15.23735
G1 X168.6 Y97.163 E15.24726
G1 X168.6 Y135.597 E16.52558
G1 X168.599 Y135.728 E16.52994
G1 X168.59 Y136.455 E16.55412
G1 X168.539 Y137.374 E16.58473
G1 X168.408 Y138.286 E16.61538
G1 X168.198 Y139.182 E16.64599
G1 X167.912 Y140.057 E16.6766
G1 X167.551 Y140.904 E16.70723
G1 X167.117 Y141.716 E16.73785
G1 X166.615 Y142.488 E16.76848
G1 X166.047 Y143.213 E16.79911
G1 X165.419 Y143.886 E16.82973
G1 X164.735 Y144.502 E16.86034
G1 X164 Y145.056 E16.89096
G1 X163.22 Y145.545 E16.92157
G1 X162.4 Y145.964 E16.9522
G1 X161.547 Y146.31 E16.98282
G1 X160.667 Y146.581 E17.01344
G1 X159.767 Y146.774 E17.04406
G1 X158.853 Y146.889 E17.0747
G1 X158.288 Y146.92 E17.09352
G1 X157.967 Y146.929 E17.1042
G1 X157.67 Y146.933 E17.11408
G1 X62.707 Y146.933 E20.27256
G1 X62.57 Y146.932 E20.27712
G1 X61.872 Y146.923 E20.30033
G1 X60.953 Y146.871 E20.33095
G1 X60.042 Y146.74 E20.36156
G1 X59.146 Y146.53 E20.39217
G1 X58.271 Y146.243 E20.4228
G1 X57.424 Y145.881 E20.45343
G1 X56.612 Y145.447 E20.48406
G1 X55.841 Y144.945 E20.51466
G1 X55.116 Y144.377 E20.54529
G1 X54.443 Y143.748 E20.57593
G1 X53.828 Y143.064 E20.60652
G1 X53.274 Y142.329 E20.63713
G1 X52.786 Y141.548 E20.66776
G1 X52.367 Y140.728 E20.69839
G1 X52.021 Y139.875 E20.72901
G1 X51.751 Y138.995 E20.75962
G1 X51.558 Y138.094 E20.79027
G1 X51.444 Y137.181 E20.82087
G1 X51.413 Y136.61 E20.83989
G1 X51.404 Y136.277 E20.85097
G1 X51.4 Y135.991 E20.86049
G1 X51.4 Y97.507 E22.14047
G1 X51.401 Y97.364 E22.14523
G1 X51.41 Y96.699 E22.16735
G1 X51.462 Y95.779 E22.19799
G1 X51.594 Y94.868 E22.22861
G1 X51.805 Y93.972 E22.25923
G1 X52.092 Y93.097 E22.28985
G1 X52.455 Y92.251 E22.32047
G1 X52.889 Y91.439 E22.3511
G1 X53.392 Y90.668 E22.38171
G1 X53.961 Y89.944 E22.41234
G1 X54.589 Y89.272 E22.44293
G1 X55.274 Y88.656 E22.47357
G1 X56.01 Y88.103 E22.50419
G1 X56.791 Y87.615 E22.53482
G0 F6000 X57.169 Y87.864
G1 F1200 X57.982 Y87.471 E22.56486
G1 X58.827 Y87.151 E22.59491
G1 X59.696 Y86.908 E22.62492
G1 X60.584 Y86.742 E22.65497
G1 X61.723 Y86.646 E22.69299
G1 X62.044 Y86.637 E22.70367
G1 X62.33 Y86.633 E22.71318
G1 X157.293 Y86.633 E25.87166
G1 X157.439 Y86.634 E25.87652
G1 X158.137 Y86.644 E25.89974
G1 X159.039 Y86.697 E25.92979
G1 X159.932 Y86.829 E25.95981
G1 X160.81 Y87.04 E25.98985
G1 X161.666 Y87.328 E26.01989
G1 X162.493 Y87.69 E26.04991
G1 X163.285 Y88.125 E26.07996
G1 X164.036 Y88.627 E26.11001
G1 X164.739 Y89.194 E26.14005
G1 X165.389 Y89.821 E26.17009
G1 X165.981 Y90.503 E26.20012
G1 X166.511 Y91.234 E26.23016
G1 X166.973 Y92.01 E26.26019
G1 X167.366 Y92.823 E26.29023
G1 X167.684 Y93.668 E26.32026
G1 X167.927 Y94.538 E26.3503
G1 X168.092 Y95.426 E26.38034
G1 X168.187 Y96.556 E26.41806
G1 X168.196 Y96.876 E26.4287
G1 X168.2 Y97.163 E26.43825
G1 X168.2 Y135.597 E27.71657
G1 X168.199 Y135.723 E27.72076
G1 X168.19 Y136.45 E27.74494
G1 X168.139 Y137.352 E27.77499
G1 X168.008 Y138.246 E27.80504
G1 X167.799 Y139.124 E27.83506
G1 X167.513 Y139.981 E27.86511
G1 X167.152 Y140.809 E27.89516
G1 X166.72 Y141.601 E27.92516
G1 X166.219 Y142.353 E27.95522
G1 X165.653 Y143.057 E27.98526
G1 X165.028 Y143.708 E28.01528
G1 X164.347 Y144.302 E28.04533
G1 X163.616 Y144.833 E28.07538
G1 X162.842 Y145.297 E28.1054
G1 X162.029 Y145.691 E28.13545
G1 X161.185 Y146.011 E28.16547
G1 X160.315 Y146.256 E28.19553
G1 X159.428 Y146.422 E28.22554
G1 X158.277 Y146.52 E28.26396
G1 X157.956 Y146.529 E28.27464
G1 X157.67 Y146.533 E28.28416
G1 X62.707 Y146.533 E31.44264
G1 X62.575 Y146.532 E31.44703
G1 X61.877 Y146.523 E31.47025
G1 X60.976 Y146.472 E31.50026
G1 X60.082 Y146.34 E31.53032
G1 X59.204 Y146.131 E31.56034
G1 X58.347 Y145.844 E31.5904
G1 X57.52 Y145.483 E31.62041
G1 X56.727 Y145.05 E31.65046
G1 X55.976 Y144.549 E31.68049
G1 X55.272 Y143.983 E31.71053
G1 X54.621 Y143.357 E31.74057
G1 X54.028 Y142.676 E31.7706
G1 X53.498 Y141.945 E31.80064
G1 X53.034 Y141.17 E31.83068
G1 X52.64 Y140.357 E31.86073
G1 X52.32 Y139.513 E31.89075
G1 X52.076 Y138.643 E31.9208
G1 X51.91 Y137.755 E31.95085
G1 X51.813 Y136.6 E31.9894
G1 X51.804 Y136.267 E32.00048
G1 X51.8 Y135.991 E32.00966
G1 X51.8 Y97.507 E33.28964
G1 X51.801 Y97.369 E33.29423
G1 X51.81 Y96.704 E33.31635
G1 X51.862 Y95.802 E33.3464
G1 X51.994 Y94.909 E33.37643
G1 X52.204 Y94.031 E33.40645
G1 X52.491 Y93.174 E33.43651
G1 X52.853 Y92.347 E33.46654
G1 X53.286 Y91.555 E33.49656
G1 X53.788 Y90.804 E33.52661
G1 X54.355 Y90.1 E33.55667
G1 X54.981 Y89.45 E33.58669
G1 X55.662 Y88.857 E33.61672
G1 X56.394 Y88.327 E33.64678
G1 X57.169 Y87.864 E33.6768
G1 F1500 E27.1768
;MESH:actions_tracker_board.stl
G0 F6000 X62.414 Y96.168
G0 X62.414 Y97.247
G0 X63 Y135.333
;TYPE:WALL-INNER
G1 F1500 E33.6768
G1 F1200 X63 Y97.833 E34.92406
G1 X157 Y97.833 E38.05051
G1 X157 Y135.333 E39.29777
G1 X63 Y135.333 E42.42422
G0 F6000 X62.6 Y135.733
G1 F1200 X62.6 Y97.433 E43.69808
G1 X157.4 Y97.433 E46.85114
G1 X157.4 Y135.733 E48.12501
G1 X62.6 Y135.733 E51.27807
G0 F6000 X62.2 Y136.133
;TYPE:WALL-OUTER
G1 F1200 X62.2 Y97.033 E52.57854
G1 X157.8 Y97.033 E55.75821
G1 X157.8 Y136.133 E57.05868
G1 X62.2 Y136.133 E60.23835
G0 F6000 X62.47 Y135.863
G0 X63.11 Y134.943
G0 X63.39 Y134.943
;TYPE:SKIN
G1 F1200 X63.39 Y98.223 E61.45966
G1 X156.61 Y98.223 E64.56017
G1 X156.61 Y134.943 E65.78148
G1 X63.39 Y134.943 E68.88199
G0 F6000 X64.071 Y134.782
G1 F1200 X63.549 Y134.26 E68.90655
G0 F6000 X63.549 Y133.694
G1 F1200 X64.637 Y134.782 E68.95772
G0 F6000 X65.203 Y134.782
G1 F1200 X63.549 Y133.129 E69.0355
G0 F6000 X63.549 Y132.563
G1 F1200 X65.768 Y134.782 E69.13987
G0 F6000 X66.334 Y134.782
G1 F1200 X63.549 Y131.997 E69.27087
G0 F6000 X63.549 Y131.432
G1 F1200 X66.9 Y134.782 E69.42847
G0 F6000 X67.465 Y134.782
G1 F1200 X63.549 Y130.866 E69.61266
G0 F6000 X63.549 Y130.3
G1 F1200 X68.031 Y134.782 E69.82348
G0 F6000 X68.597 Y134.782
G1 F1200 X63.549 Y129.735 E70.0609
G0 F6000 X63.549 Y129.169
G1 F1200 X69.162 Y134.782 E70.32492
G0 F6000 X69.728 Y134.782
G1 F1200 X63.549 Y128.603 E70.61556
G0 F6000 X63.549 Y128.037
G1 F1200 X70.294 Y134.782 E70.93283
G0 F6000 X70.859 Y134.782
G1 F1200 X63.549 Y127.472 E71.27667
G0 F6000 X63.549 Y126.906
G1 F1200 X71.425 Y134.782 E71.64713
G0 F6000 X71.991 Y134.782
G1 F1200 X63.549 Y126.34 E72.04421
G0 F6000 X63.549 Y125.775
G1 F1200 X72.556 Y134.782 E72.46788
G0 F6000 X73.122 Y134.782
G1 F1200 X63.549 Y125.209 E72.91816
G0 F6000 X63.549 Y124.643
G1 F1200 X73.688 Y134.782 E73.39507
G0 F6000 X74.253 Y134.782
G1 F1200 X63.549 Y124.078 E73.89855
G0 F6000 X63.549 Y123.512
G1 F1200 X74.819 Y134.782 E74.42866
G0 F6000 X75.385 Y134.782
G1 F1200 X63.549 Y122.946 E74.98539
G0 F6000 X63.549 Y122.381
G1 F1200 X75.951 Y134.782 E75.56872
G0 F6000 X76.516 Y134.782
G1 F1200 X63.549 Y121.815 E76.17864
G0 F6000 X63.549 Y121.249
G1 F1200 X77.082 Y134.782 E76.81519
G0 F6000 X77.648 Y134.782
G1 F1200 X63.549 Y120.684 E77.47834
G0 F6000 X63.549 Y120.118
G1 F1200 X78.213 Y134.782 E78.16809
G0 F6000 X78.779 Y134.782
G1 F1200 X63.549 Y119.552 E78.88447
G0 F6000 X63.549 Y118.986
G1 F1200 X79.345 Y134.782 E79.62746
G0 F6000 X79.91 Y134.782
G1 F1200 X63.549 Y118.421 E80.39703
G0 F6000 X63.549 Y117.855
G1 F1200 X80.476 Y134.782 E81.19323
G0 F6000 X81.042 Y134.782
G1 F1200 X63.549 Y117.289 E82.01604
G0 F6000 X63.549 Y116.724
G1 F1200 X81.607 Y134.782 E82.86544
G0 F6000 X82.173 Y134.782
G1 F1200 X63.549 Y116.158 E83.74145
G0 F6000 X63.549 Y115.592
G1 F1200 X82.739 Y134.782 E84.64409
G0 F6000 X83.304 Y134.782
G1 F1200 X63.549 Y115.027 E85.57331
G0 F6000 X63.549 Y114.461
G1 F1200 X83.87 Y134.782 E86.52914
G0 F6000 X84.436 Y134.782
G1 F1200 X63.549 Y113.895 E87.5116
G0 F6000 X63.549 Y113.33
G1 F1200 X85.002 Y134.782 E88.52066
G0 F6000 X85.567 Y134.782
G1 F1200 X63.549 Y112.764 E89.55632
G0 F6000 X63.549 Y112.198
G1 F1200 X86.133 Y134.782 E90.61861
G0 F6000 X86.699 Y134.782
G1 F1200 X63.549 Y111.633 E91.70749
G0 F6000 X63.549 Y111.067
G1 F1200 X87.264 Y134.782 E92.82297
G0 F6000 X87.83 Y134.782
G1 F1200 X63.549 Y110.501 E93.96507
G0 F6000 X63.549 Y109.936
G1 F1200 X88.396 Y134.782 E95.13378
G0 F6000 X88.961 Y134.782
G1 F1200 X63.549 Y109.37 E96.32908
G0 F6000 X63.549 Y108.804
G1 F1200 X89.527 Y134.782 E97.551
G0 F6000 X90.093 Y134.782
G1 F1200 X63.549 Y108.238 E98.79955
G0 F6000 X63.549 Y107.673
G1 F1200 X90.658 Y134.782 E100.07468
G0 F6000 X91.224 Y134.782
G1 F1200 X63.549 Y107.107 E101.37642
G0 F6000 X63.549 Y106.541
G1 F1200 X91.79 Y134.782 E102.70479
G0 F6000 X92.355 Y134.782
G1 F1200 X63.549 Y105.976 E104.05974
G0 F6000 X63.549 Y105.41
G1 F1200 X92.921 Y134.782 E105.44131
G0 F6000 X93.487 Y134.782
G1 F1200 X63.549 Y104.844 E106.8495
G0 F6000 X63.549 Y104.279
G1 F1200 X94.052 Y134.782 E108.28427
G0 F6000 X94.618 Y134.782
G1 F1200 X63.549 Y103.713 E109.74566
G0 F6000 X63.549 Y103.147
G1 F1200 X95.184 Y134.782 E111.23367
G0 F6000 X95.75 Y134.782
G1 F1200 X63.549 Y102.582 E112.74828
G0 F6000 X63.549 Y102.016
G1 F1200 X96.315 Y134.782 E114.2895
G0 F6000 X96.881 Y134.782
G1 F1200 X63.549 Y101.45 E115.85733
G0 F6000 X63.549 Y100.885
G1 F1200 X97.447 Y134.782 E117.45177
G0 F6000 X98.012 Y134.782
G1 F1200 X63.549 Y100.319 E119.0728
G0 F6000 X63.549 Y99.753
G1 F1200 X98.578 Y134.782 E120.72046
G0 F6000 X99.144 Y134.782
G1 F1200 X63.549 Y99.187 E122.39474
G0 F6000 X63.549 Y98.622
G1 F1200 X99.709 Y134.782 E124.09559
G0 F6000 X100.275 Y134.782
G1 F1200 X63.875 Y98.382 E125.80774
G0 F6000 X64.441 Y98.382
G1 F1200 X100.841 Y134.782 E127.51988
G0 F6000 X101.406 Y134.782
G1 F1200 X65.007 Y98.382 E129.232
G0 F6000 X65.572 Y98.382
G1 F1200 X101.972 Y134.782 E130.94415
G0 F6000 X102.538 Y134.782
G1 F1200 X66.138 Y98.382 E132.65629
G0 F6000 X66.704 Y98.382
G1 F1200 X103.103 Y134.782 E134.36841
G0 F6000 X103.669 Y134.782
G1 F1200 X67.269 Y98.382 E136.08056
G0 F6000 X67.835 Y98.382
G1 F1200 X104.235 Y134.782 E137.7927
G0 F6000 X104.801 Y134.782
G1 F1200 X68.401 Y98.382 E139.50484
G0 F6000 X68.966 Y98.382
G1 F1200 X105.366 Y134.782 E141.21699
G0 F6000 X105.932 Y134.782
G1 F1200 X69.532 Y98.382 E142.92913
G0 F6000 X70.098 Y98.382
G1 F1200 X106.498 Y134.782 E144.64128
G0 F6000 X107.063 Y134.782
G1 F1200 X70.664 Y98.382 E146.3534
G0 F6000 X71.229 Y98.382
G1 F1200 X107.629 Y134.782 E148.06554
G0 F6000 X108.195 Y134.782
G1 F1200 X71.795 Y98.382 E149.77769
G0 F6000 X72.361 Y98.382
G1 F1200 X108.76 Y134.782 E151.48981
G0 F6000 X109.326 Y134.782
G1 F1200 X72.926 Y98.382 E153.20195
G0 F6000 X73.492 Y98.382
G1 F1200 X109.892 Y134.782 E154.9141
G0 F6000 X110.457 Y134.782
G1 F1200 X74.058 Y98.382 E156.62622
G0 F6000 X74.623 Y98.382
G1 F1200 X111.023 Y134.782 E158.33836
G0 F6000 X111.589 Y134.782
G1 F1200 X75.189 Y98.382 E160.05051
G0 F6000 X75.755 Y98.382
G1 F1200 X112.154 Y134.782 E161.76263
G0 F6000 X112.72 Y134.782
G1 F1200 X76.32 Y98.382 E163.47477
G0 F6000 X76.886 Y98.382
G1 F1200 X113.286 Y134.782 E165.18692
G0 F6000 X113.851 Y134.782
G1 F1200 X77.452 Y98.382 E166.89904
G0 F6000 X78.017 Y98.382
G1 F1200 X114.417 Y134.782 E168.61118
G0 F6000 X114.983 Y134.782
G1 F1200 X78.583 Y98.382 E170.32333
G0 F6000 X79.149 Y98.382
G1 F1200 X115.549 Y134.782 E172.03547
G0 F6000 X116.114 Y134.782
G1 F1200 X79.714 Y98.382 E173.74761
G0 F6000 X80.28 Y98.382
G1 F1200 X116.68 Y134.782 E175.45976
G0 F6000 X117.246 Y134.782
G1 F1200 X80.846 Y98.382 E177.1719
G0 F6000 X81.412 Y98.382
G1 F1200 X117.811 Y134.782 E178.88402
G0 F6000 X118.377 Y134.782
G1 F1200 X81.977 Y98.382 E180.59617
G0 F6000 X82.543 Y98.382
G1 F1200 X118.943 Y134.782 E182.30831
G0 F6000 X119.508 Y134.782
G1 F1200 X83.109 Y98.382 E184.02043
G0 F6000 X83.674 Y98.382
G1 F1200 X120.074 Y134.782 E185.73258
