;FLAVOR:Marlin
;TIME:5904
;Filament used: 4.15524m
;Layer height: 0.2
;MINX:69
;MINY:51.5
;MINZ:0.2
;MAXX:151
;MAXY:168.5
;MAXZ:7
;Generated with Cura_SteamEngine 4.4.0
M140 S60
M105
M190 S60
M104 S210
M105
M109 S210
M82 ;absolute extrusion mode
M201 X500.00 Y500.00 Z100.00 E5000.00 ;Setup machine max acceleration
M203 X500.00 Y500.00 Z10.00 E50.00 ;Setup machine max feedrate
M204 P500.00 R1000.00 T500.00 ;Setup Print/Retract/Travel acceleration
M205 X8.00 Y8.00 Z0.40 E5.00 ;Setup Jerk
M220 S100 ;Reset Feedrate
M221 S100 ;Reset Flowrate

G28 ;Home

G92 E0 ;Reset Extruder
G1 Z2.0 F3000 ;Move Z Axis up
G1 X10.1 Y20 Z0.28 F5000.0 ;Move to start position
G1 X10.1 Y200.0 Z0.28 F1500.0 E15 ;Draw the first line
G1 X10.4 Y200.0 Z0.28 F5000.0 ;Move to side a little
G1 X10.4 Y20 Z0.28 F1500.0 E30 ;Draw the second line
G92 E0 ;Reset Extruder
G1 Z2.0 F3000 ;Move Z Axis up

G92 E0
G92 E0
G1 F1500 E-6.5
;LAYER_COUNT:35
;LAYER:0
M107
G0 F6000 X71.768 Y62.682 Z0.2
;TYPE:SKIRT
G1 F1500 E0
G1 F1200 X76.972 Y56.176 E0.2771
G1 X77.077 Y56.047 E0.28263
G1 X77.52 Y55.51 E0.30578
G1 X78.147 Y54.813 E0.33697
G1 X78.831 Y54.171 E0.36817
G1 X79.567 Y53.59 E0.39936
G1 X80.351 Y53.075 E0.43055
G1 X81.175 Y52.627 E0.46175
G1 X82.034 Y52.252 E0.49292
G1 X82.923 Y51.951 E0.52414
G1 X83.833 Y51.727 E0.55531
G1 X84.76 Y51.581 E0.58652
G1 X85.66 Y51.515 E0.61654
G1 X85.883 Y51.508 E0.62396
G1 X86.111 Y51.504 E0.63154
G1 X86.392 Y51.501 E0.64089
G1 X86.509 Y51.5 E0.64478
G1 X133.293 Y51.5 E2.20082
G1 X133.45 Y51.501 E2.20604
G1 X134.151 Y51.511 E2.22936
G1 X135.087 Y51.564 E2.26054
G1 X136.016 Y51.697 E2.29176
G1 X136.929 Y51.909 E2.32293
G1 X137.822 Y52.197 E2.35414
G1 X138.686 Y52.561 E2.38532
G1 X139.517 Y52.997 E2.41653
G1 X140.307 Y53.502 E2.44772
G1 X141.051 Y54.072 E2.47889
G1 X141.744 Y54.704 E2.51009
G1 X142.429 Y55.45 E2.54377
G1 X142.732 Y55.812 E2.55947
G1 X142.886 Y56 E2.56756
G1 X148.142 Y62.569 E2.84737
G1 X148.247 Y62.702 E2.85301
G1 X148.678 Y63.258 E2.87641
G1 X149.22 Y64.023 E2.90759
G1 X149.696 Y64.831 E2.93878
G1 X150.1 Y65.677 E2.96996
G1 X150.432 Y66.555 E3.00118
G1 X150.687 Y67.457 E3.03236
G1 X150.864 Y68.378 E3.06355
G1 X150.98 Y69.712 E3.10809
G1 X150.996 Y70.329 E3.12862
G1 X151 Y70.614 E3.1381
G1 X151 Y82.794 E3.54321
G1 X150.999 Y82.952 E3.54846
G1 X150.989 Y83.65 E3.57168
G1 X150.935 Y84.586 E3.60286
G1 X150.803 Y85.514 E3.63404
G1 X150.639 Y86.248 E3.65905
G1 X149.967 Y88.846 E3.74831
G1 X149.393 Y91.344 E3.83356
G1 X148.907 Y93.78 E3.91617
G1 X148.482 Y96.275 E4.00035
G1 X148.132 Y98.744 E4.08329
G1 X147.847 Y101.27 E4.16784
G1 X147.636 Y103.765 E4.25112
G1 X147.496 Y106.281 E4.33493
G1 X147.426 Y108.804 E4.41888
G1 X147.428 Y111.329 E4.50286
G1 X147.5 Y113.815 E4.58558
G1 X147.645 Y116.333 E4.66947
G1 X147.861 Y118.858 E4.75376
G1 X148.147 Y121.355 E4.83735
G1 X148.503 Y123.844 E4.92098
G1 X148.931 Y126.335 E5.00505
G1 X149.423 Y128.774 E5.0878
G1 X150.001 Y131.281 E5.17337
G1 X150.39 Y132.805 E5.22568
G1 X150.616 Y133.652 E5.25484
G1 X150.819 Y134.568 E5.28605
G1 X150.943 Y135.497 E5.31722
G1 X150.98 Y136.067 E5.33622
G1 X150.99 Y136.328 E5.34491
G1 X150.998 Y136.744 E5.35874
G1 X151 Y141.151 E5.50532
G1 X150.999 Y141.314 E5.51074
G1 X150.99 Y141.94 E5.53157
G1 X150.99 Y144.565 E5.61887
G1 X150.994 Y144.743 E5.6248
G1 X150.997 Y144.913 E5.63045
G1 X151 Y145.335 E5.64449
G1 X151 Y149.293 E5.77613
G1 X150.999 Y149.451 E5.78139
G1 X150.989 Y150.149 E5.8046
G1 X150.935 Y151.085 E5.83579
G1 X150.803 Y152.013 E5.86696
G1 X150.591 Y152.927 E5.89817
G1 X150.302 Y153.819 E5.92936
G1 X149.939 Y154.684 E5.96056
G1 X149.503 Y155.514 E5.99174
G1 X148.734 Y156.664 E6.03775
G1 X148.386 Y157.12 E6.05683
G1 X148.232 Y157.318 E6.06517
G1 X143.043 Y163.805 E6.34147
G1 X142.943 Y163.928 E6.34674
G1 X142.485 Y164.484 E6.3707
G1 X141.859 Y165.182 E6.40188
G1 X141.175 Y165.824 E6.43308
G1 X140.439 Y166.405 E6.46427
G1 X139.656 Y166.921 E6.49546
G1 X138.832 Y167.369 E6.52666
G1 X137.973 Y167.745 E6.55784
G1 X137.085 Y168.047 E6.58904
G1 X136.174 Y168.272 E6.62025
G1 X135.248 Y168.418 E6.65143
G1 X134.34 Y168.485 E6.68171
G1 X134.117 Y168.492 E6.68913
G1 X133.889 Y168.496 E6.69672
G1 X133.608 Y168.499 E6.70606
G1 X133.491 Y168.5 E6.70996
G1 X130.344 Y168.5 E6.81463
G1 X130.186 Y168.499 E6.81988
G1 X129.56 Y168.49 E6.8407
G1 X126.935 Y168.49 E6.92801
G1 X126.757 Y168.494 E6.93393
G1 X126.587 Y168.497 E6.93959
G1 X126.165 Y168.5 E6.95362
G1 X112.344 Y168.5 E7.41331
G1 X112.186 Y168.499 E7.41857
G1 X111.56 Y168.49 E7.43939
G1 X108.935 Y168.49 E7.5267
G1 X108.757 Y168.494 E7.53262
G1 X108.587 Y168.497 E7.53828
G1 X108.165 Y168.5 E7.55231
G1 X94.344 Y168.5 E8.012
G1 X94.186 Y168.499 E8.01726
G1 X93.56 Y168.49 E8.03808
G1 X90.935 Y168.49 E8.12539
G1 X90.757 Y168.494 E8.13131
G1 X90.587 Y168.497 E8.13696
G1 X90.165 Y168.5 E8.151
G1 X86.707 Y168.5 E8.26601
G1 X86.549 Y168.499 E8.27127
G1 X85.851 Y168.489 E8.29449
G1 X84.915 Y168.435 E8.32567
G1 X83.987 Y168.303 E8.35685
G1 X83.073 Y168.091 E8.38805
G1 X82.181 Y167.802 E8.41924
G1 X81.316 Y167.439 E8.45044
G1 X80.486 Y167.003 E8.48162
G1 X79.695 Y166.498 E8.51284
G1 X78.951 Y165.927 E8.54403
G1 X78.258 Y165.295 E8.57522
G1 X77.739 Y164.743 E8.60042
G1 X77.582 Y164.564 E8.60834
G1 X77.317 Y164.25 E8.62201
G1 X77.13 Y164.02 E8.63187
G1 X77.076 Y163.953 E8.63473
G1 X71.858 Y157.431 E8.91253
G1 X71.766 Y157.314 E8.91749
G1 X71.331 Y156.755 E8.94104
G1 X70.787 Y155.991 E8.97224
G1 X70.31 Y155.184 E9.00342
G1 X69.904 Y154.339 E9.0346
G1 X69.571 Y153.462 E9.0658
G1 X69.314 Y152.56 E9.09699
G1 X69.135 Y151.639 E9.1282
G1 X69.035 Y150.707 E9.15938
G1 X69.014 Y150.215 E9.17575
G1 X69.002 Y149.601 E9.19618
G1 X69 Y149.386 E9.20333
G1 X69 Y145.826 E9.32174
G1 X69.001 Y145.664 E9.32713
G1 X69.01 Y145.055 E9.34738
G1 X69.01 Y142.435 E9.43452
G1 X69.006 Y142.257 E9.44045
G1 X69.003 Y142.087 E9.4461
G1 X69 Y141.665 E9.46014
G1 X69 Y137.207 E9.60841
G1 X69.001 Y137.049 E9.61367
G1 X69.011 Y136.352 E9.63685
G1 X69.065 Y135.416 E9.66803
G1 X69.198 Y134.487 E9.69925
G1 X69.362 Y133.749 E9.72439
G1 X70.023 Y131.201 E9.81195
G1 X70.597 Y128.711 E9.89693
G1 X71.079 Y126.303 E9.97861
G1 X71.509 Y123.785 E10.06358
G1 X71.862 Y121.307 E10.14683
G1 X72.148 Y118.788 E10.23115
G1 X72.361 Y116.29 E10.31453
G1 X72.502 Y113.808 E10.39722
G1 X72.574 Y111.251 E10.4823
G1 X72.574 Y108.762 E10.56508
G1 X72.502 Y106.205 E10.65016
G1 X72.361 Y103.721 E10.73291
G1 X72.149 Y101.228 E10.81613
G1 X71.862 Y98.707 E10.90052
G1 X71.505 Y96.199 E10.98478
G1 X71.088 Y93.764 E11.06694
G1 X70.581 Y91.239 E11.1526
G1 X70.027 Y88.829 E11.23485
G1 X69.601 Y87.161 E11.29211
G1 X69.381 Y86.336 E11.32051
G1 X69.179 Y85.421 E11.35167
G1 X69.055 Y84.491 E11.38288
G1 X69.016 Y83.863 E11.40381
G1 X69.007 Y83.589 E11.41292
G1 X69.001 Y83.229 E11.4249
G1 X69 Y70.708 E11.84135
G1 X69.001 Y70.549 E11.84664
G1 X69.011 Y69.851 E11.86986
G1 X69.065 Y68.915 E11.90104
G1 X69.197 Y67.987 E11.93222
G1 X69.409 Y67.073 E11.96342
G1 X69.698 Y66.181 E11.99461
G1 X70.061 Y65.316 E12.02581
G1 X70.497 Y64.486 E12.05699
G1 X71.266 Y63.336 E12.103
G1 X71.614 Y62.88 E12.12208
G1 X71.768 Y62.682 E12.13043
G0 F6000 X72.08 Y62.932
G1 F1200 X77.284 Y56.426 E12.40752
G1 X77.385 Y56.302 E12.41284
G1 X77.828 Y55.765 E12.436
G1 X78.444 Y55.08 E12.46664
G1 X79.118 Y54.452 E12.49728
G1 X79.843 Y53.885 E12.52789
G1 X80.614 Y53.383 E12.55849
G1 X81.427 Y52.95 E12.58913
G1 X82.274 Y52.589 E12.61975
G1 X83.148 Y52.302 E12.65035
G1 X84.045 Y52.093 E12.68098
G1 X84.956 Y51.962 E12.71159
G1 X85.672 Y51.915 E12.73546
G1 X85.895 Y51.908 E12.74288
G1 X86.115 Y51.904 E12.7502
G1 X86.396 Y51.901 E12.75954
G1 X86.509 Y51.9 E12.7633
G1 X133.293 Y51.9 E14.31934
G1 X133.444 Y51.901 E14.32437
G1 X134.145 Y51.911 E14.34768
G1 X135.064 Y51.964 E14.3783
G1 X135.975 Y52.097 E14.40892
G1 X136.871 Y52.308 E14.43954
G1 X137.746 Y52.596 E14.47018
G1 X138.592 Y52.959 E14.5008
G1 X139.403 Y53.394 E14.53141
G1 X140.174 Y53.898 E14.56204
G1 X140.898 Y54.467 E14.59267
G1 X141.57 Y55.096 E14.62328
G1 X142.122 Y55.706 E14.65065
G1 X142.425 Y56.068 E14.66635
G1 X142.574 Y56.25 E14.67417
G1 X147.83 Y62.819 E14.95399
G1 X147.931 Y62.947 E14.95941
G1 X148.362 Y63.503 E14.98281
G1 X148.894 Y64.254 E15.01342
G1 X149.358 Y65.049 E15.04403
G1 X149.752 Y65.881 E15.07465
G1 X150.073 Y66.744 E15.10528
G1 X150.317 Y67.632 E15.13591
G1 X150.483 Y68.537 E15.16651
G1 X150.58 Y69.722 E15.20605
G1 X150.596 Y70.339 E15.22658
G1 X150.6 Y70.614 E15.23573
G1 X150.6 Y82.794 E15.64084
G1 X150.599 Y82.946 E15.64589
G1 X150.589 Y83.644 E15.66911
G1 X150.536 Y84.563 E15.69973
G1 X150.403 Y85.474 E15.73035
G1 X150.252 Y86.148 E15.75332
G1 X149.575 Y88.762 E15.84313
G1 X148.997 Y91.281 E15.92909
G1 X148.52 Y93.672 E16.01018
G1 X148.085 Y96.224 E16.09629
G1 X147.732 Y98.714 E16.17993
G1 X147.449 Y101.228 E16.26408
G1 X147.236 Y103.742 E16.34799
G1 X147.096 Y106.248 E16.43147
G1 X147.026 Y108.793 E16.51615
G1 X147.028 Y111.306 E16.59974
G1 X147.102 Y113.849 E16.68435
G1 X147.247 Y116.389 E16.76897
G1 X147.463 Y118.905 E16.85296
G1 X147.747 Y121.387 E16.93605
G1 X148.106 Y123.897 E17.02038
G1 X148.538 Y126.41 E17.10519
G1 X149.034 Y128.871 E17.18869
G1 X149.604 Y131.343 E17.27307
G1 X150.004 Y132.908 E17.32679
G1 X150.23 Y133.755 E17.35595
G1 X150.428 Y134.654 E17.38657
G1 X150.548 Y135.567 E17.4172
G1 X150.58 Y136.082 E17.43436
G1 X150.59 Y136.343 E17.44304
G1 X150.598 Y136.744 E17.45638
G1 X150.6 Y141.151 E17.60296
G1 X150.599 Y141.309 E17.60822
G1 X150.59 Y141.935 E17.62904
G1 X150.59 Y144.574 E17.71681
G1 X150.594 Y144.752 E17.72274
G1 X150.597 Y144.916 E17.72819
G1 X150.6 Y145.338 E17.74223
G1 X150.6 Y149.293 E17.87377
G1 X150.599 Y149.445 E17.87883
G1 X150.589 Y150.143 E17.90204
G1 X150.536 Y151.062 E17.93266
G1 X150.403 Y151.973 E17.96328
G1 X150.192 Y152.869 E17.9939
G1 X149.904 Y153.743 E18.02451
G1 X149.541 Y154.59 E18.05516
G1 X149.106 Y155.401 E18.08576
G1 X148.416 Y156.422 E18.12675
G1 X148.068 Y156.878 E18.14583
G1 X147.92 Y157.068 E18.15384
G1 X142.731 Y163.555 E18.43013
G1 X142.635 Y163.674 E18.43522
G1 X142.177 Y164.23 E18.45918
G1 X141.561 Y164.914 E18.48979
G1 X140.888 Y165.543 E18.52043
G1 X140.163 Y166.11 E18.55104
G1 X139.392 Y166.613 E18.58166
G1 X138.58 Y167.047 E18.61229
G1 X137.734 Y167.409 E18.64289
G1 X136.859 Y167.696 E18.67352
G1 X135.962 Y167.906 E18.70416
G1 X135.051 Y168.037 E18.73477
G1 X134.328 Y168.085 E18.75887
G1 X134.105 Y168.092 E18.76629
G1 X133.885 Y168.096 E18.77361
G1 X133.604 Y168.099 E18.78296
G1 X133.491 Y168.1 E18.78672
G1 X130.344 Y168.1 E18.89139
G1 X130.191 Y168.099 E18.89647
G1 X129.565 Y168.09 E18.9173
G1 X126.926 Y168.09 E19.00507
G1 X126.748 Y168.094 E19.01099
G1 X126.584 Y168.097 E19.01645
G1 X126.162 Y168.1 E19.03048
G1 X112.344 Y168.1 E19.49007
G1 X112.191 Y168.099 E19.49516
G1 X111.565 Y168.09 E19.51599
G1 X108.926 Y168.09 E19.60376
G1 X108.748 Y168.094 E19.60968
G1 X108.584 Y168.097 E19.61514
G1 X108.162 Y168.1 E19.62917
G1 X94.344 Y168.1 E20.08876
G1 X94.191 Y168.099 E20.09385
G1 X93.565 Y168.09 E20.11467
G1 X90.926 Y168.09 E20.20245
G1 X90.748 Y168.094 E20.20837
G1 X90.584 Y168.097 E20.21382
G1 X90.162 Y168.1 E20.22786
G1 X86.707 Y168.1 E20.34277
G1 X86.555 Y168.099 E20.34783
G1 X85.857 Y168.089 E20.37105
G1 X84.938 Y168.036 E20.40166
G1 X84.027 Y167.903 E20.43228
G1 X83.131 Y167.692 E20.4629
G1 X82.257 Y167.404 E20.49351
G1 X81.41 Y167.041 E20.52416
G1 X80.599 Y166.606 E20.55477
G1 X79.829 Y166.102 E20.58538
G1 X79.105 Y165.533 E20.616
G1 X78.433 Y164.903 E20.64664
G1 X78.04 Y164.48 E20.66584
G1 X77.883 Y164.301 E20.67376
G1 X77.627 Y163.998 E20.68696
G1 X77.44 Y163.768 E20.69682
G1 X77.388 Y163.703 E20.69958
G1 X72.17 Y157.181 E20.97739
G1 X72.081 Y157.069 E20.98215
G1 X71.646 Y156.51 E21.00571
G1 X71.113 Y155.759 E21.03633
G1 X70.647 Y154.966 E21.06693
G1 X70.251 Y154.134 E21.09757
G1 X69.93 Y153.272 E21.12817
G1 X69.684 Y152.384 E21.15882
G1 X69.516 Y151.479 E21.18943
G1 X69.414 Y150.207 E21.23187
G1 X69.402 Y149.593 E21.2523
G1 X69.4 Y149.386 E21.25918
G1 X69.4 Y145.826 E21.37759
G1 X69.401 Y145.669 E21.38281
G1 X69.41 Y145.06 E21.40307
G1 X69.41 Y142.426 E21.49068
G1 X69.406 Y142.248 E21.4966
G1 X69.403 Y142.084 E21.50205
G1 X69.4 Y141.662 E21.51609
G1 X69.4 Y137.207 E21.66426
G1 X69.401 Y137.055 E21.66932
G1 X69.411 Y136.358 E21.6925
G1 X69.464 Y135.439 E21.72312
G1 X69.597 Y134.528 E21.75374
G1 X69.749 Y133.85 E21.77685
G1 X70.412 Y131.294 E21.86468
G1 X70.985 Y128.806 E21.9496
G1 X71.478 Y126.343 E22.03314
G1 X71.901 Y123.872 E22.11652
G1 X72.262 Y121.337 E22.20169
G1 X72.542 Y118.866 E22.2844
G1 X72.76 Y116.31 E22.36972
G1 X72.902 Y113.808 E22.45307
G1 X72.974 Y111.262 E22.53779
G1 X72.974 Y108.751 E22.6213
G1 X72.902 Y106.207 E22.70595
G1 X72.76 Y103.702 E22.7894
G1 X72.542 Y101.147 E22.87469
G1 X72.262 Y98.672 E22.95753
G1 X71.903 Y96.152 E23.04219
G1 X71.474 Y93.649 E23.12666
G1 X70.986 Y91.218 E23.20913
G1 X70.411 Y88.718 E23.29445
G1 X69.96 Y86.953 E23.35504
G1 X69.768 Y86.233 E23.37982
G1 X69.57 Y85.334 E23.41044
G1 X69.45 Y84.421 E23.44107
G1 X69.416 Y83.85 E23.46009
G1 X69.407 Y83.576 E23.46921
G1 X69.401 Y83.229 E23.48075
G1 X69.4 Y70.708 E23.8972
G1 X69.401 Y70.555 E23.90229
G1 X69.411 Y69.857 E23.92551
G1 X69.464 Y68.938 E23.95613
G1 X69.597 Y68.027 E23.98675
G1 X69.808 Y67.131 E24.01736
G1 X70.096 Y66.257 E24.04797
G1 X70.459 Y65.41 E24.07862
G1 X70.894 Y64.599 E24.10923
G1 X71.584 Y63.578 E24.15022
G1 X71.932 Y63.122 E24.16929
G1 X72.08 Y62.932 E24.17731
G0 F6000 X72.393 Y63.182
G1 F1200 X77.597 Y56.676 E24.4544
G1 X77.694 Y56.556 E24.45954
G1 X78.137 Y56.019 E24.48269
G1 X78.742 Y55.349 E24.51271
G1 X79.404 Y54.734 E24.54277
G1 X80.117 Y54.181 E24.57278
G1 X80.877 Y53.693 E24.60282
G1 X81.677 Y53.274 E24.63286
G1 X82.511 Y52.927 E24.6629
G1 X83.372 Y52.656 E24.69292
G1 X84.254 Y52.461 E24.72297
G1 X85.15 Y52.346 E24.75301
G1 X85.685 Y52.315 E24.77084
G1 X85.908 Y52.308 E24.77826
G1 X86.119 Y52.304 E24.78528
G1 X86.4 Y52.301 E24.79462
G1 X86.509 Y52.3 E24.79825
G1 X133.293 Y52.3 E26.35429
G1 X133.438 Y52.301 E26.35911
G1 X134.139 Y52.311 E26.38243
G1 X135.041 Y52.364 E26.41248
G1 X135.934 Y52.496 E26.44251
G1 X136.813 Y52.707 E26.47257
G1 X137.669 Y52.995 E26.50261
G1 X138.496 Y53.357 E26.53264
G1 X139.288 Y53.791 E26.56268
G1 X140.038 Y54.294 E26.59271
G1 X140.741 Y54.861 E26.62275
G1 X141.391 Y55.487 E26.65277
G1 X141.816 Y55.963 E26.67399
G1 X142.119 Y56.325 E26.68969
G1 X142.261 Y56.5 E26.69719
G1 X147.517 Y63.069 E26.977
G1 X147.615 Y63.192 E26.98223
G1 X148.046 Y63.748 E27.00563
G1 X148.567 Y64.485 E27.03565
G1 X149.021 Y65.266 E27.0657
G1 X149.404 Y66.084 E27.09574
G1 X149.713 Y66.933 E27.12579
G1 X149.946 Y67.805 E27.15581
G1 X150.101 Y68.695 E27.18585
G1 X150.181 Y69.733 E27.22048
G1 X150.197 Y70.35 E27.24101
G1 X150.2 Y70.614 E27.24979
G1 X150.2 Y82.794 E27.6549
G1 X150.199 Y82.94 E27.65975
G1 X150.189 Y83.638 E27.68297
G1 X150.136 Y84.54 E27.71303
G1 X150.004 Y85.433 E27.74305
G1 X149.865 Y86.047 E27.76399
G1 X149.184 Y88.677 E27.85435
G1 X148.61 Y91.178 E27.93969
G1 X148.12 Y93.632 E28.02292
G1 X147.694 Y96.137 E28.10744
G1 X147.338 Y98.65 E28.19185
G1 X147.052 Y101.182 E28.2766
G1 X146.837 Y103.723 E28.36142
G1 X146.696 Y106.251 E28.44563
G1 X146.626 Y108.782 E28.52985
G1 X146.628 Y111.317 E28.61416
G1 X146.702 Y113.885 E28.69961
G1 X146.845 Y116.378 E28.78266
G1 X147.066 Y118.945 E28.86836
G1 X147.352 Y121.452 E28.95228
G1 X147.711 Y123.955 E29.03638
G1 X148.146 Y126.485 E29.12177
G1 X148.646 Y128.969 E29.20604
G1 X149.217 Y131.445 E29.29055
G1 X149.617 Y133.011 E29.34431
G1 X149.843 Y133.858 E29.37347
G1 X150.037 Y134.74 E29.40351
G1 X150.152 Y135.636 E29.43355
G1 X150.181 Y136.097 E29.44891
G1 X150.191 Y136.358 E29.4576
G1 X150.198 Y136.744 E29.47044
G1 X150.2 Y141.151 E29.61702
G1 X150.199 Y141.303 E29.62208
G1 X150.19 Y141.929 E29.6429
G1 X150.19 Y144.583 E29.73117
G1 X150.194 Y144.761 E29.73709
G1 X150.197 Y144.918 E29.74232
G1 X150.2 Y145.34 E29.75635
G1 X150.2 Y149.293 E29.88783
G1 X150.199 Y149.439 E29.89269
G1 X150.189 Y150.137 E29.9159
G1 X150.136 Y151.039 E29.94596
G1 X150.004 Y151.932 E29.97598
