;FLAVOR:Marlin
;TIME:2442
;Filament used: 1.25231m
;Layer height: 0.2
;MINX:52.106
;MINY:61.23
;MINZ:0.2
;MAXX:158.652
;MAXY:159.189
;MAXZ:1.4
;Generated with Cura_SteamEngine 4.4.0
M140 S60
M105
M190 S60
M104 S210
M105
M109 S210
M82 ;absolute extrusion mode
M201 X500.00 Y500.00 Z100.00 E5000.00 ;Setup machine max acceleration
M203 X500.00 Y500.00 Z10.00 E50.00 ;Setup machine max feedrate
M204 P500.00 R1000.00 T500.00 ;Setup Print/Retract/Travel acceleration
M205 X8.00 Y8.00 Z0.40 E5.00 ;Setup Jerk
M220 S100 ;Reset Feedrate
M221 S100 ;Reset Flowrate

G28 ;Home

G92 E0 ;Reset Extruder
G1 Z2.0 F3000 ;Move Z Axis up
G1 X10.1 Y20 Z0.28 F5000.0 ;Move to start position
G1 X10.1 Y200.0 Z0.28 F1500.0 E15 ;Draw the first line
G1 X10.4 Y200.0 Z0.28 F5000.0 ;Move to side a little
G1 X10.4 Y20 Z0.28 F1500.0 E30 ;Draw the second line
G92 E0 ;Reset Extruder
G1 Z2.0 F3000 ;Move Z Axis up

G92 E0
G92 E0
G1 F1500 E-6.5
;LAYER_COUNT:7
;LAYER:0
M107
G0 F6000 X57.639 Y84.615 Z0.2
;TYPE:SKIRT
G1 F1500 E0
G1 F1200 X58.795 Y83.962 E0.04416
G1 X59.764 Y83.489 E0.08002
G1 X62.246 Y82.246 E0.17235
G1 X64.479 Y81.044 E0.25669
G1 X66.622 Y79.81 E0.33894
G1 X68.808 Y78.467 E0.42428
G1 X70.871 Y77.12 E0.50622
G1 X72.974 Y75.657 E0.59143
G1 X74.989 Y74.172 E0.67468
G1 X76.969 Y72.625 E0.75825
G1 X78.918 Y71.009 E0.84246
G1 X80.796 Y69.36 E0.92559
G1 X82.665 Y67.624 E1.01043
G1 X84.409 Y65.91 E1.09176
G1 X84.774 Y65.529 E1.10931
G1 X84.876 Y65.424 E1.11418
G1 X85.758 Y64.528 E1.15599
G1 X86.444 Y63.889 E1.18717
G1 X87.181 Y63.31 E1.21835
G1 X87.966 Y62.796 E1.24956
G1 X88.791 Y62.35 E1.28075
G1 X89.652 Y61.977 E1.31196
G1 X90.541 Y61.678 E1.34315
G1 X91.452 Y61.456 E1.37434
G1 X92.379 Y61.313 E1.40554
G1 X93.101 Y61.256 E1.42962
G1 X93.433 Y61.241 E1.44068
G1 X93.929 Y61.23 E1.45718
G1 X96.392 Y61.23 E1.5391
G1 X96.548 Y61.231 E1.54429
G1 X97.254 Y61.241 E1.56777
G1 X97.886 Y61.268 E1.58881
G1 X98.211 Y61.291 E1.59965
G1 X100.779 Y61.438 E1.6852
G1 X103.265 Y61.509 E1.76792
G1 X105.789 Y61.509 E1.85187
G1 X108.319 Y61.438 E1.93605
G1 X111.479 Y61.257 E2.04132
G1 X111.8 Y61.243 E2.05201
G1 X112.12 Y61.234 E2.06266
G1 X112.429 Y61.23 E2.07293
G1 X114.892 Y61.23 E2.15485
G1 X115.049 Y61.231 E2.16008
G1 X115.75 Y61.241 E2.18339
G1 X116.686 Y61.294 E2.21458
G1 X117.615 Y61.427 E2.24579
G1 X118.528 Y61.639 E2.27696
G1 X119.421 Y61.927 E2.30817
G1 X120.285 Y62.291 E2.33935
G1 X121.116 Y62.727 E2.37057
G1 X121.906 Y63.232 E2.40175
G1 X122.65 Y63.802 E2.43293
G1 X123.197 Y64.291 E2.45733
G1 X125.118 Y66.129 E2.54576
G1 X126.99 Y67.822 E2.6297
G1 X128.911 Y69.464 E2.71376
G1 X130.85 Y71.026 E2.79657
G1 X132.869 Y72.563 E2.88097
G1 X134.89 Y74.013 E2.9637
G1 X137 Y75.437 E3.04836
G1 X139.114 Y76.78 E3.13166
G1 X141.279 Y78.069 E3.21547
G1 X143.494 Y79.307 E3.29987
G1 X145.71 Y80.462 E3.38298
G1 X147.965 Y81.558 E3.46637
G1 X150.339 Y82.63 E3.55301
G1 X151.501 Y83.136 E3.59516
G1 X151.638 Y83.197 E3.60015
G1 X151.669 Y83.211 E3.60128
G1 X152.507 Y83.633 E3.63249
G1 X153.305 Y84.125 E3.66367
G1 X154.059 Y84.683 E3.69487
G1 X154.763 Y85.303 E3.72607
G1 X155.411 Y85.981 E3.75726
G1 X155.999 Y86.712 E3.78846
G1 X156.522 Y87.49 E3.81964
G1 X156.977 Y88.31 E3.85084
G1 X157.361 Y89.166 E3.88204
G1 X157.671 Y90.051 E3.91323
G1 X157.904 Y90.96 E3.94444
G1 X158.059 Y91.885 E3.97563
G1 X158.124 Y92.599 E3.99948
G1 X158.206 Y94.012 E4.04656
G1 X158.314 Y95.65 E4.10115
G1 X158.491 Y97.503 E4.16307
G1 X158.5 Y97.608 E4.16657
G1 X158.601 Y98.781 E4.20573
G1 X158.637 Y99.396 E4.22622
G1 X158.647 Y99.73 E4.23733
G1 X158.652 Y100.059 E4.24828
G1 X158.652 Y125.493 E5.09421
G1 X158.651 Y125.644 E5.09924
G1 X158.641 Y126.371 E5.12342
G1 X158.588 Y127.308 E5.15463
G1 X158.456 Y128.236 E5.18581
G1 X158.245 Y129.15 E5.21701
G1 X157.956 Y130.042 E5.2482
G1 X157.593 Y130.907 E5.2794
G1 X157.158 Y131.738 E5.31059
G1 X156.653 Y132.528 E5.34178
G1 X156.083 Y133.273 E5.37298
G1 X155.452 Y133.967 E5.40418
G1 X154.763 Y134.604 E5.43538
G1 X154.023 Y135.18 E5.46657
G1 X153.237 Y135.691 E5.49776
G1 X152.199 Y136.232 E5.53669
G1 X151.274 Y136.653 E5.57049
G1 X151.115 Y136.724 E5.57628
G1 X150.481 Y137.001 E5.59929
G1 X148.211 Y138.068 E5.68272
G1 X145.953 Y139.208 E5.76685
G1 X143.75 Y140.401 E5.85017
G1 X141.567 Y141.664 E5.93406
G1 X139.449 Y142.971 E6.01684
G1 X137.299 Y144.382 E6.10237
G1 X135.271 Y145.797 E6.18462
G1 X133.243 Y147.298 E6.26853
G1 X131.255 Y148.859 E6.3526
G1 X129.324 Y150.467 E6.43618
G1 X127.426 Y152.139 E6.52031
G1 X125.602 Y153.839 E6.60324
G1 X123.744 Y155.674 E6.6901
G1 X123.52 Y155.901 E6.7007
G1 X122.834 Y156.54 E6.73188
G1 X122.096 Y157.119 E6.76308
G1 X121.311 Y157.632 E6.79427
G1 X120.485 Y158.077 E6.82548
G1 X119.625 Y158.45 E6.85666
G1 X118.736 Y158.749 E6.88785
G1 X117.824 Y158.97 E6.91906
G1 X116.897 Y159.113 E6.95026
G1 X115.99 Y159.176 E6.9805
G1 X115.666 Y159.185 E6.99128
G1 X115.361 Y159.189 E7.00143
G1 X93.398 Y159.189 E7.73192
G1 X93.241 Y159.188 E7.73714
G1 X92.539 Y159.178 E7.76049
G1 X91.603 Y159.125 E7.79167
G1 X90.675 Y158.992 E7.82285
G1 X89.761 Y158.78 E7.85406
G1 X88.868 Y158.492 E7.88527
G1 X88.004 Y158.128 E7.91645
G1 X87.173 Y157.692 E7.94766
G1 X86.383 Y157.187 E7.97885
G1 X85.639 Y156.617 E8.01002
G1 X84.79 Y155.827 E8.04859
G1 X84.716 Y155.75 E8.05215
G1 X82.846 Y153.854 E8.14072
G1 X81.033 Y152.118 E8.22421
G1 X79.142 Y150.406 E8.30905
G1 X77.228 Y148.768 E8.39284
G1 X75.291 Y147.206 E8.4756
G1 X73.265 Y145.665 E8.56026
G1 X71.24 Y144.211 E8.64318
G1 X69.159 Y142.804 E8.72673
G1 X67.025 Y141.449 E8.8108
G1 X64.874 Y140.167 E8.89409
G1 X62.635 Y138.916 E8.97939
G1 X60.435 Y137.768 E9.06193
G1 X58.287 Y136.719 E9.14144
G1 X57.463 Y136.272 E9.17262
G1 X56.679 Y135.757 E9.20381
G1 X55.943 Y135.176 E9.235
G1 X55.258 Y134.535 E9.2662
G1 X54.631 Y133.838 E9.29739
G1 X54.065 Y133.09 E9.32858
G1 X53.565 Y132.296 E9.35979
G1 X53.135 Y131.463 E9.39097
G1 X52.777 Y130.596 E9.42217
G1 X52.494 Y129.702 E9.45336
G1 X52.289 Y128.787 E9.48455
G1 X52.162 Y127.857 E9.51577
G1 X52.117 Y127.107 E9.54076
G1 X52.109 Y126.784 E9.5515
G1 X52.106 Y126.512 E9.56055
G1 X52.106 Y101.049 E10.40745
G1 X52.107 Y100.891 E10.41271
G1 X52.117 Y100.194 E10.43589
G1 X52.169 Y99.27 E10.46667
G1 X52.274 Y98.206 E10.50223
G1 X52.497 Y95.576 E10.59002
G1 X52.635 Y93.21 E10.66885
G1 X52.729 Y92.277 E10.70004
G1 X52.902 Y91.355 E10.73124
G1 X53.154 Y90.451 E10.76245
G1 X53.481 Y89.572 E10.79365
G1 X53.882 Y88.725 E10.82481
G1 X54.354 Y87.914 E10.85602
G1 X54.894 Y87.147 E10.88722
G1 X55.496 Y86.428 E10.91841
G1 X56.158 Y85.763 E10.94962
G1 X56.874 Y85.158 E10.9808
G1 X57.639 Y84.615 E11.012
G0 F6000 X58.013 Y84.851
G1 F1200 X58.97 Y84.321 E11.04839
G1 X60.022 Y83.808 E11.08731
G1 X62.423 Y82.605 E11.17663
G1 X64.673 Y81.393 E11.26164
G1 X66.825 Y80.155 E11.34421
G1 X69.014 Y78.81 E11.42966
G1 X71.112 Y77.44 E11.513
G1 X73.211 Y75.98 E11.59804
G1 X75.211 Y74.506 E11.68068
G1 X77.225 Y72.932 E11.76569
G1 X79.171 Y71.318 E11.84978
G1 X81.078 Y69.645 E11.93416
G1 X82.916 Y67.938 E12.01759
G1 X84.712 Y66.172 E12.10136
G1 X85.063 Y65.806 E12.11823
G1 X85.161 Y65.705 E12.12291
G1 X86.043 Y64.809 E12.16473
G1 X86.717 Y64.181 E12.19537
G1 X87.442 Y63.615 E12.22596
G1 X88.214 Y63.113 E12.25659
G1 X89.027 Y62.681 E12.28721
G1 X89.874 Y62.32 E12.31783
G1 X90.749 Y62.035 E12.34844
G1 X91.646 Y61.826 E12.37907
G1 X92.558 Y61.696 E12.40971
G1 X93.119 Y61.656 E12.42842
G1 X93.451 Y61.641 E12.43947
G1 X93.929 Y61.63 E12.45538
G1 X96.392 Y61.63 E12.5373
G1 X96.542 Y61.631 E12.54229
G1 X97.248 Y61.641 E12.56577
G1 X97.857 Y61.667 E12.58604
G1 X98.154 Y61.688 E12.59595
G1 X100.747 Y61.836 E12.68233
G1 X103.288 Y61.909 E12.76688
G1 X105.8 Y61.909 E12.85043
G1 X108.319 Y61.839 E12.93424
G1 X111.502 Y61.656 E13.04028
G1 X111.811 Y61.643 E13.05057
G1 X112.131 Y61.634 E13.06122
G1 X112.429 Y61.63 E13.07113
G1 X114.892 Y61.63 E13.15305
G1 X115.043 Y61.631 E13.15807
G1 X115.744 Y61.641 E13.18139
G1 X116.663 Y61.694 E13.21201
G1 X117.574 Y61.827 E13.24263
G1 X118.47 Y62.038 E13.27325
G1 X119.345 Y62.326 E13.30388
G1 X120.191 Y62.689 E13.3345
G1 X121.002 Y63.124 E13.36511
G1 X121.773 Y63.628 E13.39575
G1 X122.497 Y64.197 E13.42638
G1 X122.92 Y64.58 E13.44535
G1 X124.856 Y66.432 E13.53446
G1 X126.69 Y68.09 E13.6167
G1 X128.663 Y69.777 E13.70304
G1 X130.625 Y71.358 E13.78684
G1 X132.616 Y72.874 E13.87007
G1 X134.678 Y74.353 E13.95447
G1 X136.767 Y75.763 E14.0383
G1 X138.916 Y77.128 E14.12298
G1 X141.085 Y78.42 E14.20695
G1 X143.267 Y79.638 E14.29006
G1 X145.529 Y80.818 E14.37492
G1 X147.833 Y81.938 E14.46012
G1 X150.163 Y82.99 E14.54515
G1 X151.341 Y83.503 E14.58789
G1 X151.474 Y83.561 E14.59271
G1 X151.505 Y83.575 E14.59384
G1 X152.327 Y83.99 E14.62447
G1 X153.109 Y84.475 E14.65508
G1 X153.847 Y85.026 E14.68571
G1 X154.534 Y85.639 E14.71633
G1 X155.165 Y86.309 E14.74694
G1 X155.736 Y87.031 E14.77756
G1 X156.242 Y87.8 E14.80818
G1 X156.68 Y88.611 E14.83883
G1 X157.045 Y89.456 E14.86945
G1 X157.336 Y90.329 E14.90005
G1 X157.549 Y91.225 E14.93069
G1 X157.685 Y92.135 E14.96129
G1 X157.724 Y92.622 E14.97754
G1 X157.801 Y93.953 E15.02188
G1 X157.915 Y95.679 E15.07941
G1 X158.093 Y97.541 E15.14163
G1 X158.102 Y97.643 E15.14503
G1 X158.203 Y98.816 E15.18419
G1 X158.237 Y99.408 E15.20391
G1 X158.247 Y99.742 E15.21503
G1 X158.252 Y100.059 E15.22557
G1 X158.252 Y125.493 E16.07151
G1 X158.251 Y125.639 E16.07637
G1 X158.241 Y126.366 E16.10055
G1 X158.188 Y127.285 E16.13117
G1 X158.056 Y128.196 E16.16178
G1 X157.845 Y129.092 E16.1924
G1 X157.558 Y129.967 E16.22303
G1 X157.195 Y130.813 E16.25364
G1 X156.761 Y131.625 E16.28427
G1 X156.257 Y132.396 E16.3149
G1 X155.689 Y133.12 E16.34551
G1 X155.06 Y133.792 E16.37612
G1 X154.375 Y134.407 E16.40674
G1 X153.639 Y134.96 E16.43736
G1 X152.858 Y135.448 E16.46799
G1 X152.033 Y135.868 E16.49878
G1 X151.108 Y136.289 E16.53259
G1 X150.955 Y136.357 E16.53815
G1 X150.316 Y136.636 E16.56135
G1 X148.038 Y137.707 E16.64507
G1 X145.775 Y138.849 E16.72938
G1 X143.55 Y140.054 E16.81354
G1 X141.378 Y141.311 E16.897
G1 X139.2 Y142.655 E16.98213
G1 X137.114 Y144.025 E17.06513
G1 X135.034 Y145.475 E17.14946
G1 X133.001 Y146.98 E17.23359
G1 X130.998 Y148.554 E17.31832
G1 X129.067 Y150.161 E17.40188
G1 X127.173 Y151.829 E17.48582
G1 X125.296 Y153.578 E17.57115
G1 X123.459 Y155.392 E17.65702
G1 X123.235 Y155.62 E17.66765
G1 X122.561 Y156.247 E17.69827
G1 X121.835 Y156.814 E17.7289
G1 X121.063 Y157.315 E17.75951
G1 X120.25 Y157.747 E17.79014
G1 X119.402 Y158.107 E17.82078
G1 X118.527 Y158.392 E17.85138
G1 X117.63 Y158.6 E17.88201
G1 X116.719 Y158.729 E17.91261
G1 X115.979 Y158.776 E17.93727
G1 X115.655 Y158.785 E17.94805
G1 X115.361 Y158.789 E17.95783
G1 X93.398 Y158.789 E18.68833
G1 X93.247 Y158.788 E18.69335
G1 X92.545 Y158.778 E18.7167
G1 X91.626 Y158.725 E18.74732
G1 X90.715 Y158.592 E18.77794
G1 X89.819 Y158.381 E18.80855
G1 X88.944 Y158.093 E18.83919
G1 X88.098 Y157.73 E18.86981
G1 X87.287 Y157.295 E18.90042
G1 X86.516 Y156.791 E18.93106
G1 X85.792 Y156.223 E18.96166
G1 X85.077 Y155.549 E18.99434
G1 X85 Y155.469 E18.99804
G1 X83.124 Y153.567 E19.08689
G1 X81.278 Y151.799 E19.17191
G1 X79.425 Y150.122 E19.25503
G1 X77.493 Y148.469 E19.3396
G1 X75.525 Y146.881 E19.42371
G1 X73.519 Y145.356 E19.50752
G1 X71.468 Y143.883 E19.59151
G1 X69.367 Y142.462 E19.67587
G1 X67.223 Y141.101 E19.76033
G1 X65.053 Y139.807 E19.84436
G1 X62.878 Y138.592 E19.92723
G1 X60.602 Y137.405 E20.0126
G1 X58.463 Y136.36 E20.09178
G1 X57.654 Y135.92 E20.12241
G1 X56.886 Y135.412 E20.15304
G1 X56.165 Y134.84 E20.18365
G1 X55.497 Y134.206 E20.21428
G1 X54.886 Y133.518 E20.24488
G1 X54.337 Y132.778 E20.27553
G1 X53.854 Y131.994 E20.30616
G1 X53.442 Y131.171 E20.33677
G1 X53.102 Y130.316 E20.36737
G1 X52.838 Y129.434 E20.39799
G1 X52.651 Y128.532 E20.42863
G1 X52.543 Y127.618 E20.45924
G1 X52.517 Y127.097 E20.47659
G1 X52.509 Y126.774 E20.48734
G1 X52.506 Y126.512 E20.49606
G1 X52.506 Y101.049 E21.34296
G1 X52.507 Y100.897 E21.34801
G1 X52.517 Y100.2 E21.3712
G1 X52.567 Y99.309 E21.40088
G1 X52.676 Y98.204 E21.43781
G1 X52.894 Y95.634 E21.5236
G1 X53.034 Y93.233 E21.60359
G1 X53.127 Y92.317 E21.63421
G1 X53.3 Y91.413 E21.66483
G1 X53.55 Y90.527 E21.69544
G1 X53.876 Y89.666 E21.72607
G1 X54.276 Y88.836 E21.75671
G1 X54.746 Y88.045 E21.78731
G1 X55.283 Y87.297 E21.81794
G1 X55.883 Y86.599 E21.84855
G1 X56.542 Y85.955 E21.8792
G1 X57.253 Y85.371 E21.9098
G1 X58.013 Y84.851 E21.94043
G0 F6000 X58.386 Y85.092
G1 F1200 X59.145 Y84.681 E21.96914
G1 X60.153 Y84.19 E22.00643
G1 X62.64 Y82.944 E22.09895
G1 X64.83 Y81.764 E22.18169
G1 X67.054 Y80.484 E22.26704
G1 X69.221 Y79.153 E22.35162
G1 X71.33 Y77.776 E22.43539
G1 X73.438 Y76.31 E22.52079
G1 X75.471 Y74.811 E22.60481
G1 X77.477 Y73.243 E22.68949
G1 X79.427 Y71.626 E22.77374
G1 X81.33 Y69.956 E22.85795
G1 X83.186 Y68.233 E22.94218
G1 X85.015 Y66.434 E23.02751
G1 X85.352 Y66.083 E23.0437
G1 X85.446 Y65.986 E23.04819
G1 X86.328 Y65.09 E23.09001
G1 X86.989 Y64.475 E23.12004
G1 X87.703 Y63.921 E23.15009
G1 X88.462 Y63.432 E23.18012
G1 X89.262 Y63.012 E23.21018
G1 X90.095 Y62.665 E23.24019
G1 X90.956 Y62.393 E23.27022
G1 X91.838 Y62.198 E23.30026
G1 X93.137 Y62.055 E23.34373
G1 X93.469 Y62.04 E23.35478
G1 X93.929 Y62.03 E23.37009
G1 X96.392 Y62.03 E23.45201
G1 X96.536 Y62.031 E23.4568
G1 X97.242 Y62.041 E23.48028
G1 X97.829 Y62.066 E23.49982
G1 X98.175 Y62.091 E23.51136
G1 X100.712 Y62.236 E23.59588
G1 X103.277 Y62.309 E23.68123
G1 X105.811 Y62.309 E23.76551
G1 X108.354 Y62.238 E23.85012
G1 X111.525 Y62.056 E23.95576
G1 X111.822 Y62.043 E23.96565
G1 X112.142 Y62.034 E23.9763
G1 X112.429 Y62.03 E23.98584
G1 X114.892 Y62.03 E24.06776
G1 X115.037 Y62.031 E24.07259
G1 X115.738 Y62.041 E24.0959
G1 X116.64 Y62.094 E24.12596
G1 X117.533 Y62.226 E24.15598
G1 X118.412 Y62.437 E24.18605
G1 X119.268 Y62.725 E24.21609
G1 X120.095 Y63.087 E24.24611
G1 X120.887 Y63.521 E24.27615
G1 X121.637 Y64.024 E24.30618
G1 X122.644 Y64.869 E24.34991
G1 X124.575 Y66.717 E24.43881
G1 X126.445 Y68.408 E24.52266
G1 X128.398 Y70.077 E24.60811
G1 X130.377 Y71.672 E24.69264
G1 X132.387 Y73.201 E24.77664
G1 X134.444 Y74.677 E24.86085
G1 X136.575 Y76.116 E24.94637
G1 X138.687 Y77.457 E25.02958
G1 X140.88 Y78.763 E25.11447
G1 X143.093 Y79.999 E25.19878
G1 X145.348 Y81.175 E25.28337
G1 X147.643 Y82.291 E25.36825
G1 X149.961 Y83.338 E25.45285
G1 X151.182 Y83.869 E25.49713
G1 X151.309 Y83.926 E25.50176
G1 X151.34 Y83.94 E25.50289
G1 X152.146 Y84.348 E25.53294
G1 X152.913 Y84.825 E25.56298
G1 X153.634 Y85.369 E25.59302
G1 X154.304 Y85.974 E25.62304
G1 X154.919 Y86.636 E25.6531
G1 X155.472 Y87.349 E25.68311
G1 X155.96 Y88.109 E25.71315
G1 X156.379 Y88.909 E25.74319
G1 X156.725 Y89.743 E25.77322
G1 X156.997 Y90.605 E25.80328
G1 X157.191 Y91.487 E25.83332
G1 X157.325 Y92.645 E25.87209
G1 X157.402 Y93.979 E25.91653
G1 X157.516 Y95.71 E25.97423
G1 X157.695 Y97.579 E26.03668
G1 X157.703 Y97.677 E26.03995
G1 X157.804 Y98.85 E26.07911
G1 X157.837 Y99.42 E26.0981
G1 X157.847 Y99.754 E26.10921
G1 X157.852 Y100.059 E26.11936
G1 X157.852 Y125.493 E26.9653
G1 X157.851 Y125.633 E26.96995
G1 X157.841 Y126.36 E26.99413
G1 X157.789 Y127.262 E27.02418
G1 X157.657 Y128.155 E27.05421
G1 X157.446 Y129.034 E27.08428
G1 X157.159 Y129.89 E27.1143
G1 X156.797 Y130.717 E27.14433
G1 X156.363 Y131.509 E27.17437
G1 X155.861 Y132.26 E27.20441
G1 X155.295 Y132.963 E27.23443
G1 X154.668 Y133.614 E27.26449
G1 X153.987 Y134.206 E27.2945
G1 X153.256 Y134.736 E27.32454
G1 X152.48 Y135.199 E27.35459
G1 X151.867 Y135.504 E27.37736
G1 X150.942 Y135.925 E27.41117
G1 X150.795 Y135.99 E27.41651
G1 X150.165 Y136.265 E27.43937
G1 X147.867 Y137.346 E27.52384
G1 X145.569 Y138.505 E27.60944
G1 X143.38 Y139.691 E27.69225
G1 X141.147 Y140.983 E27.77805
G1 X139.017 Y142.297 E27.86129
G1 X136.871 Y143.706 E27.94668
G1 X134.789 Y145.158 E28.03111
G1 X132.759 Y146.661 E28.11512
G1 X130.758 Y148.233 E28.19975
G1 X128.813 Y149.851 E28.2839
G1 X126.882 Y151.553 E28.36951
G1 X125.025 Y153.283 E28.45392
G1 X123.176 Y155.109 E28.54036
G1 X122.95 Y155.339 E28.55108
G1 X122.288 Y155.954 E28.58113
G1 X121.575 Y156.508 E28.61117
G1 X120.815 Y156.996 E28.64121
