;FLAVOR:Marlin
;TIME:7298
;Filament used: 4.29698m
;Layer height: 0.2
;MINX:81.1
;MINY:48.05
;MINZ:0.2
;MAXX:138.9
;MAXY:171.95
;MAXZ:5.2
;Generated with Cura_SteamEngine 4.4.1
M140 S60
M105
M190 S60
M104 S205
M105
M109 S205
M82 ;absolute extrusion mode
M201 X500.00 Y500.00 Z100.00 E5000.00 ;Setup machine max acceleration
M203 X500.00 Y500.00 Z10.00 E50.00 ;Setup machine max feedrate
M204 P500.00 R1000.00 T500.00 ;Setup Print/Retract/Travel acceleration
M205 X8.00 Y8.00 Z0.40 E5.00 ;Setup Jerk
M220 S100 ;Reset Feedrate
M221 S100 ;Reset Flowrate

G28 ;Home

G92 E0 ;Reset Extruder
G1 Z2.0 F3000 ;Move Z Axis up
G1 X10.1 Y20 Z0.28 F5000.0 ;Move to start position
G1 X10.1 Y200.0 Z0.28 F1500.0 E15 ;Draw the first line
G1 X10.4 Y200.0 Z0.28 F5000.0 ;Move to side a little
G1 X10.4 Y20 Z0.28 F1500.0 E30 ;Draw the second line
G92 E0 ;Reset Extruder
G1 Z2.0 F3000 ;Move Z Axis up

G92 E0
G92 E0
G1 F1500 E-6.5
;LAYER_COUNT:26
;LAYER:0
M107
G0 F6000 X83.096 Y52.753 Z0.2
;TYPE:SKIRT
G1 F1500 E0
G1 F1200 X83.666 Y52.008 E0.0312
G1 X84.298 Y51.314 E0.06242
G1 X84.986 Y50.677 E0.0936
G1 X85.726 Y50.101 E0.12479
G1 X86.512 Y49.589 E0.15599
G1 X87.339 Y49.147 E0.18718
G1 X88.201 Y48.777 E0.21838
G1 X89.091 Y48.481 E0.24958
G1 X90.003 Y48.263 E0.28077
G1 X90.93 Y48.122 E0.31195
G1 X91.801 Y48.063 E0.34099
G1 X92.122 Y48.054 E0.35167
G1 X92.43 Y48.05 E0.36191
G1 X127.193 Y48.05 E1.51814
G1 X127.351 Y48.051 E1.52339
G1 X128.049 Y48.061 E1.54661
G1 X128.985 Y48.115 E1.57779
G1 X129.913 Y48.247 E1.60897
G1 X130.827 Y48.459 E1.64017
G1 X131.719 Y48.748 E1.67136
G1 X132.584 Y49.111 E1.70256
G1 X133.414 Y49.547 E1.73374
G1 X134.205 Y50.052 E1.76496
G1 X134.949 Y50.623 E1.79615
G1 X135.642 Y51.255 E1.82735
G1 X136.279 Y51.943 E1.85853
G1 X136.854 Y52.684 E1.88973
G1 X137.365 Y53.47 E1.92091
G1 X137.807 Y54.298 E1.95213
G1 X138.176 Y55.16 E1.98331
G1 X138.471 Y56.05 E2.0145
G1 X138.689 Y56.962 E2.04569
G1 X138.829 Y57.89 E2.0769
G1 X138.887 Y58.751 E2.1056
G1 X138.896 Y59.071 E2.11625
G1 X138.9 Y59.38 E2.12653
G1 X138.9 Y160.214 E5.48028
G1 X138.899 Y160.35 E5.4848
G1 X138.89 Y161.077 E5.50899
G1 X138.839 Y162.014 E5.5402
G1 X138.707 Y162.942 E5.57137
G1 X138.498 Y163.856 E5.60256
G1 X138.211 Y164.749 E5.63375
G1 X137.849 Y165.615 E5.66497
G1 X137.415 Y166.446 E5.69615
G1 X136.911 Y167.237 E5.72735
G1 X136.342 Y167.982 E5.75853
G1 X135.711 Y168.677 E5.78975
G1 X135.024 Y169.315 E5.82093
G1 X134.285 Y169.892 E5.85212
G1 X133.499 Y170.404 E5.88332
G1 X132.673 Y170.847 E5.91449
G1 X131.811 Y171.219 E5.94572
G1 X130.922 Y171.515 E5.97688
G1 X130.01 Y171.735 E6.00809
G1 X129.083 Y171.876 E6.03927
G1 X128.199 Y171.937 E6.06875
G1 X127.878 Y171.946 E6.07943
G1 X127.57 Y171.95 E6.08967
G1 X92.807 Y171.95 E7.24589
G1 X92.665 Y171.949 E7.25062
G1 X91.967 Y171.94 E7.27383
G1 X91.031 Y171.888 E7.30501
G1 X90.102 Y171.756 E7.33622
G1 X89.188 Y171.546 E7.36741
G1 X88.295 Y171.259 E7.39861
G1 X87.43 Y170.896 E7.42981
G1 X86.599 Y170.462 E7.46099
G1 X85.808 Y169.958 E7.49219
G1 X85.063 Y169.388 E7.52339
G1 X84.369 Y168.757 E7.55459
G1 X83.732 Y168.07 E7.58575
G1 X83.155 Y167.33 E7.61696
G1 X82.643 Y166.544 E7.64816
G1 X82.2 Y165.717 E7.67936
G1 X81.829 Y164.856 E7.71054
G1 X81.533 Y163.966 E7.74174
G1 X81.314 Y163.054 E7.77293
G1 X81.173 Y162.127 E7.80412
G1 X81.113 Y161.238 E7.83376
G1 X81.104 Y160.905 E7.84484
G1 X81.1 Y160.608 E7.85471
G1 X81.1 Y59.724 E11.21013
G1 X81.101 Y59.575 E11.21509
G1 X81.11 Y58.91 E11.23721
G1 X81.163 Y57.974 E11.26839
G1 X81.295 Y57.045 E11.2996
G1 X81.506 Y56.131 E11.3308
G1 X81.794 Y55.239 E11.36197
G1 X82.157 Y54.374 E11.39317
G1 X82.592 Y53.543 E11.42437
G1 X83.096 Y52.753 E11.45554
G0 F6000 X83.492 Y52.885
G1 F1200 X84.061 Y52.161 E11.48616
G1 X84.689 Y51.489 E11.51676
G1 X85.374 Y50.873 E11.5474
G1 X86.11 Y50.32 E11.57802
G1 X86.891 Y49.832 E11.60865
G1 X87.711 Y49.414 E11.63926
G1 X88.565 Y49.069 E11.66989
G1 X89.445 Y48.799 E11.70051
G1 X90.345 Y48.607 E11.73112
G1 X91.259 Y48.493 E11.76175
G1 X91.812 Y48.463 E11.78017
G1 X92.133 Y48.454 E11.79085
G1 X92.43 Y48.45 E11.80073
G1 X127.193 Y48.45 E12.95695
G1 X127.345 Y48.451 E12.96201
G1 X128.043 Y48.461 E12.98523
G1 X128.962 Y48.514 E13.01584
G1 X129.873 Y48.647 E13.04646
G1 X130.769 Y48.858 E13.07708
G1 X131.643 Y49.146 E13.10769
G1 X132.49 Y49.509 E13.13834
G1 X133.301 Y49.944 E13.16895
G1 X134.071 Y50.448 E13.19955
G1 X134.795 Y51.017 E13.23018
G1 X135.467 Y51.647 E13.26082
G1 X136.082 Y52.332 E13.29144
G1 X136.635 Y53.068 E13.32206
G1 X137.122 Y53.849 E13.35267
G1 X137.539 Y54.67 E13.3833
G1 X137.884 Y55.524 E13.41393
G1 X138.153 Y56.404 E13.44454
G1 X138.345 Y57.305 E13.47518
G1 X138.458 Y58.218 E13.50577
G1 X138.487 Y58.762 E13.52389
G1 X138.496 Y59.082 E13.53454
G1 X138.5 Y59.38 E13.54445
G1 X138.5 Y160.214 E16.89821
G1 X138.499 Y160.345 E16.90256
G1 X138.49 Y161.072 E16.92675
G1 X138.439 Y161.991 E16.95736
G1 X138.308 Y162.903 E16.988
G1 X138.098 Y163.799 E17.01861
G1 X137.812 Y164.674 E17.04923
G1 X137.451 Y165.521 E17.07985
G1 X137.017 Y166.333 E17.11048
G1 X136.515 Y167.105 E17.1411
G1 X135.947 Y167.83 E17.17174
G1 X135.319 Y168.503 E17.20235
G1 X134.635 Y169.119 E17.23297
G1 X133.9 Y169.673 E17.26358
G1 X133.12 Y170.162 E17.2942
G1 X132.3 Y170.581 E17.32483
G1 X131.447 Y170.927 E17.35544
G1 X130.567 Y171.198 E17.38607
G1 X129.667 Y171.391 E17.41668
G1 X128.753 Y171.506 E17.44732
G1 X128.188 Y171.537 E17.46614
G1 X127.867 Y171.546 E17.47682
G1 X127.57 Y171.55 E17.4867
G1 X92.807 Y171.55 E18.64293
G1 X92.67 Y171.549 E18.64748
G1 X91.972 Y171.54 E18.6707
G1 X91.053 Y171.488 E18.70131
G1 X90.142 Y171.357 E18.73193
G1 X89.246 Y171.147 E18.76253
G1 X88.371 Y170.86 E18.79316
G1 X87.524 Y170.498 E18.8238
G1 X86.712 Y170.064 E18.85442
G1 X85.941 Y169.562 E18.88502
G1 X85.216 Y168.994 E18.91566
G1 X84.543 Y168.365 E18.94629
G1 X83.928 Y167.681 E18.97689
G1 X83.374 Y166.946 E19.0075
G1 X82.886 Y166.165 E19.03813
G1 X82.467 Y165.345 E19.06876
G1 X82.121 Y164.492 E19.09937
G1 X81.851 Y163.612 E19.12999
G1 X81.658 Y162.711 E19.16064
G1 X81.544 Y161.798 E19.19124
G1 X81.513 Y161.227 E19.21026
G1 X81.504 Y160.894 E19.22134
G1 X81.5 Y160.608 E19.23085
G1 X81.5 Y59.724 E22.58627
G1 X81.501 Y59.581 E22.59102
G1 X81.51 Y58.916 E22.61314
G1 X81.562 Y57.996 E22.64379
G1 X81.694 Y57.085 E22.67441
G1 X81.905 Y56.189 E22.70502
G1 X82.192 Y55.314 E22.73565
G1 X82.555 Y54.468 E22.76627
G1 X82.989 Y53.656 E22.79689
G1 X83.492 Y52.885 E22.82751
G0 F6000 X83.888 Y53.021
G1 F1200 X84.455 Y52.317 E22.85758
G1 X85.081 Y51.667 E22.88759
G1 X85.762 Y51.074 E22.91763
G1 X86.494 Y50.544 E22.94768
G1 X87.269 Y50.081 E22.97771
G1 X88.082 Y49.688 E23.00774
G1 X88.927 Y49.368 E23.0378
G1 X89.796 Y49.125 E23.06781
G1 X90.684 Y48.959 E23.09786
G1 X91.823 Y48.863 E23.13587
G1 X92.144 Y48.854 E23.14655
G1 X92.43 Y48.85 E23.15607
G1 X127.193 Y48.85 E24.31229
G1 X127.339 Y48.851 E24.31715
G1 X128.037 Y48.861 E24.34036
G1 X128.939 Y48.914 E24.37042
G1 X129.832 Y49.046 E24.40044
G1 X130.71 Y49.257 E24.43047
G1 X131.566 Y49.545 E24.46051
G1 X132.393 Y49.907 E24.49054
G1 X133.185 Y50.342 E24.52059
G1 X133.936 Y50.844 E24.55064
G1 X134.639 Y51.411 E24.58068
G1 X135.289 Y52.038 E24.61071
G1 X135.881 Y52.72 E24.64075
G1 X136.411 Y53.451 E24.67078
G1 X136.873 Y54.227 E24.70082
G1 X137.266 Y55.04 E24.73085
G1 X137.584 Y55.885 E24.76088
G1 X137.827 Y56.755 E24.79093
G1 X137.992 Y57.643 E24.82097
G1 X138.087 Y58.773 E24.85868
G1 X138.096 Y59.093 E24.86933
G1 X138.1 Y59.38 E24.87888
G1 X138.1 Y160.214 E28.23263
G1 X138.099 Y160.34 E28.23682
G1 X138.09 Y161.067 E28.261
G1 X138.039 Y161.969 E28.29105
G1 X137.908 Y162.863 E28.3211
G1 X137.699 Y163.741 E28.35112
G1 X137.413 Y164.598 E28.38117
G1 X137.052 Y165.426 E28.41122
G1 X136.62 Y166.218 E28.44122
G1 X136.119 Y166.97 E28.47127
G1 X135.553 Y167.674 E28.50132
G1 X134.928 Y168.325 E28.53134
G1 X134.247 Y168.919 E28.56139
G1 X133.516 Y169.45 E28.59144
G1 X132.742 Y169.914 E28.62146
G1 X131.929 Y170.308 E28.6515
G1 X131.085 Y170.628 E28.68153
G1 X130.215 Y170.873 E28.71159
G1 X129.328 Y171.039 E28.7416
G1 X128.177 Y171.137 E28.78002
G1 X127.856 Y171.146 E28.7907
G1 X127.57 Y171.15 E28.80022
G1 X92.807 Y171.15 E29.95644
G1 X92.675 Y171.149 E29.96083
G1 X91.977 Y171.14 E29.98405
G1 X91.076 Y171.089 E30.01406
G1 X90.182 Y170.957 E30.04412
G1 X89.304 Y170.748 E30.07414
G1 X88.447 Y170.461 E30.1042
G1 X87.62 Y170.1 E30.13421
G1 X86.827 Y169.667 E30.16426
G1 X86.076 Y169.166 E30.19429
G1 X85.372 Y168.6 E30.22433
G1 X84.721 Y167.974 E30.25437
G1 X84.128 Y167.293 E30.2844
G1 X83.598 Y166.562 E30.31444
G1 X83.134 Y165.787 E30.34448
G1 X82.74 Y164.974 E30.37453
G1 X82.42 Y164.13 E30.40455
G1 X82.176 Y163.26 E30.4346
G1 X82.01 Y162.372 E30.46465
G1 X81.913 Y161.217 E30.5032
G1 X81.904 Y160.884 E30.51428
G1 X81.9 Y160.608 E30.52346
G1 X81.9 Y59.724 E33.87888
G1 X81.901 Y59.586 E33.88347
G1 X81.91 Y58.921 E33.90559
G1 X81.962 Y58.019 E33.93564
G1 X82.094 Y57.126 E33.96566
G1 X82.304 Y56.248 E33.99569
G1 X82.591 Y55.391 E34.02575
G1 X82.953 Y54.564 E34.05577
G1 X83.386 Y53.772 E34.08579
G1 X83.888 Y53.021 E34.11584
G1 F1500 E27.61584
;MESH:3cols_base.stl
G0 F6000 X91.435 Y59.47
G0 X92.52 Y59.47
G0 X93.1 Y159.95
;TYPE:WALL-INNER
G1 F1500 E34.11584
G1 F1200 X93.1 Y60.05 E37.43853
G1 X126.9 Y60.05 E38.56272
G1 X126.9 Y159.95 E41.88541
G1 X93.1 Y159.95 E43.0096
G0 F6000 X92.7 Y160.35
G1 F1200 X92.7 Y59.65 E46.35889
G1 X127.3 Y59.65 E47.50969
G1 X127.3 Y160.35 E50.85899
G1 X92.7 Y160.35 E52.00979
G0 F6000 X92.3 Y160.75
;TYPE:WALL-OUTER
G1 F1200 X92.3 Y59.25 E55.38569
G1 X127.7 Y59.25 E56.5631
G1 X127.7 Y160.75 E59.93901
G1 X92.3 Y160.75 E61.11642
G0 F6000 X92.57 Y160.48
G0 X93.21 Y159.56
G0 X93.49 Y159.56
;TYPE:SKIN
G1 F1200 X93.49 Y60.44 E64.41316
G1 X126.51 Y60.44 E65.51141
G1 X126.51 Y159.56 E68.80815
G1 X93.49 Y159.56 E69.9064
G0 F6000 X93.779 Y159.398
G1 F1200 X93.649 Y159.268 E69.91252
G0 F6000 X93.649 Y158.703
G1 F1200 X94.345 Y159.398 E69.94523
G0 F6000 X94.91 Y159.398
G1 F1200 X93.649 Y158.137 E70.00455
G0 F6000 X93.649 Y157.571
G1 F1200 X95.476 Y159.398 E70.09048
G0 F6000 X96.042 Y159.398
G1 F1200 X93.649 Y157.005 E70.20304
G0 F6000 X93.649 Y156.44
G1 F1200 X96.607 Y159.398 E70.34218
G0 F6000 X97.173 Y159.398
G1 F1200 X93.649 Y155.874 E70.50794
G0 F6000 X93.649 Y155.308
G1 F1200 X97.739 Y159.398 E70.70032
G0 F6000 X98.304 Y159.398
G1 F1200 X93.649 Y154.743 E70.91927
G0 F6000 X93.649 Y154.177
G1 F1200 X98.87 Y159.398 E71.16485
G0 F6000 X99.436 Y159.398
G1 F1200 X93.649 Y153.611 E71.43706
G0 F6000 X93.649 Y153.046
G1 F1200 X100.001 Y159.398 E71.73584
G0 F6000 X100.567 Y159.398
G1 F1200 X93.649 Y152.48 E72.06124
G0 F6000 X93.649 Y151.914
G1 F1200 X101.133 Y159.398 E72.41326
G0 F6000 X101.698 Y159.398
G1 F1200 X93.649 Y151.349 E72.79186
G0 F6000 X93.649 Y150.783
G1 F1200 X102.264 Y159.398 E73.19708
G0 F6000 X102.83 Y159.398
G1 F1200 X93.649 Y150.217 E73.62893
G0 F6000 X93.649 Y149.652
G1 F1200 X103.395 Y159.398 E74.08735
G0 F6000 X103.961 Y159.398
G1 F1200 X93.649 Y149.086 E74.5724
G0 F6000 X93.649 Y148.52
G1 F1200 X104.527 Y159.398 E75.08407
G0 F6000 X105.093 Y159.398
G1 F1200 X93.649 Y147.955 E75.62233
G0 F6000 X93.649 Y147.389
G1 F1200 X105.658 Y159.398 E76.1872
G0 F6000 X106.224 Y159.398
G1 F1200 X93.649 Y146.823 E76.77869
G0 F6000 X93.649 Y146.257
G1 F1200 X106.79 Y159.398 E77.3968
G0 F6000 X107.355 Y159.398
G1 F1200 X93.649 Y145.692 E78.04149
G0 F6000 X93.649 Y145.126
G1 F1200 X107.921 Y159.398 E78.7128
G0 F6000 X108.487 Y159.398
G1 F1200 X93.649 Y144.56 E79.41073
G0 F6000 X93.649 Y143.995
G1 F1200 X109.052 Y159.398 E80.13524
G0 F6000 X109.618 Y159.398
G1 F1200 X93.649 Y143.429 E80.88638
G0 F6000 X93.649 Y142.863
G1 F1200 X110.184 Y159.398 E81.66413
G0 F6000 X110.749 Y159.398
G1 F1200 X93.649 Y142.298 E82.46846
G0 F6000 X93.649 Y141.732
G1 F1200 X111.315 Y159.398 E83.29942
G0 F6000 X111.881 Y159.398
G1 F1200 X93.649 Y141.166 E84.157
G0 F6000 X93.649 Y140.601
G1 F1200 X112.446 Y159.398 E85.04115
G0 F6000 X113.012 Y159.398
G1 F1200 X93.649 Y140.035 E85.95193
G0 F6000 X93.649 Y139.469
G1 F1200 X113.578 Y159.398 E86.88932
G0 F6000 X114.144 Y159.398
G1 F1200 X93.649 Y138.904 E87.85332
G0 F6000 X93.649 Y138.338
G1 F1200 X114.709 Y159.398 E88.84392
G0 F6000 X115.275 Y159.398
G1 F1200 X93.649 Y137.772 E89.86114
G0 F6000 X93.649 Y137.206
G1 F1200 X115.841 Y159.398 E90.90499
G0 F6000 X116.406 Y159.398
G1 F1200 X93.649 Y136.641 E91.9754
G0 F6000 X93.649 Y136.075
G1 F1200 X116.972 Y159.398 E93.07245
G0 F6000 X117.538 Y159.398
G1 F1200 X93.649 Y135.509 E94.19611
G0 F6000 X93.649 Y134.944
G1 F1200 X118.103 Y159.398 E95.34635
G0 F6000 X118.669 Y159.398
G1 F1200 X93.649 Y134.378 E96.52322
G0 F6000 X93.649 Y133.812
G1 F1200 X119.235 Y159.398 E97.7267
G0 F6000 X119.8 Y159.398
G1 F1200 X93.649 Y133.247 E98.95677
G0 F6000 X93.649 Y132.681
G1 F1200 X120.366 Y159.398 E100.21345
G0 F6000 X120.932 Y159.398
G1 F1200 X93.649 Y132.115 E101.49676
G0 F6000 X93.649 Y131.55
G1 F1200 X121.497 Y159.398 E102.80665
G0 F6000 X122.063 Y159.398
G1 F1200 X93.649 Y130.984 E104.14315
G0 F6000 X93.649 Y130.418
G1 F1200 X122.629 Y159.398 E105.50628
G0 F6000 X123.194 Y159.398
G1 F1200 X93.649 Y129.853 E106.89599
G0 F6000 X93.649 Y129.287
G1 F1200 X123.76 Y159.398 E108.31232
G0 F6000 X124.326 Y159.398
G1 F1200 X93.649 Y128.721 E109.75527
G0 F6000 X93.649 Y128.156
G1 F1200 X124.892 Y159.398 E111.22482
G0 F6000 X125.457 Y159.398
G1 F1200 X93.649 Y127.59 E112.72097
G0 F6000 X93.649 Y127.024
G1 F1200 X126.023 Y159.398 E114.24375
G0 F6000 X126.35 Y159.159
G1 F1200 X93.649 Y126.458 E115.7819
G0 F6000 X93.649 Y125.893
G1 F1200 X126.35 Y158.594 E117.32006
G0 F6000 X126.35 Y158.028
G1 F1200 X93.649 Y125.327 E118.85821
G0 F6000 X93.649 Y124.761
G1 F1200 X126.35 Y157.462 E120.39637
G0 F6000 X126.35 Y156.897
G1 F1200 X93.649 Y124.196 E121.93452
G0 F6000 X93.649 Y123.63
G1 F1200 X126.35 Y156.331 E123.47268
G0 F6000 X126.35 Y155.765
G1 F1200 X93.649 Y123.064 E125.01083
G0 F6000 X93.649 Y122.499
G1 F1200 X126.35 Y155.2 E126.54899
G0 F6000 X126.35 Y154.634
G1 F1200 X93.649 Y121.933 E128.08714
G0 F6000 X93.649 Y121.367
G1 F1200 X126.35 Y154.068 E129.6253
G0 F6000 X126.35 Y153.502
G1 F1200 X93.649 Y120.802 E131.16343
G0 F6000 X93.649 Y120.236
G1 F1200 X126.35 Y152.937 E132.70158
G0 F6000 X126.35 Y152.371
G1 F1200 X93.649 Y119.67 E134.23974
G0 F6000 X93.649 Y119.105
G1 F1200 X126.35 Y151.805 E135.77787
G0 F6000 X126.35 Y151.24
G1 F1200 X93.649 Y118.539 E137.31602
G0 F6000 X93.649 Y117.973
G1 F1200 X126.35 Y150.674 E138.85418
G0 F6000 X126.35 Y150.108
G1 F1200 X93.649 Y117.408 E140.39231
G0 F6000 X93.649 Y116.842
G1 F1200 X126.35 Y149.543 E141.93046
G0 F6000 X126.35 Y148.977
G1 F1200 X93.649 Y116.276 E143.46862
G0 F6000 X93.649 Y115.71
G1 F1200 X126.35 Y148.411 E145.00677
G0 F6000 X126.35 Y147.846
G1 F1200 X93.649 Y115.145 E146.54493
G0 F6000 X93.649 Y114.579
G1 F1200 X126.35 Y147.28 E148.08308
G0 F6000 X126.35 Y146.714
G1 F1200 X93.649 Y114.013 E149.62124
G0 F6000 X93.649 Y113.448
G1 F1200 X126.35 Y146.149 E151.15939
G0 F6000 X126.35 Y145.583
G1 F1200 X93.649 Y112.882 E152.69755
G0 F6000 X93.649 Y112.316
G1 F1200 X126.35 Y145.017 E154.2357
G0 F6000 X126.35 Y144.452
G1 F1200 X93.649 Y111.751 E155.77386
G0 F6000 X93.649 Y111.185
G1 F1200 X126.35 Y143.886 E157.31201
G0 F6000 X126.35 Y143.32
G1 F1200 X93.649 Y110.619 E158.85017
G0 F6000 X93.649 Y110.054
G1 F1200 X126.35 Y142.754 E160.3883
G0 F6000 X126.35 Y142.189
G1 F1200 X93.649 Y109.488 E161.92645
G0 F6000 X93.649 Y108.922
G1 F1200 X126.35 Y141.623 E163.46461
G0 F6000 X126.35 Y141.057
G1 F1200 X93.649 Y108.357 E165.00274
G0 F6000 X93.649 Y107.791
G1 F1200 X126.35 Y140.492 E166.54089
G0 F6000 X126.35 Y139.926
G1 F1200 X93.649 Y107.225 E168.07905
G0 F6000 X93.649 Y106.659
G1 F1200 X126.35 Y139.36 E169.6172
G0 F6000 X126.35 Y138.795
G1 F1200 X93.649 Y106.094 E171.15536
G0 F6000 X93.649 Y105.528
G1 F1200 X126.35 Y138.229 E172.69351
G0 F6000 X126.35 Y137.663
G1 F1200 X93.649 Y104.962 E174.23167
G0 F6000 X93.649 Y104.397
G1 F1200 X126.35 Y137.098 E175.76982
G0 F6000 X126.35 Y136.532
G1 F1200 X93.649 Y103.831 E177.30798
G0 F6000 X93.649 Y103.265
