;FLAVOR:Marlin
;TIME:1532
;Filament used: 0.912516m
;Layer height: 0.2
;MINX:78
;MINY:91.5
;MINZ:0.2
;MAXX:142
;MAXY:128.5
;MAXZ:5
;Generated with Cura_SteamEngine 4.4.0
M140 S60
M105
M190 S60
M104 S210
M105
M109 S210
M82 ;absolute extrusion mode
M201 X500.00 Y500.00 Z100.00 E5000.00 ;Setup machine max acceleration
M203 X500.00 Y500.00 Z10.00 E50.00 ;Setup machine max feedrate
M204 P500.00 R1000.00 T500.00 ;Setup Print/Retract/Travel acceleration
M205 X8.00 Y8.00 Z0.40 E5.00 ;Setup Jerk
M220 S100 ;Reset Feedrate
M221 S100 ;Reset Flowrate

G28 ;Home

G92 E0 ;Reset Extruder
G1 Z2.0 F3000 ;Move Z Axis up
G1 X10.1 Y20 Z0.28 F5000.0 ;Move to start position
G1 X10.1 Y200.0 Z0.28 F1500.0 E15 ;Draw the first line
G1 X10.4 Y200.0 Z0.28 F5000.0 ;Move to side a little
G1 X10.4 Y20 Z0.28 F1500.0 E30 ;Draw the second line
G92 E0 ;Reset Extruder
G1 Z2.0 F3000 ;Move Z Axis up

G92 E0
G92 E0
G1 F1500 E-6.5
;LAYER_COUNT:25
;LAYER:0
M107
G0 F6000 X81.886 Y94.127 Z0.2
;TYPE:SKIRT
G1 F1500 E0
G1 F1200 X82.626 Y93.551 E0.03119
G1 X83.412 Y93.039 E0.06239
G1 X84.239 Y92.597 E0.09358
G1 X85.101 Y92.227 E0.12478
G1 X85.991 Y91.931 E0.15597
G1 X86.903 Y91.713 E0.18716
G1 X87.83 Y91.572 E0.21835
G1 X88.701 Y91.513 E0.24738
G1 X89.022 Y91.504 E0.25806
G1 X89.33 Y91.5 E0.26831
G1 X130.293 Y91.5 E1.63074
G1 X130.451 Y91.501 E1.636
G1 X131.149 Y91.511 E1.65922
G1 X132.085 Y91.565 E1.6904
G1 X133.013 Y91.697 E1.72158
G1 X133.927 Y91.909 E1.75278
G1 X134.819 Y92.198 E1.78397
G1 X135.684 Y92.561 E1.81517
G1 X136.514 Y92.997 E1.84635
G1 X137.305 Y93.502 E1.87757
G1 X138.049 Y94.073 E1.90876
G1 X138.742 Y94.705 E1.93996
G1 X139.379 Y95.393 E1.97114
G1 X139.954 Y96.134 E2.00234
G1 X140.465 Y96.92 E2.03352
G1 X140.907 Y97.748 E2.06473
G1 X141.276 Y98.61 E2.09592
G1 X141.571 Y99.5 E2.12711
G1 X141.789 Y100.412 E2.15829
G1 X141.929 Y101.34 E2.18951
G1 X141.987 Y102.201 E2.21821
G1 X141.996 Y102.521 E2.22886
G1 X142 Y102.83 E2.23914
G1 X142 Y116.764 E2.70258
G1 X141.999 Y116.9 E2.70711
G1 X141.99 Y117.627 E2.73129
G1 X141.939 Y118.564 E2.7625
G1 X141.807 Y119.492 E2.79368
G1 X141.598 Y120.406 E2.82486
G1 X141.311 Y121.299 E2.85606
G1 X140.949 Y122.165 E2.88728
G1 X140.515 Y122.996 E2.91846
G1 X140.011 Y123.787 E2.94965
G1 X139.442 Y124.532 E2.98083
G1 X138.811 Y125.227 E3.01205
G1 X138.124 Y125.865 E3.04324
G1 X137.385 Y126.442 E3.07442
G1 X136.599 Y126.954 E3.10562
G1 X135.773 Y127.397 E3.1368
G1 X134.911 Y127.769 E3.16802
G1 X134.022 Y128.065 E3.19919
G1 X133.11 Y128.285 E3.23039
G1 X132.183 Y128.426 E3.26158
G1 X131.299 Y128.487 E3.29105
G1 X130.978 Y128.496 E3.30173
G1 X130.67 Y128.5 E3.31197
G1 X89.707 Y128.5 E4.67441
G1 X89.565 Y128.499 E4.67913
G1 X88.867 Y128.49 E4.70235
G1 X87.931 Y128.438 E4.73353
G1 X87.002 Y128.306 E4.76474
G1 X86.088 Y128.096 E4.79593
G1 X85.195 Y127.809 E4.82713
G1 X84.33 Y127.446 E4.85833
G1 X83.499 Y127.012 E4.88951
G1 X82.708 Y126.508 E4.9207
G1 X81.963 Y125.938 E4.9519
G1 X81.269 Y125.307 E4.9831
G1 X80.632 Y124.62 E5.01426
G1 X80.055 Y123.88 E5.04547
G1 X79.543 Y123.094 E5.07667
G1 X79.1 Y122.267 E5.10788
G1 X78.729 Y121.406 E5.13906
G1 X78.433 Y120.516 E5.17025
G1 X78.214 Y119.604 E5.20145
G1 X78.073 Y118.677 E5.23264
G1 X78.013 Y117.788 E5.26227
G1 X78.004 Y117.455 E5.27335
G1 X78 Y117.158 E5.28323
G1 X78 Y103.174 E5.74834
G1 X78.001 Y103.025 E5.7533
G1 X78.01 Y102.36 E5.77542
G1 X78.063 Y101.424 E5.8066
G1 X78.195 Y100.495 E5.83781
G1 X78.406 Y99.581 E5.86901
G1 X78.694 Y98.689 E5.90018
G1 X79.057 Y97.824 E5.93138
G1 X79.492 Y96.993 E5.96258
G1 X79.996 Y96.203 E5.99375
G1 X80.566 Y95.458 E6.02495
G1 X81.198 Y94.764 E6.05617
G1 X81.886 Y94.127 E6.08735
G0 F6000 X82.274 Y94.323
G1 F1200 X83.01 Y93.77 E6.11797
G1 X83.791 Y93.282 E6.1486
G1 X84.611 Y92.864 E6.17921
G1 X85.465 Y92.519 E6.20985
G1 X86.345 Y92.249 E6.24046
G1 X87.245 Y92.057 E6.27107
G1 X88.159 Y91.943 E6.30171
G1 X88.712 Y91.913 E6.32013
G1 X89.033 Y91.904 E6.33081
G1 X89.33 Y91.9 E6.34069
G1 X130.293 Y91.9 E7.70312
G1 X130.445 Y91.901 E7.70818
G1 X131.143 Y91.911 E7.73139
G1 X132.062 Y91.964 E7.76201
G1 X132.973 Y92.097 E7.79263
G1 X133.869 Y92.308 E7.82325
G1 X134.743 Y92.596 E7.85386
G1 X135.59 Y92.959 E7.8845
G1 X136.401 Y93.394 E7.91511
G1 X137.171 Y93.898 E7.94572
G1 X137.895 Y94.467 E7.97635
G1 X138.567 Y95.097 E8.00699
G1 X139.182 Y95.782 E8.03761
G1 X139.735 Y96.518 E8.06822
G1 X140.222 Y97.299 E8.09884
G1 X140.639 Y98.12 E8.12946
G1 X140.984 Y98.974 E8.1601
G1 X141.253 Y99.854 E8.1907
G1 X141.445 Y100.755 E8.22134
G1 X141.558 Y101.668 E8.25194
G1 X141.587 Y102.212 E8.27006
G1 X141.596 Y102.532 E8.28071
G1 X141.6 Y102.83 E8.29062
G1 X141.6 Y116.764 E8.75407
G1 X141.599 Y116.895 E8.75843
G1 X141.59 Y117.622 E8.78261
G1 X141.539 Y118.541 E8.81322
G1 X141.408 Y119.453 E8.84387
G1 X141.198 Y120.349 E8.87447
G1 X140.912 Y121.224 E8.90509
G1 X140.551 Y122.071 E8.93571
G1 X140.117 Y122.883 E8.96634
G1 X139.615 Y123.655 E8.99697
G1 X139.047 Y124.38 E9.0276
G1 X138.419 Y125.053 E9.05821
G1 X137.735 Y125.669 E9.08883
G1 X137 Y126.223 E9.11944
G1 X136.22 Y126.712 E9.15006
G1 X135.4 Y127.131 E9.18069
G1 X134.547 Y127.477 E9.21131
G1 X133.667 Y127.748 E9.24193
G1 X132.767 Y127.941 E9.27255
G1 X131.853 Y128.056 E9.30319
G1 X131.288 Y128.087 E9.32201
G1 X130.967 Y128.096 E9.33269
G1 X130.67 Y128.1 E9.34257
G1 X89.707 Y128.1 E10.705
G1 X89.57 Y128.099 E10.70956
G1 X88.872 Y128.09 E10.73277
G1 X87.953 Y128.038 E10.76339
G1 X87.042 Y127.907 E10.794
G1 X86.146 Y127.697 E10.82461
G1 X85.271 Y127.41 E10.85524
G1 X84.424 Y127.048 E10.88587
G1 X83.612 Y126.614 E10.9165
G1 X82.841 Y126.112 E10.9471
G1 X82.116 Y125.544 E10.97773
G1 X81.443 Y124.915 E11.00837
G1 X80.828 Y124.231 E11.03896
G1 X80.274 Y123.496 E11.06957
G1 X79.786 Y122.715 E11.10021
G1 X79.367 Y121.895 E11.13083
G1 X79.021 Y121.042 E11.16145
G1 X78.751 Y120.162 E11.19206
G1 X78.558 Y119.261 E11.22271
G1 X78.444 Y118.348 E11.25331
G1 X78.413 Y117.777 E11.27233
G1 X78.404 Y117.444 E11.28341
G1 X78.4 Y117.158 E11.29293
G1 X78.4 Y103.174 E11.75804
G1 X78.401 Y103.031 E11.76279
G1 X78.41 Y102.366 E11.78491
G1 X78.462 Y101.446 E11.81556
G1 X78.594 Y100.535 E11.84618
G1 X78.805 Y99.639 E11.87679
G1 X79.092 Y98.764 E11.90742
G1 X79.455 Y97.918 E11.93804
G1 X79.889 Y97.106 E11.96866
G1 X80.392 Y96.335 E11.99928
G1 X80.961 Y95.611 E12.02991
G1 X81.589 Y94.939 E12.0605
G1 X82.274 Y94.323 E12.09114
G0 F6000 X82.662 Y94.524
G1 F1200 X83.394 Y93.994 E12.1212
G1 X84.169 Y93.531 E12.15122
G1 X84.982 Y93.138 E12.18126
G1 X85.827 Y92.818 E12.21131
G1 X86.696 Y92.575 E12.24132
G1 X87.584 Y92.409 E12.27137
G1 X88.723 Y92.313 E12.30939
G1 X89.044 Y92.304 E12.32007
G1 X89.33 Y92.3 E12.32958
G1 X130.293 Y92.3 E13.69202
G1 X130.439 Y92.301 E13.69687
G1 X131.137 Y92.311 E13.72009
G1 X132.039 Y92.364 E13.75014
G1 X132.932 Y92.496 E13.78017
G1 X133.81 Y92.707 E13.8102
G1 X134.666 Y92.995 E13.84024
G1 X135.493 Y93.357 E13.87027
G1 X136.285 Y93.792 E13.90032
G1 X137.036 Y94.294 E13.93036
G1 X137.739 Y94.861 E13.9604
G1 X138.389 Y95.488 E13.99044
G1 X138.981 Y96.17 E14.02048
G1 X139.511 Y96.901 E14.05051
G1 X139.973 Y97.677 E14.08055
G1 X140.366 Y98.49 E14.11058
G1 X140.684 Y99.335 E14.14061
G1 X140.927 Y100.205 E14.17065
G1 X141.092 Y101.093 E14.2007
G1 X141.187 Y102.223 E14.23841
G1 X141.196 Y102.543 E14.24906
G1 X141.2 Y102.83 E14.25861
G1 X141.2 Y116.764 E14.72205
G1 X141.199 Y116.89 E14.72624
G1 X141.19 Y117.617 E14.75043
G1 X141.139 Y118.519 E14.78047
G1 X141.008 Y119.413 E14.81053
G1 X140.799 Y120.291 E14.84054
G1 X140.513 Y121.148 E14.87059
G1 X140.152 Y121.976 E14.90064
G1 X139.72 Y122.768 E14.93064
G1 X139.219 Y123.52 E14.9607
G1 X138.653 Y124.224 E14.99074
G1 X138.028 Y124.875 E15.02076
G1 X137.347 Y125.469 E15.05081
G1 X136.616 Y126 E15.08086
G1 X135.842 Y126.464 E15.11088
G1 X135.029 Y126.858 E15.14093
G1 X134.185 Y127.178 E15.17095
G1 X133.315 Y127.423 E15.20101
G1 X132.428 Y127.589 E15.23102
G1 X131.277 Y127.687 E15.26944
G1 X130.956 Y127.696 E15.28013
G1 X130.67 Y127.7 E15.28964
G1 X89.707 Y127.7 E16.65207
G1 X89.575 Y127.699 E16.65646
G1 X88.877 Y127.69 E16.67968
G1 X87.976 Y127.639 E16.7097
G1 X87.082 Y127.507 E16.73975
G1 X86.204 Y127.298 E16.76977
G1 X85.347 Y127.011 E16.79983
G1 X84.52 Y126.65 E16.82984
G1 X83.727 Y126.217 E16.8599
G1 X82.976 Y125.716 E16.88992
G1 X82.272 Y125.15 E16.91997
G1 X81.621 Y124.524 E16.95001
G1 X81.028 Y123.843 E16.98004
G1 X80.498 Y123.112 E17.01007
G1 X80.034 Y122.337 E17.04011
G1 X79.64 Y121.524 E17.07016
G1 X79.32 Y120.68 E17.10018
G1 X79.076 Y119.81 E17.13024
G1 X78.91 Y118.922 E17.16028
G1 X78.813 Y117.767 E17.19883
G1 X78.804 Y117.434 E17.20991
G1 X78.8 Y117.158 E17.21909
G1 X78.8 Y103.174 E17.6842
G1 X78.801 Y103.036 E17.68879
G1 X78.81 Y102.371 E17.71091
G1 X78.862 Y101.469 E17.74096
G1 X78.994 Y100.576 E17.77099
G1 X79.204 Y99.698 E17.80101
G1 X79.491 Y98.841 E17.83107
G1 X79.853 Y98.014 E17.8611
G1 X80.286 Y97.222 E17.89112
G1 X80.788 Y96.471 E17.92117
G1 X81.355 Y95.767 E17.95123
G1 X81.981 Y95.117 E17.98125
G1 X82.662 Y94.524 E18.01128
G1 F1500 E11.51128
;MESH:base.stl
G0 F6000 X89.414 Y101.835
G0 X89.414 Y102.914
G0 X90 Y116.5
;TYPE:WALL-INNER
G1 F1500 E18.01128
G1 F1200 X90 Y103.5 E18.44366
G1 X130 Y103.5 E19.77407
G1 X130 Y116.5 E20.20645
G1 X90 Y116.5 E21.53686
G0 F6000 X89.6 Y116.9
G1 F1200 X89.6 Y103.1 E21.99584
G1 X130.4 Y103.1 E23.35286
G1 X130.4 Y116.9 E23.81185
G1 X89.6 Y116.9 E25.16886
G0 F6000 X89.2 Y117.3
;TYPE:WALL-OUTER
G1 F1200 X89.2 Y102.7 E25.65446
G1 X130.8 Y102.7 E27.03808
G1 X130.8 Y117.3 E27.52368
G1 X89.2 Y117.3 E28.9073
G0 F6000 X89.47 Y117.03
G0 X90.11 Y116.11
G0 X90.39 Y116.11
;TYPE:SKIN
G1 F1200 X90.39 Y103.89 E29.31374
G1 X129.61 Y103.89 E30.6182
G1 X129.61 Y116.11 E31.02464
G1 X90.39 Y116.11 E32.3291
G0 F6000 X91.059 Y115.949
G1 F1200 X90.549 Y115.44 E32.35307
G0 F6000 X90.549 Y114.874
G1 F1200 X91.624 Y115.949 E32.40363
G0 F6000 X92.19 Y115.949
G1 F1200 X90.549 Y114.308 E32.48082
G0 F6000 X90.549 Y113.743
G1 F1200 X92.756 Y115.949 E32.58461
G0 F6000 X93.321 Y115.949
G1 F1200 X90.549 Y113.177 E32.71499
G0 F6000 X90.549 Y112.611
G1 F1200 X93.887 Y115.949 E32.872
G0 F6000 X94.453 Y115.949
G1 F1200 X90.549 Y112.046 E33.05561
G0 F6000 X90.549 Y111.48
G1 F1200 X95.018 Y115.949 E33.26582
G0 F6000 X95.584 Y115.949
G1 F1200 X90.549 Y110.914 E33.50265
G0 F6000 X90.549 Y110.348
G1 F1200 X96.15 Y115.949 E33.76611
G0 F6000 X96.715 Y115.949
G1 F1200 X90.549 Y109.783 E34.05614
G0 F6000 X90.549 Y109.217
G1 F1200 X97.281 Y115.949 E34.37279
G0 F6000 X97.847 Y115.949
G1 F1200 X90.549 Y108.651 E34.71606
G0 F6000 X90.549 Y108.086
G1 F1200 X98.413 Y115.949 E35.08594
G0 F6000 X98.978 Y115.949
G1 F1200 X90.549 Y107.52 E35.48241
G0 F6000 X90.549 Y106.954
G1 F1200 X99.544 Y115.949 E35.90551
G0 F6000 X100.11 Y115.949
G1 F1200 X90.549 Y106.389 E36.35521
G0 F6000 X90.549 Y105.823
G1 F1200 X100.675 Y115.949 E36.8315
G0 F6000 X101.241 Y115.949
G1 F1200 X90.549 Y105.257 E37.33442
G0 F6000 X90.549 Y104.692
G1 F1200 X101.807 Y115.949 E37.86394
G0 F6000 X102.372 Y115.949
G1 F1200 X90.549 Y104.126 E38.42006
G0 F6000 X91.038 Y104.049
G1 F1200 X102.938 Y115.949 E38.9798
G0 F6000 X103.504 Y115.949
G1 F1200 X91.604 Y104.049 E39.53954
G0 F6000 X92.169 Y104.049
G1 F1200 X104.069 Y115.949 E40.09928
G0 F6000 X104.635 Y115.949
G1 F1200 X92.735 Y104.049 E40.65902
G0 F6000 X93.301 Y104.049
G1 F1200 X105.201 Y115.949 E41.21876
G0 F6000 X105.766 Y115.949
G1 F1200 X93.867 Y104.049 E41.77847
G0 F6000 X94.432 Y104.049
G1 F1200 X106.332 Y115.949 E42.33821
G0 F6000 X106.898 Y115.949
G1 F1200 X94.998 Y104.049 E42.89795
G0 F6000 X95.564 Y104.049
G1 F1200 X107.463 Y115.949 E43.45767
G0 F6000 X108.029 Y115.949
G1 F1200 X96.129 Y104.049 E44.01741
G0 F6000 X96.695 Y104.049
G1 F1200 X108.595 Y115.949 E44.57715
G0 F6000 X109.161 Y115.949
G1 F1200 X97.261 Y104.049 E45.13688
G0 F6000 X97.826 Y104.049
G1 F1200 X109.726 Y115.949 E45.69662
G0 F6000 X110.293 Y115.949
G1 F1200 X98.392 Y104.049 E46.25639
G0 F6000 X98.958 Y104.049
G1 F1200 X110.858 Y115.949 E46.81613
G0 F6000 X111.424 Y115.949
G1 F1200 X99.523 Y104.049 E47.37589
G0 F6000 X100.089 Y104.049
G1 F1200 X111.99 Y115.949 E47.93565
G0 F6000 X112.555 Y115.949
G1 F1200 X100.655 Y104.049 E48.49539
G0 F6000 X101.22 Y104.049
G1 F1200 X113.121 Y115.949 E49.05516
G0 F6000 X113.687 Y115.949
G1 F1200 X101.786 Y104.049 E49.61492
G0 F6000 X102.352 Y104.049
G1 F1200 X114.252 Y115.949 E50.17466
G0 F6000 X114.818 Y115.949
G1 F1200 X102.917 Y104.049 E50.73442
G0 F6000 X103.483 Y104.049
G1 F1200 X115.384 Y115.949 E51.29418
G0 F6000 X115.949 Y115.949
G1 F1200 X104.049 Y104.049 E51.85392
G0 F6000 X104.615 Y104.049
G1 F1200 X116.515 Y115.949 E52.41366
G0 F6000 X117.081 Y115.949
G1 F1200 X105.18 Y104.049 E52.97343
G0 F6000 X105.746 Y104.049
G1 F1200 X117.647 Y115.949 E53.53319
G0 F6000 X118.212 Y115.949
G1 F1200 X106.312 Y104.049 E54.09293
G0 F6000 X106.877 Y104.049
G1 F1200 X118.778 Y115.949 E54.65269
G0 F6000 X119.344 Y115.949
G1 F1200 X107.443 Y104.049 E55.21245
G0 F6000 X108.009 Y104.049
G1 F1200 X119.909 Y115.949 E55.77219
G0 F6000 X120.475 Y115.949
G1 F1200 X108.574 Y104.049 E56.33196
G0 F6000 X109.14 Y104.049
G1 F1200 X121.041 Y115.949 E56.89172
G0 F6000 X121.606 Y115.949
G1 F1200 X109.706 Y104.049 E57.45146
G0 F6000 X110.272 Y104.05
G1 F1200 X122.172 Y115.949 E58.01118
G0 F6000 X122.738 Y115.949
G1 F1200 X110.838 Y104.05 E58.57089
G0 F6000 X111.403 Y104.05
G1 F1200 X123.303 Y115.949 E59.13061
G0 F6000 X123.869 Y115.949
G1 F1200 X111.969 Y104.05 E59.69032
G0 F6000 X112.535 Y104.05
G1 F1200 X124.435 Y115.949 E60.25004
G0 F6000 X125 Y115.949
G1 F1200 X113.101 Y104.05 E60.80973
G0 F6000 X113.666 Y104.05
G1 F1200 X125.566 Y115.949 E61.36945
G0 F6000 X126.132 Y115.949
G1 F1200 X114.232 Y104.05 E61.92916
G0 F6000 X114.798 Y104.05
G1 F1200 X126.697 Y115.949 E62.48886
G0 F6000 X127.263 Y115.949
G1 F1200 X115.363 Y104.05 E63.04857
G0 F6000 X115.929 Y104.05
G1 F1200 X127.829 Y115.949 E63.60829
G0 F6000 X128.395 Y115.949
G1 F1200 X116.495 Y104.05 E64.168
G0 F6000 X117.06 Y104.05
G1 F1200 X128.96 Y115.949 E64.72772
G0 F6000 X129.449 Y115.872
G1 F1200 X117.626 Y104.05 E65.28381
G0 F6000 X118.192 Y104.05
G1 F1200 X129.449 Y115.307 E65.81331
G0 F6000 X129.449 Y114.741
G1 F1200 X118.757 Y104.05 E66.3162
G0 F6000 X119.323 Y104.05
G1 F1200 X129.449 Y114.175 E66.79248
G0 F6000 X129.449 Y113.61
G1 F1200 X119.889 Y104.05 E67.24215
G0 F6000 X120.454 Y104.05
G1 F1200 X129.449 Y113.044 E67.66522
G0 F6000 X129.449 Y112.478
G1 F1200 X121.02 Y104.05 E68.06167
G0 F6000 X121.586 Y104.05
G1 F1200 X129.449 Y111.913 E68.43153
G0 F6000 X129.449 Y111.347
G1 F1200 X122.151 Y104.05 E68.77478
G0 F6000 X122.717 Y104.05
G1 F1200 X129.449 Y110.781 E69.09141
G0 F6000 X129.449 Y110.216
G1 F1200 X123.283 Y104.05 E69.38144
G0 F6000 X123.849 Y104.05
G1 F1200 X129.449 Y109.65 E69.64484
G0 F6000 X129.449 Y109.084
G1 F1200 X124.414 Y104.05 E69.88165
G0 F6000 X124.98 Y104.05
G1 F1200 X129.449 Y108.518 E70.09184
G0 F6000 X129.449 Y107.953
G1 F1200 X125.546 Y104.05 E70.27542
G0 F6000 X126.111 Y104.05
G1 F1200 X129.449 Y107.387 E70.43241
G0 F6000 X129.449 Y106.821
G1 F1200 X126.677 Y104.05 E70.56277
G0 F6000 X127.243 Y104.05
G1 F1200 X129.449 Y106.256 E70.66653
G0 F6000 X129.449 Y105.69
G1 F1200 X127.808 Y104.05 E70.7437
G0 F6000 X128.374 Y104.05
G1 F1200 X129.449 Y105.124 E70.79424
G0 F6000 X129.449 Y104.559
G1 F1200 X128.94 Y104.05 E70.81818
G0 F6000 X128.94 Y103.31
G1 F1500 E64.31818
;MESH:NONMESH
G0 F300 X128.94 Y103.31 Z0.4
G0 F6000 X90.182 Y103.682
G0 X90 Y116.5
;TIME_ELAPSED:120.102088
;LAYER:1
M140 S60
M106 S85
;TYPE:WALL-INNER
;MESH:base.stl
G1 F1500 E70.81818
G1 F1350 X90 Y103.5 E71.25056
G1 X130 Y103.5 E72.58097
G1 X130 Y116.5 E73.01335
G1 X90 Y116.5 E74.34375
G0 F7500 X89.6 Y116.9
G1 F1350 X89.6 Y103.1 E74.80274
G1 X130.4 Y103.1 E76.15976
G1 X130.4 Y116.9 E76.61875
G1 X89.6 Y116.9 E77.97576
G0 F7500 X89.2 Y117.3
;TYPE:WALL-OUTER
G1 F1350 X89.2 Y102.7 E78.46136
G1 X130.8 Y102.7 E79.84498
G1 X130.8 Y117.3 E80.33058
G1 X89.2 Y117.3 E81.7142
G0 F7500 X89.47 Y117.03
G0 X90.11 Y116.11
G0 X90.39 Y116.11
;TYPE:SKIN
G1 F1350 X90.39 Y103.89 E82.12064
G1 X129.61 Y103.89 E83.4251
