;FLAVOR:Marlin
;TIME:1396
;Filament used: 0.677021m
;Layer height: 0.2
;MINX:77.963
;MINY:71.197
;MINZ:0.2
;MAXX:145.477
;MAXY:145.993
;MAXZ:2
;Generated with Cura_SteamEngine 4.4.0
M140 S60
M105
M190 S60
M104 S210
M105
M109 S210
M82 ;absolute extrusion mode
M201 X500.00 Y500.00 Z100.00 E5000.00 ;Setup machine max acceleration
M203 X500.00 Y500.00 Z10.00 E50.00 ;Setup machine max feedrate
M204 P500.00 R1000.00 T500.00 ;Setup Print/Retract/Travel acceleration
M205 X8.00 Y8.00 Z0.40 E5.00 ;Setup Jerk
M220 S100 ;Reset Feedrate
M221 S100 ;Reset Flowrate

G28 ;Home

G92 E0 ;Reset Extruder
G1 Z2.0 F3000 ;Move Z Axis up
G1 X10.1 Y20 Z0.28 F5000.0 ;Move to start position
G1 X10.1 Y200.0 Z0.28 F1500.0 E15 ;Draw the first line
G1 X10.4 Y200.0 Z0.28 F5000.0 ;Move to side a little
G1 X10.4 Y20 Z0.28 F1500.0 E30 ;Draw the second line
G92 E0 ;Reset Extruder
G1 Z2.0 F3000 ;Move Z Axis up

G92 E0
G92 E0
G1 F1500 E-6.5
;LAYER_COUNT:10
;LAYER:0
M107
G0 F6000 X82.983 Y77.774 Z0.2
;TYPE:SKIRT
G1 F1500 E0
G1 F1200 X83.626 Y77.091 E0.0312
G1 X84.292 Y76.492 E0.06099
G1 X84.641 Y76.203 E0.07606
G1 X84.898 Y75.996 E0.08704
G1 X85.219 Y75.746 E0.10057
G1 X85.502 Y75.533 E0.11235
G1 X85.686 Y75.399 E0.11992
G1 X85.98 Y75.192 E0.13188
G1 X86.451 Y74.872 E0.15082
G1 X87.001 Y74.522 E0.1725
G1 X87.62 Y74.153 E0.19647
G1 X88.168 Y73.847 E0.21735
G1 X88.64 Y73.601 E0.23505
G1 X89.032 Y73.407 E0.2496
G1 X89.331 Y73.266 E0.26059
G1 X89.66 Y73.117 E0.27261
G1 X90.183 Y72.891 E0.29156
G1 X90.771 Y72.657 E0.3126
G1 X91.302 Y72.463 E0.33141
G1 X91.657 Y72.34 E0.3439
G1 X91.871 Y72.27 E0.35139
G1 X92.206 Y72.167 E0.36305
G1 X92.733 Y72.013 E0.38131
G1 X93.114 Y71.908 E0.39445
G1 X93.323 Y71.855 E0.40163
G1 X93.588 Y71.792 E0.41069
G1 X94.019 Y71.694 E0.42539
G1 X94.386 Y71.617 E0.43786
G1 X94.631 Y71.57 E0.44616
G1 X94.938 Y71.515 E0.45653
G1 X95.221 Y71.469 E0.46607
G1 X95.605 Y71.414 E0.47897
G1 X96.261 Y71.331 E0.50096
G1 X96.931 Y71.267 E0.52335
G1 X97.533 Y71.228 E0.54341
G1 X97.872 Y71.211 E0.5547
G1 X98.227 Y71.199 E0.56651
G1 X98.897 Y71.197 E0.5888
G1 X99.599 Y71.216 E0.61216
G1 X99.98 Y71.233 E0.62484
G1 X100.384 Y71.258 E0.6383
G1 X101.058 Y71.321 E0.66082
G1 X101.784 Y71.411 E0.68515
G1 X102.137 Y71.46 E0.697
G1 X102.785 Y71.562 E0.71882
G1 X105.306 Y71.922 E0.80352
G1 X107.823 Y72.209 E0.88778
G1 X110.328 Y72.424 E0.9714
G1 X112.862 Y72.569 E1.05582
G1 X115.342 Y72.64 E1.13834
G1 X117.866 Y72.642 E1.22229
G1 X120.43 Y72.57 E1.3076
G1 X122.444 Y72.463 E1.37468
G1 X123.695 Y72.381 E1.41638
G1 X124.066 Y72.363 E1.42873
G1 X124.447 Y72.351 E1.44141
G1 X125.08 Y72.35 E1.46247
G1 X125.769 Y72.368 E1.48539
G1 X126.184 Y72.386 E1.49921
G1 X126.606 Y72.413 E1.51327
G1 X127.255 Y72.474 E1.53495
G1 X127.958 Y72.561 E1.55851
G1 X128.554 Y72.652 E1.57856
G1 X129.11 Y72.752 E1.59735
G1 X129.54 Y72.838 E1.61194
G1 X129.915 Y72.921 E1.62471
G1 X130.502 Y73.068 E1.64484
G1 X131.256 Y73.279 E1.67088
G1 X131.941 Y73.495 E1.69477
G1 X132.598 Y73.726 E1.71793
G1 X133.25 Y73.979 E1.74119
G1 X133.895 Y74.253 E1.7645
G1 X134.483 Y74.523 E1.78602
G1 X135.13 Y74.844 E1.81005
G1 X135.827 Y75.222 E1.83642
G1 X136.526 Y75.634 E1.8634
G1 X137.109 Y76.003 E1.88635
G1 X137.484 Y76.257 E1.90142
G1 X137.772 Y76.459 E1.91312
G1 X138.154 Y76.736 E1.92881
G1 X138.652 Y77.119 E1.94971
G1 X139.261 Y77.616 E1.97585
G1 X139.558 Y77.867 E1.98878
G1 X139.631 Y77.931 E1.99201
G1 X140.309 Y78.578 E2.02318
G1 X140.929 Y79.282 E2.05438
G1 X141.488 Y80.035 E2.08558
G1 X141.98 Y80.833 E2.11676
G1 X142.402 Y81.671 E2.14796
G1 X142.752 Y82.541 E2.17915
G1 X143.026 Y83.438 E2.21035
G1 X143.223 Y84.355 E2.24154
G1 X143.362 Y85.593 E2.28298
G1 X143.415 Y86.541 E2.31456
G1 X143.598 Y89.184 E2.40268
G1 X143.843 Y91.674 E2.48589
G1 X144.159 Y94.172 E2.56964
G1 X144.554 Y96.71 E2.65507
G1 X144.668 Y97.35 E2.67669
G1 X144.702 Y97.547 E2.68334
G1 X144.826 Y98.327 E2.70961
G1 X144.868 Y98.616 E2.71932
G1 X144.94 Y99.162 E2.73764
G1 X144.977 Y99.484 E2.74842
G1 X145.029 Y99.994 E2.76547
G1 X145.056 Y100.294 E2.77549
G1 X145.097 Y100.845 E2.79387
G1 X145.117 Y101.186 E2.80523
G1 X145.143 Y101.787 E2.82524
G1 X145.152 Y102.09 E2.83532
G1 X145.16 Y102.603 E2.85238
G1 X145.135 Y103.529 E2.88319
G1 X145.113 Y103.849 E2.89386
G1 X145.1 Y104.018 E2.8995
G1 X144.93 Y106.04 E2.96699
G1 X144.79 Y108.553 E3.0507
G1 X144.72 Y111.084 E3.13491
G1 X144.722 Y113.609 E3.2189
G1 X144.794 Y116.097 E3.30168
G1 X144.938 Y118.606 E3.38527
G1 X145.247 Y122.021 E3.49932
G1 X145.335 Y122.822 E3.52612
G1 X145.371 Y123.226 E3.53961
G1 X145.423 Y123.945 E3.56358
G1 X145.446 Y124.373 E3.57784
G1 X145.472 Y125.156 E3.6039
G1 X145.477 Y125.701 E3.62202
G1 X145.471 Y126.067 E3.6342
G1 X145.456 Y126.485 E3.64811
G1 X145.434 Y126.889 E3.66157
G1 X145.386 Y127.48 E3.68129
G1 X145.346 Y127.848 E3.6936
G1 X145.276 Y128.373 E3.71122
G1 X145.205 Y128.823 E3.72637
G1 X145.079 Y129.488 E3.74888
G1 X144.98 Y129.935 E3.76411
G1 X144.907 Y130.24 E3.77454
G1 X144.83 Y130.546 E3.78503
G1 X144.676 Y131.099 E3.80413
G1 X144.531 Y131.57 E3.82052
G1 X144.357 Y132.089 E3.83872
G1 X144.191 Y132.546 E3.8549
G1 X143.985 Y133.071 E3.87365
G1 X143.778 Y133.561 E3.89135
G1 X143.557 Y134.049 E3.90916
G1 X143.34 Y134.5 E3.92581
G1 X143.077 Y135.012 E3.94495
G1 X142.84 Y135.445 E3.96137
G1 X142.627 Y135.817 E3.97563
G1 X142.503 Y136.024 E3.98366
G1 X142.341 Y136.286 E3.9939
G1 X142.142 Y136.598 E4.00621
G1 X141.858 Y137.022 E4.02318
G1 X141.552 Y137.456 E4.04084
G1 X141.195 Y137.934 E4.06069
G1 X140.891 Y138.319 E4.077
G1 X140.525 Y138.758 E4.09601
G1 X140.152 Y139.183 E4.11482
G1 X139.744 Y139.623 E4.13478
G1 X139.413 Y139.961 E4.15051
G1 X139.01 Y140.353 E4.16921
G1 X138.588 Y140.742 E4.1883
G1 X138.129 Y141.142 E4.20855
G1 X137.759 Y141.447 E4.2245
G1 X137.404 Y141.727 E4.23954
G1 X137.239 Y141.852 E4.24642
G1 X137.05 Y141.992 E4.25425
G1 X136.727 Y142.226 E4.26751
G1 X136.294 Y142.524 E4.28499
G1 X135.875 Y142.798 E4.30165
G1 X135.399 Y143.093 E4.32027
G1 X135.046 Y143.299 E4.33387
G1 X134.698 Y143.493 E4.34712
G1 X134.42 Y143.642 E4.35761
G1 X134.161 Y143.777 E4.36732
G1 X133.934 Y143.891 E4.37577
G1 X133.654 Y144.026 E4.38611
G1 X133.455 Y144.119 E4.39342
G1 X133.193 Y144.238 E4.40299
G1 X132.881 Y144.374 E4.41431
G1 X132.417 Y144.564 E4.43098
G1 X131.923 Y144.753 E4.44857
G1 X131.366 Y144.949 E4.46821
G1 X130.916 Y145.094 E4.48394
G1 X130.508 Y145.217 E4.49811
G1 X130.233 Y145.294 E4.50761
G1 X129.943 Y145.371 E4.51759
G1 X129.636 Y145.448 E4.52812
G1 X129.139 Y145.56 E4.54506
G1 X128.664 Y145.656 E4.56118
G1 X127.661 Y145.811 E4.59494
G1 X126.796 Y145.904 E4.62387
G1 X126.023 Y145.96 E4.64965
G1 X125.368 Y145.984 E4.67145
G1 X125.018 Y145.991 E4.68309
G1 X124.601 Y145.993 E4.69696
G1 X123.97 Y145.978 E4.71796
G1 X122.829 Y145.918 E4.75596
G1 X121.876 Y145.826 E4.7878
G1 X121.285 Y145.743 E4.80765
G1 X118.687 Y145.395 E4.89483
G1 X116.156 Y145.129 E4.97948
G1 X113.647 Y144.937 E5.06317
G1 X111.161 Y144.817 E5.14595
G1 X108.634 Y144.767 E5.23002
G1 X106.083 Y144.788 E5.31487
G1 X103.778 Y144.869 E5.39158
G1 X102.991 Y144.907 E5.41779
G1 X102.682 Y144.918 E5.42807
G1 X101.961 Y144.932 E5.45205
G1 X99.365 Y145.02 E5.53845
G1 X96.426 Y145.208 E5.6364
G1 X95.329 Y145.296 E5.673
G1 X94.399 Y145.331 E5.70396
G1 X94.184 Y145.33 E5.71111
G1 X93.247 Y145.286 E5.74231
G1 X92.047 Y145.11 E5.78265
G1 X91.51 Y145.001 E5.80087
G1 X90.6 Y144.776 E5.83205
G1 X89.712 Y144.473 E5.86326
G1 X88.483 Y143.906 E5.90827
G1 X88.158 Y143.731 E5.92055
G1 X87.352 Y143.252 E5.95173
G1 X86.633 Y142.739 E5.98111
G1 X86.455 Y142.601 E5.9886
G1 X85.636 Y141.9 E6.02446
G1 X85.47 Y141.743 E6.03206
G1 X84.817 Y141.07 E6.06325
G1 X84.224 Y140.344 E6.09442
G1 X83.872 Y139.847 E6.11468
G1 X83.635 Y139.491 E6.12891
G1 X83.15 Y138.689 E6.16008
G1 X82.724 Y137.827 E6.19206
G1 X82.632 Y137.618 E6.19965
G1 X82.291 Y136.744 E6.23086
G1 X82.026 Y135.844 E6.26206
G1 X81.856 Y135.029 E6.28975
G1 X81.744 Y134.37 E6.31198
G1 X81.644 Y133.64 E6.33649
G1 X81.555 Y132.765 E6.36574
G1 X81.54 Y132.602 E6.37119
G1 X81.513 Y132.295 E6.38144
G1 X81.221 Y129.764 E6.46618
G1 X80.864 Y127.286 E6.54945
G1 X80.436 Y124.817 E6.63279
G1 X79.947 Y122.402 E6.71475
G1 X79.236 Y119.431 E6.81635
G1 X79.214 Y119.334 E6.81966
G1 X79.06 Y118.664 E6.84253
G1 X78.889 Y117.742 E6.87371
G1 X78.785 Y116.533 E6.91407
G1 X78.777 Y116.269 E6.92286
G1 X78.773 Y115.782 E6.93906
G1 X78.781 Y115.21 E6.95808
G1 X78.79 Y114.9 E6.9684
G1 X78.833 Y113.882 E7.00229
G1 X78.842 Y113.704 E7.00822
G1 X78.864 Y113.321 E7.02098
G1 X78.94 Y110.8 E7.10486
G1 X78.944 Y108.282 E7.18861
G1 X78.876 Y105.751 E7.27282
G1 X78.74 Y103.282 E7.35507
G1 X78.528 Y100.752 E7.43951
G1 X78.232 Y98.236 E7.52377
G1 X78.224 Y98.17 E7.52598
G1 X78.063 Y96.729 E7.57421
G1 X78.014 Y96.158 E7.59327
G1 X77.997 Y95.871 E7.60283
G1 X77.983 Y95.552 E7.61345
G1 X77.968 Y95.054 E7.63002
G1 X77.963 Y94.678 E7.64253
G1 X77.964 Y94.434 E7.65064
G1 X77.976 Y93.956 E7.66655
G1 X78.003 Y93.389 E7.68543
G1 X78.051 Y92.764 E7.70628
G1 X78.089 Y92.402 E7.71838
G1 X78.123 Y92.112 E7.72809
G1 X78.178 Y91.695 E7.74208
G1 X78.252 Y91.219 E7.75811
G1 X78.299 Y90.953 E7.76709
G1 X78.38 Y90.542 E7.78102
G1 X78.489 Y90.038 E7.79817
G1 X78.578 Y89.658 E7.81115
G1 X78.646 Y89.39 E7.82035
G1 X78.774 Y88.929 E7.83626
G1 X79.005 Y88.16 E7.86297
G1 X79.737 Y85.593 E7.95175
G1 X80.261 Y83.559 E8.02161
G1 X80.524 Y82.486 E8.05836
G1 X80.785 Y81.586 E8.08952
G1 X81.123 Y80.711 E8.12072
G1 X81.533 Y79.867 E8.15193
G1 X82.014 Y79.062 E8.18312
G1 X82.301 Y78.647 E8.1999
G1 X82.401 Y78.509 E8.20557
G1 X82.983 Y77.774 E8.23675
G0 F6000 X83.297 Y78.023
G1 F1200 X83.929 Y77.354 E8.26736
G1 X84.547 Y76.8 E8.29497
G1 X84.896 Y76.511 E8.31004
G1 X85.144 Y76.312 E8.32061
G1 X85.465 Y76.062 E8.33415
G1 X85.738 Y75.856 E8.34552
G1 X85.922 Y75.722 E8.35309
G1 X86.205 Y75.523 E8.3646
G1 X86.676 Y75.203 E8.38354
G1 X87.205 Y74.866 E8.4044
G1 X87.824 Y74.497 E8.42837
G1 X88.353 Y74.202 E8.44851
G1 X88.825 Y73.956 E8.46622
G1 X89.203 Y73.769 E8.48024
G1 X89.502 Y73.628 E8.49124
G1 X89.818 Y73.485 E8.50278
G1 X90.341 Y73.259 E8.52172
G1 X90.908 Y73.033 E8.54203
G1 X91.439 Y72.839 E8.56083
G1 X91.782 Y72.72 E8.5729
G1 X91.996 Y72.65 E8.58039
G1 X92.318 Y72.551 E8.5916
G1 X92.845 Y72.397 E8.60986
G1 X93.212 Y72.296 E8.62252
G1 X93.421 Y72.243 E8.62969
G1 X93.677 Y72.182 E8.63844
G1 X94.108 Y72.084 E8.65314
G1 X94.461 Y72.01 E8.66514
G1 X94.706 Y71.963 E8.67344
G1 X95.002 Y71.91 E8.68344
G1 X95.285 Y71.864 E8.69298
G1 X95.655 Y71.811 E8.70541
G1 X96.311 Y71.728 E8.7274
G1 X96.957 Y71.666 E8.74898
G1 X97.559 Y71.627 E8.76905
G1 X97.886 Y71.611 E8.77994
G1 X98.241 Y71.599 E8.79175
G1 X98.886 Y71.597 E8.81321
G1 X99.588 Y71.616 E8.83656
G1 X99.956 Y71.632 E8.84881
G1 X100.36 Y71.657 E8.86228
G1 X101.009 Y71.718 E8.88396
G1 X101.735 Y71.808 E8.90829
G1 X102.075 Y71.855 E8.91971
G1 X102.733 Y71.958 E8.94186
G1 X105.241 Y72.317 E9.02612
G1 X107.815 Y72.611 E9.11229
G1 X110.272 Y72.821 E9.19431
G1 X112.828 Y72.967 E9.27946
G1 X115.365 Y73.04 E9.36388
G1 X117.877 Y73.042 E9.44743
G1 X120.425 Y72.971 E9.53221
G1 X122.572 Y72.856 E9.60372
G1 X123.721 Y72.781 E9.64202
G1 X124.078 Y72.763 E9.6539
G1 X124.459 Y72.751 E9.66658
G1 X125.07 Y72.75 E9.6869
G1 X125.759 Y72.768 E9.70983
G1 X126.159 Y72.786 E9.72315
G1 X126.581 Y72.813 E9.73721
G1 X127.206 Y72.871 E9.75809
G1 X127.909 Y72.958 E9.78165
G1 X128.483 Y73.045 E9.80096
G1 X129.039 Y73.145 E9.81975
G1 X129.454 Y73.228 E9.83382
G1 X129.829 Y73.311 E9.8466
G1 X130.395 Y73.453 E9.86601
G1 X131.149 Y73.664 E9.89205
G1 X131.808 Y73.872 E9.91503
G1 X132.465 Y74.103 E9.9382
G1 X133.093 Y74.347 E9.9606
G1 X133.738 Y74.621 E9.98391
G1 X134.305 Y74.881 E10.00466
G1 X134.952 Y75.202 E10.02868
G1 X135.623 Y75.566 E10.05407
G1 X136.322 Y75.978 E10.08106
G1 X136.884 Y76.334 E10.10318
G1 X137.259 Y76.588 E10.11825
G1 X137.538 Y76.783 E10.12957
G1 X137.92 Y77.06 E10.14526
G1 X138.399 Y77.429 E10.16538
G1 X139.008 Y77.926 E10.19152
G1 X139.294 Y78.167 E10.20396
G1 X139.367 Y78.231 E10.20719
G1 X140.032 Y78.868 E10.23782
G1 X140.64 Y79.56 E10.26845
G1 X141.185 Y80.301 E10.29905
G1 X141.664 Y81.088 E10.32969
G1 X142.072 Y81.913 E10.3603
G1 X142.408 Y82.77 E10.39092
G1 X142.668 Y83.653 E10.42153
G1 X142.85 Y84.556 E10.45217
G1 X142.963 Y85.615 E10.48759
G1 X143.017 Y86.593 E10.52017
G1 X143.2 Y89.219 E10.60773
G1 X143.446 Y91.724 E10.69144
G1 X143.761 Y94.213 E10.77489
G1 X144.156 Y96.753 E10.86038
G1 X144.275 Y97.42 E10.88292
G1 X144.307 Y97.61 E10.88933
G1 X144.431 Y98.39 E10.9156
G1 X144.471 Y98.668 E10.92494
G1 X144.543 Y99.214 E10.94325
G1 X144.579 Y99.525 E10.95367
G1 X144.631 Y100.035 E10.97072
G1 X144.657 Y100.323 E10.98034
G1 X144.698 Y100.874 E10.99871
G1 X144.717 Y101.203 E11.00967
G1 X144.743 Y101.804 E11.02968
G1 X144.752 Y102.097 E11.03943
G1 X144.76 Y102.61 E11.0565
G1 X144.736 Y103.502 E11.08618
G1 X144.714 Y103.822 E11.09684
G1 X144.702 Y103.985 E11.10228
G1 X144.53 Y106.022 E11.17027
G1 X144.39 Y108.554 E11.25461
G1 X144.32 Y111.073 E11.33843
G1 X144.322 Y113.586 E11.42201
G1 X144.396 Y116.132 E11.50673
G1 X144.539 Y118.634 E11.59008
G1 X144.854 Y122.103 E11.70593
G1 X144.937 Y122.866 E11.73146
G1 X144.972 Y123.254 E11.74442
G1 X145.024 Y123.973 E11.7684
G1 X145.046 Y124.386 E11.78215
G1 X145.072 Y125.169 E11.80821
G1 X145.077 Y125.695 E11.8257
G1 X145.071 Y126.061 E11.83788
G1 X145.056 Y126.463 E11.85126
G1 X145.034 Y126.867 E11.86472
G1 X144.988 Y127.436 E11.8837
G1 X144.948 Y127.804 E11.89601
G1 X144.88 Y128.311 E11.91303
G1 X144.809 Y128.761 E11.92818
G1 X144.688 Y129.401 E11.94984
G1 X144.589 Y129.848 E11.96507
G1 X144.52 Y130.143 E11.97515
G1 X144.443 Y130.449 E11.98564
G1 X144.294 Y130.981 E12.00402
G1 X144.149 Y131.452 E12.02041
G1 X143.981 Y131.952 E12.03795
G1 X143.815 Y132.409 E12.05413
G1 X143.616 Y132.915 E12.07221
G1 X143.409 Y133.405 E12.0899
G1 X143.197 Y133.876 E12.10708
G1 X142.98 Y134.327 E12.12373
G1 X142.726 Y134.82 E12.14217
G1 X142.489 Y135.253 E12.15859
G1 X142.284 Y135.611 E12.17231
G1 X142.16 Y135.818 E12.18034
G1 X142.004 Y136.071 E12.19022
G1 X141.805 Y136.383 E12.20253
G1 X141.531 Y136.791 E12.21888
G1 X141.225 Y137.225 E12.23654
G1 X140.881 Y137.686 E12.25567
G1 X140.577 Y138.071 E12.27199
G1 X140.225 Y138.494 E12.29029
G1 X139.852 Y138.919 E12.3091
G1 X139.458 Y139.343 E12.32835
G1 X139.127 Y139.681 E12.34408
G1 X138.738 Y140.059 E12.36212
G1 X138.316 Y140.448 E12.38121
G1 X137.874 Y140.833 E12.40071
G1 X137.504 Y141.138 E12.41666
G1 X137.163 Y141.408 E12.43112
G1 X136.998 Y141.533 E12.43801
G1 X136.816 Y141.668 E12.44555
G1 X136.493 Y141.902 E12.45881
G1 X136.075 Y142.19 E12.47569
G1 X135.656 Y142.464 E12.49235
G1 X135.198 Y142.747 E12.51025
G1 X134.845 Y142.953 E12.52385
G1 X134.509 Y143.141 E12.53665
G1 X134.231 Y143.29 E12.54714
G1 X133.981 Y143.42 E12.55651
G1 X133.754 Y143.534 E12.56496
G1 X133.485 Y143.664 E12.5749
G1 X133.286 Y143.757 E12.58221
G1 X133.034 Y143.871 E12.59141
G1 X132.722 Y144.007 E12.60273
G1 X132.274 Y144.19 E12.61882
G1 X131.78 Y144.379 E12.63641
G1 X131.243 Y144.568 E12.65535
G1 X130.793 Y144.713 E12.67107
G1 X130.4 Y144.831 E12.68472
G1 X130.125 Y144.908 E12.69422
G1 X129.846 Y144.983 E12.70383
G1 X129.539 Y145.06 E12.71436
G1 X129.06 Y145.168 E12.73069
G1 X128.585 Y145.264 E12.7468
G1 X127.618 Y145.413 E12.77935
G1 X126.753 Y145.506 E12.80828
G1 X126.008 Y145.56 E12.83313
G1 X125.353 Y145.584 E12.85493
G1 X125.016 Y145.591 E12.86614
G1 X124.599 Y145.593 E12.88001
G1 X123.991 Y145.578 E12.90024
G1 X122.85 Y145.518 E12.93824
G1 X121.931 Y145.43 E12.96894
G1 X121.305 Y145.342 E12.98997
G1 X118.746 Y144.999 E13.07584
G1 X116.195 Y144.731 E13.16116
G1 X113.695 Y144.539 E13.24455
G1 X111.152 Y144.417 E13.32923
G1 X108.639 Y144.367 E13.41283
G1 X106.066 Y144.388 E13.49841
G1 X103.825 Y144.467 E13.57299
G1 X102.972 Y144.508 E13.6014
G1 X102.674 Y144.518 E13.61131
G1 X101.941 Y144.532 E13.6357
G1 X99.325 Y144.621 E13.72276
G1 X96.432 Y144.806 E13.81917
G1 X95.297 Y144.897 E13.85705
G1 X94.401 Y144.931 E13.88687
G1 X94.186 Y144.93 E13.89402
G1 X93.266 Y144.886 E13.92465
G1 X92.126 Y144.718 E13.96298
