;FLAVOR:Marlin
;TIME:1479
;Filament used: 0.643826m
;Layer height: 0.2
;MINX:63.878
;MINY:69.727
;MINZ:0.2
;MAXX:154.493
;MAXY:154.582
;MAXZ:2
;Generated with Cura_SteamEngine 4.4.0
M140 S60
M105
M190 S60
M104 S210
M105
M109 S210
M82 ;absolute extrusion mode
M201 X500.00 Y500.00 Z100.00 E5000.00 ;Setup machine max acceleration
M203 X500.00 Y500.00 Z10.00 E50.00 ;Setup machine max feedrate
M204 P500.00 R1000.00 T500.00 ;Setup Print/Retract/Travel acceleration
M205 X8.00 Y8.00 Z0.40 E5.00 ;Setup Jerk
M220 S100 ;Reset Feedrate
M221 S100 ;Reset Flowrate

G28 ;Home

G92 E0 ;Reset Extruder
G1 Z2.0 F3000 ;Move Z Axis up
G1 X10.1 Y20 Z0.28 F5000.0 ;Move to start position
G1 X10.1 Y200.0 Z0.28 F1500.0 E15 ;Draw the first line
G1 X10.4 Y200.0 Z0.28 F5000.0 ;Move to side a little
G1 X10.4 Y20 Z0.28 F1500.0 E30 ;Draw the second line
G92 E0 ;Reset Extruder
G1 Z2.0 F3000 ;Move Z Axis up

G92 E0
G92 E0
G1 F1500 E-6.5
;LAYER_COUNT:10
;LAYER:0
M107
G0 F6000 X69.182 Y75.465 Z0.2
;TYPE:SKIRT
G1 F1500 E0
G1 F1200 X69.706 Y75.003 E0.02324
G1 X69.978 Y74.778 E0.03498
G1 X70.229 Y74.576 E0.04569
G1 X70.618 Y74.273 E0.06209
G1 X70.906 Y74.057 E0.07407
G1 X71.13 Y73.894 E0.08328
G1 X71.401 Y73.702 E0.09433
G1 X71.697 Y73.5 E0.10624
G1 X72.003 Y73.299 E0.11842
G1 X72.285 Y73.12 E0.12953
G1 X72.557 Y72.953 E0.14015
G1 X72.942 Y72.724 E0.15505
G1 X73.219 Y72.564 E0.16569
G1 X73.451 Y72.435 E0.17451
G1 X73.804 Y72.248 E0.1878
G1 X74.122 Y72.086 E0.19967
G1 X74.412 Y71.943 E0.21043
G1 X74.708 Y71.803 E0.22132
G1 X75.05 Y71.648 E0.2338
G1 X75.578 Y71.42 E0.25293
G1 X76.174 Y71.183 E0.27427
G1 X76.723 Y70.983 E0.2937
G1 X77.097 Y70.855 E0.30685
G1 X77.313 Y70.785 E0.3144
G1 X77.611 Y70.693 E0.32477
G1 X78.099 Y70.55 E0.34169
G1 X78.441 Y70.456 E0.35348
G1 X78.681 Y70.394 E0.36173
G1 X79 Y70.316 E0.37265
G1 X79.419 Y70.221 E0.38694
G1 X80.035 Y70.1 E0.40782
G1 X80.746 Y69.981 E0.4318
G1 X81.169 Y69.919 E0.44602
G1 X81.498 Y69.877 E0.45705
G1 X82.102 Y69.816 E0.47724
G1 X82.853 Y69.762 E0.50228
G1 X83.297 Y69.739 E0.51707
G1 X83.648 Y69.728 E0.52875
G1 X84.28 Y69.727 E0.54977
G1 X84.969 Y69.745 E0.57269
G1 X85.387 Y69.764 E0.58661
G1 X85.792 Y69.79 E0.60011
G1 X86.331 Y69.838 E0.61811
G1 X86.867 Y69.899 E0.63605
G1 X87.306 Y69.958 E0.65078
G1 X87.7 Y70.019 E0.66404
G1 X88.078 Y70.084 E0.6768
G1 X88.424 Y70.15 E0.68851
G1 X88.74 Y70.215 E0.69924
G1 X89.115 Y70.298 E0.71202
G1 X89.702 Y70.445 E0.73215
G1 X90.456 Y70.656 E0.75819
G1 X91.141 Y70.872 E0.78208
G1 X91.798 Y71.103 E0.80524
G1 X92.442 Y71.352 E0.8282
G1 X93.086 Y71.625 E0.85147
G1 X93.694 Y71.905 E0.87373
G1 X94.343 Y72.228 E0.89784
G1 X95.022 Y72.596 E0.92353
G1 X95.722 Y73.008 E0.95055
G1 X96.317 Y73.385 E0.97397
G1 X96.69 Y73.638 E0.98897
G1 X96.974 Y73.837 E1.0005
G1 X97.36 Y74.117 E1.01636
G1 X97.643 Y74.329 E1.02812
G1 X98.211 Y74.77 E1.05204
G1 X100.287 Y76.335 E1.13851
G1 X102.3 Y77.765 E1.22063
G1 X104.413 Y79.178 E1.30518
G1 X106.568 Y80.532 E1.38983
G1 X108.72 Y81.802 E1.47294
G1 X110.92 Y83.018 E1.55654
G1 X113.139 Y84.162 E1.63958
G1 X115.443 Y85.269 E1.7246
G1 X117.705 Y86.278 E1.80698
G1 X120.077 Y87.259 E1.89235
G1 X122.418 Y88.146 E1.97561
G1 X124.76 Y88.962 E2.0581
G1 X127.2 Y89.734 E2.14322
G1 X129.605 Y90.421 E2.22641
G1 X132.043 Y91.044 E2.31011
G1 X134.517 Y91.603 E2.39447
G1 X136.951 Y92.078 E2.47695
G1 X139.131 Y92.447 E2.55049
G1 X139.63 Y92.525 E2.56729
G1 X140.269 Y92.644 E2.5889
G1 X141.146 Y92.835 E2.61876
G1 X141.845 Y93.011 E2.64273
G1 X142.464 Y93.189 E2.66415
G1 X143.081 Y93.387 E2.68571
G1 X143.725 Y93.614 E2.70842
G1 X144.376 Y93.867 E2.73165
G1 X144.961 Y94.116 E2.75279
G1 X145.314 Y94.273 E2.76564
G1 X145.609 Y94.411 E2.77648
G1 X145.947 Y94.576 E2.78899
G1 X146.292 Y94.752 E2.80187
G1 X146.839 Y95.051 E2.8226
G1 X147.579 Y95.483 E2.8511
G1 X148.104 Y95.81 E2.87167
G1 X148.447 Y96.037 E2.88535
G1 X148.838 Y96.308 E2.90118
G1 X149.192 Y96.565 E2.91573
G1 X149.446 Y96.755 E2.92628
G1 X149.673 Y96.93 E2.93581
G1 X149.982 Y97.177 E2.94897
G1 X150.47 Y97.582 E2.97006
G1 X150.878 Y97.938 E2.98807
G1 X150.914 Y97.971 E2.98969
G1 X151.578 Y98.634 E3.0209
G1 X152.183 Y99.351 E3.0521
G1 X152.724 Y100.116 E3.08327
G1 X153.199 Y100.925 E3.11447
G1 X153.602 Y101.772 E3.14567
G1 X153.932 Y102.65 E3.17687
G1 X154.187 Y103.553 E3.20807
G1 X154.363 Y104.474 E3.23926
G1 X154.478 Y105.832 E3.28459
G1 X154.491 Y106.409 E3.30379
G1 X154.493 Y106.806 E3.31699
G1 X154.489 Y107.102 E3.32684
G1 X154.436 Y108.038 E3.35802
G1 X154.335 Y108.791 E3.38329
G1 X153.933 Y111.165 E3.46337
G1 X153.575 Y113.667 E3.54743
G1 X153.292 Y116.151 E3.63059
G1 X153.075 Y118.688 E3.71528
G1 X153.017 Y119.716 E3.74952
G1 X153.011 Y119.811 E3.75269
G1 X152.937 Y120.941 E3.79035
G1 X152.908 Y121.297 E3.80223
G1 X152.848 Y121.908 E3.82265
G1 X152.755 Y122.618 E3.84647
G1 X152.718 Y122.843 E3.85405
G1 X152.491 Y123.9 E3.89001
G1 X152.322 Y124.532 E3.91177
G1 X151.958 Y125.649 E3.95084
G1 X151.882 Y125.846 E3.95787
G1 X151.553 Y126.612 E3.98559
G1 X151.387 Y126.961 E3.99845
G1 X150.756 Y128.106 E4.04193
G1 X150.45 Y128.591 E4.061
G1 X149.916 Y129.362 E4.0922
G1 X149.537 Y129.835 E4.11236
G1 X149.186 Y130.249 E4.13041
G1 X148.55 Y130.937 E4.16157
G1 X148.135 Y131.328 E4.18054
G1 X147.732 Y131.689 E4.19853
G1 X146.779 Y132.453 E4.23916
G1 X146.448 Y132.689 E4.25268
G1 X146.131 Y132.906 E4.26545
G1 X145.874 Y133.076 E4.2757
G1 X145.07 Y133.56 E4.30692
G1 X144.587 Y133.808 E4.32497
G1 X143.835 Y134.171 E4.35275
G1 X142.574 Y134.686 E4.39805
G1 X142.133 Y134.835 E4.41353
G1 X141.383 Y135.059 E4.43957
G1 X140.653 Y135.249 E4.46466
G1 X139.706 Y135.452 E4.49687
G1 X139.248 Y135.529 E4.51232
G1 X139.046 Y135.561 E4.51912
G1 X136.919 Y135.878 E4.59064
G1 X134.502 Y136.309 E4.6723
G1 X132.004 Y136.827 E4.75715
G1 X129.567 Y137.405 E4.84046
G1 X127.117 Y138.06 E4.92481
G1 X124.704 Y138.779 E5.00855
G1 X122.329 Y139.561 E5.09172
G1 X119.958 Y140.415 E5.17553
G1 X117.595 Y141.343 E5.25997
G1 X115.29 Y142.325 E5.3433
G1 X113.007 Y143.375 E5.42688
G1 X110.746 Y144.493 E5.51077
G1 X108.546 Y145.659 E5.59359
G1 X106.327 Y146.918 E5.67845
G1 X104.174 Y148.22 E5.76213
G1 X103.707 Y148.521 E5.78061
G1 X103.584 Y148.599 E5.78545
G1 X102.686 Y149.16 E5.82067
G1 X102.16 Y149.469 E5.84096
G1 X100.882 Y150.172 E5.88947
G1 X99.566 Y150.908 E5.93962
G1 X98.021 Y151.81 E5.99913
G1 X97.125 Y152.344 E6.03382
G1 X96.885 Y152.483 E6.04304
G1 X96.595 Y152.646 E6.05411
G1 X96.066 Y152.925 E6.074
G1 X95.729 Y153.091 E6.0865
G1 X95.282 Y153.299 E6.10289
G1 X94.951 Y153.444 E6.11491
G1 X94.499 Y153.63 E6.13117
G1 X94.284 Y153.713 E6.13883
G1 X93.344 Y154.028 E6.17181
G1 X92.875 Y154.162 E6.18803
G1 X91.963 Y154.381 E6.21923
G1 X91.036 Y154.521 E6.25041
G1 X90.1 Y154.582 E6.28161
G1 X89.162 Y154.563 E6.31281
G1 X88.229 Y154.465 E6.34401
G1 X87.309 Y154.287 E6.37518
G1 X86.406 Y154.031 E6.4064
G1 X85.529 Y153.699 E6.43759
G1 X84.683 Y153.294 E6.46878
G1 X83.875 Y152.819 E6.49996
G1 X83.11 Y152.276 E6.53116
G1 X82.394 Y151.67 E6.56236
G1 X81.733 Y151.005 E6.59354
G1 X81.13 Y150.286 E6.62475
G1 X80.686 Y149.665 E6.65014
G1 X79.956 Y148.564 E6.69408
G1 X79.033 Y147.198 E6.74891
G1 X76.994 Y144.352 E6.86536
G1 X76.8 Y144.071 E6.87672
G1 X76.448 Y143.546 E6.89774
G1 X76.352 Y143.4 E6.90355
G1 X75.907 Y142.713 E6.93078
G1 X75.821 Y142.578 E6.9361
G1 X75.444 Y141.977 E6.9597
G1 X75.16 Y141.498 E6.97822
G1 X74.856 Y140.954 E6.99894
G1 X74.783 Y140.822 E7.00396
G1 X74.519 Y140.334 E7.02242
G1 X74.449 Y140.202 E7.02739
G1 X74.16 Y139.65 E7.04811
G1 X73.858 Y139.026 E7.07117
G1 X73.46 Y138.133 E7.10368
G1 X73.327 Y137.823 E7.1149
G1 X73.033 Y137.105 E7.14071
G1 X72.733 Y136.279 E7.16994
G1 X72.497 Y135.539 E7.19577
G1 X72.402 Y135.226 E7.20665
G1 X72.243 Y134.671 E7.22585
G1 X72.019 Y133.734 E7.2579
G1 X71.845 Y132.836 E7.28832
G1 X71.781 Y132.473 E7.30058
G1 X71.707 Y132.008 E7.31624
G1 X71.584 Y130.827 E7.35573
G1 X71.553 Y130.205 E7.37644
G1 X71.545 Y130.027 E7.38237
G1 X71.462 Y127.552 E7.46474
G1 X71.309 Y125.073 E7.54735
G1 X71.078 Y122.51 E7.63294
G1 X70.787 Y120.058 E7.71506
G1 X70.418 Y117.556 E7.79918
G1 X69.978 Y115.063 E7.88338
G1 X69.478 Y112.636 E7.9658
G1 X68.899 Y110.177 E8.04982
G1 X68.251 Y107.732 E8.13395
G1 X67.536 Y105.318 E8.21769
G1 X66.751 Y102.921 E8.30158
G1 X65.574 Y99.684 E8.41614
G1 X65.116 Y98.498 E8.45842
G1 X64.948 Y98.033 E8.47487
G1 X64.752 Y97.448 E8.49539
G1 X64.546 Y96.759 E8.5193
G1 X64.479 Y96.505 E8.52804
G1 X64.374 Y96.072 E8.54286
G1 X64.258 Y95.547 E8.56074
G1 X64.134 Y94.89 E8.58298
G1 X64.095 Y94.643 E8.5913
G1 X64.031 Y94.175 E8.60701
G1 X63.969 Y93.632 E8.62519
G1 X63.916 Y93.007 E8.64605
G1 X63.9 Y92.725 E8.65544
G1 X63.883 Y92.273 E8.67049
G1 X63.878 Y91.951 E8.6812
G1 X63.89 Y91.248 E8.70458
G1 X63.932 Y90.381 E8.73345
G1 X63.995 Y89.622 E8.75879
G1 X64.032 Y89.309 E8.76927
G1 X64.146 Y88.562 E8.7944
G1 X64.264 Y87.936 E8.81559
G1 X64.405 Y87.298 E8.83732
G1 X64.554 Y86.704 E8.85769
G1 X64.581 Y86.598 E8.86133
G1 X65.082 Y84.681 E8.92723
G1 X65.706 Y81.974 E9.01963
G1 X65.846 Y81.324 E9.04174
G1 X66.082 Y80.417 E9.07291
G1 X66.394 Y79.532 E9.10412
G1 X66.78 Y78.678 E9.13529
G1 X67.238 Y77.859 E9.1665
G1 X67.815 Y77.015 E9.20051
G1 X67.931 Y76.861 E9.20692
G1 X68.526 Y76.136 E9.23811
G1 X69.182 Y75.465 E9.26933
G0 F6000 X69.48 Y75.734
G1 F1200 X69.961 Y75.311 E9.29063
G1 X70.233 Y75.086 E9.30237
G1 X70.475 Y74.891 E9.31271
G1 X70.864 Y74.588 E9.32911
G1 X71.141 Y74.38 E9.34063
G1 X71.365 Y74.217 E9.34984
G1 X71.627 Y74.032 E9.36051
G1 X71.923 Y73.83 E9.37243
G1 X72.217 Y73.637 E9.38413
G1 X72.499 Y73.458 E9.39524
G1 X72.761 Y73.297 E9.40546
G1 X73.146 Y73.068 E9.42036
G1 X73.414 Y72.914 E9.43064
G1 X73.646 Y72.785 E9.43947
G1 X73.985 Y72.604 E9.45225
G1 X74.303 Y72.442 E9.46412
G1 X74.583 Y72.305 E9.47449
G1 X74.879 Y72.165 E9.48538
G1 X75.209 Y72.016 E9.49743
G1 X75.737 Y71.788 E9.51655
G1 X76.311 Y71.559 E9.53711
G1 X76.86 Y71.359 E9.55654
G1 X77.22 Y71.235 E9.56921
G1 X77.436 Y71.165 E9.57676
G1 X77.723 Y71.077 E9.58674
G1 X78.211 Y70.934 E9.60366
G1 X78.541 Y70.843 E9.61504
G1 X78.781 Y70.781 E9.62329
G1 X79.088 Y70.706 E9.6338
G1 X79.507 Y70.611 E9.64809
G1 X80.101 Y70.494 E9.66822
G1 X80.812 Y70.375 E9.6922
G1 X81.22 Y70.315 E9.70592
G1 X81.549 Y70.273 E9.71695
G1 X82.131 Y70.215 E9.7364
G1 X82.882 Y70.161 E9.76144
G1 X83.31 Y70.139 E9.7757
G1 X83.661 Y70.128 E9.78738
G1 X84.27 Y70.127 E9.80763
G1 X84.959 Y70.145 E9.83056
G1 X85.361 Y70.163 E9.84394
G1 X85.766 Y70.189 E9.85744
G1 X86.286 Y70.235 E9.8748
G1 X86.822 Y70.296 E9.89275
G1 X87.245 Y70.353 E9.90694
G1 X87.639 Y70.414 E9.9202
G1 X88.003 Y70.477 E9.93249
G1 X88.349 Y70.543 E9.9442
G1 X88.654 Y70.605 E9.95456
G1 X89.029 Y70.688 E9.96733
G1 X89.595 Y70.83 E9.98674
G1 X90.349 Y71.041 E10.01278
G1 X91.008 Y71.249 E10.03577
G1 X91.665 Y71.48 E10.05893
G1 X92.286 Y71.721 E10.08108
G1 X92.93 Y71.994 E10.10435
G1 X93.516 Y72.263 E10.12579
G1 X94.165 Y72.586 E10.14991
G1 X94.819 Y72.941 E10.17466
G1 X95.519 Y73.353 E10.20167
G1 X96.092 Y73.716 E10.22423
G1 X96.465 Y73.969 E10.23922
G1 X96.739 Y74.161 E10.25035
G1 X97.125 Y74.441 E10.26621
G1 X97.397 Y74.645 E10.27752
G1 X97.929 Y75.058 E10.29992
G1 X100.043 Y76.652 E10.38798
G1 X102.093 Y78.108 E10.47161
G1 X104.2 Y79.517 E10.55591
G1 X106.332 Y80.857 E10.63967
G1 X108.53 Y82.153 E10.72454
G1 X110.723 Y83.365 E10.80787
G1 X112.991 Y84.535 E10.89275
G1 X115.257 Y85.624 E10.97637
G1 X117.568 Y86.655 E11.06054
G1 X119.919 Y87.627 E11.14515
G1 X122.249 Y88.51 E11.22803
G1 X124.677 Y89.356 E11.31355
G1 X127.043 Y90.104 E11.39608
G1 X129.511 Y90.809 E11.48145
G1 X131.962 Y91.435 E11.56558
G1 X134.424 Y91.992 E11.64954
G1 X136.925 Y92.48 E11.73429
G1 X139.002 Y92.831 E11.80435
G1 X139.568 Y92.92 E11.82341
G1 X140.184 Y93.035 E11.84425
G1 X141.061 Y93.226 E11.87411
G1 X141.734 Y93.396 E11.89719
G1 X142.353 Y93.574 E11.91861
G1 X142.948 Y93.764 E11.93939
G1 X143.592 Y93.991 E11.9621
G1 X144.219 Y94.235 E11.98448
G1 X144.804 Y94.484 E12.00562
G1 X145.144 Y94.636 E12.01801
G1 X145.439 Y94.774 E12.02884
G1 X145.765 Y94.933 E12.04091
G1 X146.11 Y95.109 E12.05379
G1 X146.637 Y95.397 E12.07376
G1 X147.377 Y95.829 E12.10226
G1 X147.883 Y96.143 E12.12207
G1 X148.226 Y96.37 E12.13575
G1 X148.603 Y96.632 E12.15102
G1 X148.957 Y96.889 E12.16557
G1 X149.202 Y97.072 E12.17574
G1 X149.429 Y97.247 E12.18527
G1 X149.727 Y97.485 E12.19796
G1 X150.215 Y97.89 E12.21905
G1 X150.608 Y98.233 E12.2364
G1 X150.644 Y98.266 E12.23802
G1 X151.295 Y98.917 E12.26865
G1 X151.887 Y99.622 E12.29926
G1 X152.415 Y100.376 E12.32988
G1 X152.877 Y101.173 E12.36052
G1 X153.267 Y102.006 E12.39111
G1 X153.584 Y102.871 E12.42175
G1 X153.824 Y103.76 E12.45238
G1 X153.986 Y104.666 E12.48299
G1 X154.078 Y105.841 E12.52219
G1 X154.091 Y106.418 E12.54139
G1 X154.093 Y106.8 E12.55409
G1 X154.089 Y107.096 E12.56394
G1 X154.037 Y108.015 E12.59455
G1 X153.941 Y108.725 E12.61838
G1 X153.534 Y111.125 E12.69935
G1 X153.181 Y113.598 E12.78243
G1 X152.891 Y116.144 E12.86766
G1 X152.678 Y118.632 E12.95072
G1 X152.618 Y119.693 E12.98606
G1 X152.612 Y119.785 E12.98913
G1 X152.538 Y120.915 E13.02679
G1 X152.51 Y121.258 E13.03824
G1 X152.45 Y121.869 E13.05866
G1 X152.361 Y122.553 E13.0816
G1 X152.324 Y122.778 E13.08918
G1 X152.104 Y123.796 E13.12382
G1 X151.935 Y124.428 E13.14558
G1 X151.585 Y125.505 E13.18325
G1 X151.509 Y125.702 E13.19027
G1 X151.191 Y126.44 E13.217
G1 X151.025 Y126.789 E13.22985
G1 X150.418 Y127.892 E13.27173
G1 X150.112 Y128.377 E13.2908
G1 X149.587 Y129.134 E13.32144
G1 X149.232 Y129.576 E13.3403
G1 X148.881 Y129.99 E13.35835
G1 X148.256 Y130.666 E13.38897
G1 X147.869 Y131.03 E13.40664
G1 X147.466 Y131.391 E13.42464
G1 X146.547 Y132.127 E13.4638
G1 X146.216 Y132.363 E13.47732
G1 X145.91 Y132.573 E13.48966
G1 X145.653 Y132.743 E13.49991
G1 X144.864 Y133.217 E13.53052
G1 X144.413 Y133.448 E13.54738
G1 X143.661 Y133.811 E13.57515
G1 X142.446 Y134.307 E13.6188
G1 X142.005 Y134.456 E13.63428
G1 X141.282 Y134.672 E13.65938
G1 X140.552 Y134.862 E13.68447
G1 X139.639 Y135.057 E13.71552
G1 X139.181 Y135.134 E13.73097
G1 X138.987 Y135.165 E13.7375
G1 X136.896 Y135.477 E13.80782
G1 X134.389 Y135.923 E13.89251
G1 X131.936 Y136.432 E13.97583
G1 X129.435 Y137.025 E14.06132
G1 X127.046 Y137.664 E14.14358
G1 X124.57 Y138.402 E14.22951
G1 X122.217 Y139.176 E14.31189
G1 X119.782 Y140.053 E14.39798
G1 X117.458 Y140.966 E14.48102
G1 X115.145 Y141.952 E14.56465
G1 X112.828 Y143.017 E14.64947
G1 X110.56 Y144.139 E14.73363
G1 X108.355 Y145.308 E14.81663
G1 X106.129 Y146.57 E14.90174
G1 X103.973 Y147.875 E14.98556
G1 X103.491 Y148.185 E15.00463
G1 X103.372 Y148.26 E15.0093
G1 X102.474 Y148.821 E15.04452
G1 X101.967 Y149.119 E15.06408
G1 X100.689 Y149.822 E15.11259
G1 X99.326 Y150.585 E15.16455
G1 X97.902 Y151.416 E15.21938
G1 X96.92 Y152.001 E15.2574
G1 X96.689 Y152.134 E15.26627
G1 X96.399 Y152.297 E15.27733
G1 X95.889 Y152.566 E15.29651
G1 X95.552 Y152.732 E15.309
G1 X95.121 Y152.932 E15.32481
G1 X94.79 Y153.077 E15.33683
G1 X94.355 Y153.257 E15.35248
G1 X94.14 Y153.34 E15.36015
G1 X93.234 Y153.643 E15.39192
G1 X92.765 Y153.777 E15.40815
G1 X91.87 Y153.991 E15.43875
G1 X90.959 Y154.127 E15.46939
G1 X90.04 Y154.183 E15.50001
G1 X89.12 Y154.16 E15.53062
G1 X88.205 Y154.056 E15.56125
G1 X87.303 Y153.874 E15.59186
G1 X86.419 Y153.613 E15.62251
G1 X85.562 Y153.278 E15.65312
G1 X84.737 Y152.869 E15.68374
G1 X83.951 Y152.39 E15.71436
G1 X83.209 Y151.845 E15.74498
G1 X82.518 Y151.237 E15.77559
G1 X81.881 Y150.572 E15.80622
G1 X81.305 Y149.854 E15.83684
G1 X81.019 Y149.444 E15.85346
G1 X80.237 Y148.265 E15.90052
G1 X79.374 Y146.988 E15.95178
G1 X77.319 Y144.119 E16.06916
G1 X77.132 Y143.848 E16.08011
G1 X76.78 Y143.323 E16.10113
G1 X76.687 Y143.183 E16.10672
G1 X76.242 Y142.496 E16.13395
G1 X76.159 Y142.366 E16.13908
G1 X75.782 Y141.765 E16.16267
G1 X75.509 Y141.303 E16.18052
G1 X75.205 Y140.759 E16.20125
G1 X75.135 Y140.632 E16.20607
G1 X74.871 Y140.144 E16.22452
G1 X74.803 Y140.017 E16.22932
G1 X74.514 Y139.465 E16.25004
G1 X74.223 Y138.863 E16.27228
G1 X73.825 Y137.97 E16.3048
G1 X73.698 Y137.672 E16.31557
G1 X73.404 Y136.954 E16.34138
